!!!COM: Beethoven, Ludwig van
!!!CDT: 1770///-1827///
!!!ODT: 1806///
!!!OTL: String Quartet No. 9 in C Major, Op. 59, No. 3
!!!OPS: Op. 59
!!!ONM: No. 3
!!!OMV: Mvmt. 4
!!!OMD: Allegro molto
!!!PDT: 1808///
!!!PPP: Vienna
!!!ODE: Dem Grafen Rasoumoffsky gewidmet
!!!ONB: Op. 59 are called the Rasumovsky Quartets
!!!MPD: 1806///
**kern	**dynam	**kern	**dynam	**kern	**dynam	**kern	**dynam
*staff4	*staff4	*staff3	*staff3	*staff2	*staff2	*staff1	*staff1
*Icello	*Icello	*Iviola	*Iviola	*Ivioln	*Ivioln	*Ivioln	*Ivioln
*clefF4	*clefF4	*clefC3	*clefC3	*clefG2	*clefG2	*clefG2	*clefG2
*k[]	*k[]	*k[]	*k[]	*k[]	*k[]	*k[]	*k[]
*C:	*C:	*C:	*C:	*C:	*C:	*C:	*C:
*M2/2	*M2/2	*M2/2	*M2/2	*M2/2	*M2/2	*M2/2	*M2/2
*MM280	*MM280	*MM280	*MM280	*MM280	*MM280	*MM280	*MM280
=1-	=1-	=1-	=1-	=1-	=1-	=1-	=1-
1r	.	[2g\	p	1r	.	1r	.
.	.	8g\L]	.	.	.	.	.
.	.	8g\	.	.	.	.	.
.	.	8a\	.	.	.	.	.
.	.	8g\J	.	.	.	.	.
=2	=2	=2	=2	=2	=2	=2	=2
1r	.	8f\L	.	1r	.	1r	.
.	.	8e\J	.	.	.	.	.
.	.	4d\	.	.	.	.	.
.	.	8r	.	.	.	.	.
.	.	8f\L	.	.	.	.	.
.	.	8g\	.	.	.	.	.
.	.	8f\J	.	.	.	.	.
=3	=3	=3	=3	=3	=3	=3	=3
1r	.	8e\L	.	1r	.	1r	.
.	.	8d\J	.	.	.	.	.
.	.	4c\	.	.	.	.	.
.	.	8r	.	.	.	.	.
.	.	8g\L	.	.	.	.	.
.	.	8a\	.	.	.	.	.
.	.	8g\J	.	.	.	.	.
=4	=4	=4	=4	=4	=4	=4	=4
1r	.	8f\L	.	1r	.	1r	.
.	.	8e\	.	.	.	.	.
.	.	8d\	.	.	.	.	.
.	.	8e\J	.	.	.	.	.
.	.	8f\L	.	.	.	.	.
.	.	8d\	.	.	.	.	.
.	.	8g\	.	.	.	.	.
.	.	8f\J	.	.	.	.	.
=5	=5	=5	=5	=5	=5	=5	=5
1r	.	8e\L	.	1r	.	1r	.
.	.	8d\	.	.	.	.	.
.	.	8c\	.	.	.	.	.
.	.	8d\J	.	.	.	.	.
.	.	8e\L	.	.	.	.	.
.	.	8f\	.	.	.	.	.
.	.	8g\	.	.	.	.	.
.	.	8e\J	.	.	.	.	.
=6	=6	=6	=6	=6	=6	=6	=6
1r	.	8a\L	.	1r	.	1r	.
.	.	8g\	.	.	.	.	.
.	.	8f\	.	.	.	.	.
.	.	8a\J	.	.	.	.	.
.	.	8b\L	.	.	.	.	.
.	.	8a\	.	.	.	.	.
.	.	8g\	.	.	.	.	.
.	.	8b\J	.	.	.	.	.
=7	=7	=7	=7	=7	=7	=7	=7
1r	.	8cc\L	.	1r	.	1r	.
.	.	8dd\	.	.	.	.	.
.	.	8ee\	.	.	.	.	.
.	.	8cc\J	.	.	.	.	.
.	.	8g\L	.	.	.	.	.
.	.	8f\	.	.	.	.	.
.	.	8e\	.	.	.	.	.
.	.	8g\J	.	.	.	.	.
=8	=8	=8	=8	=8	=8	=8	=8
1r	.	8a\L	.	1r	.	1r	.
.	.	8g\	.	.	.	.	.
.	.	8f\	.	.	.	.	.
.	.	8a\J	.	.	.	.	.
.	.	8b\L	.	.	.	.	.
.	.	8a\	.	.	.	.	.
.	.	8g\	.	.	.	.	.
.	.	8b\J	.	.	.	.	.
=9	=9	=9	=9	=9	=9	=9	=9
1r	.	8cc\L	.	1r	.	1r	.
.	.	8cc\	.	.	.	.	.
.	.	8dd\	.	.	.	.	.
.	.	8cc\J	.	.	.	.	.
.	.	8a\L	.	.	.	.	.
.	.	8a\	.	.	.	.	.
.	.	8b\	.	.	.	.	.
.	.	8a\J	.	.	.	.	.
=10	=10	=10	=10	=10	=10	=10	=10
1r	.	8f#\L	.	1r	.	1r	.
.	.	8f#\	.	.	.	.	.
.	.	8g\	.	.	.	.	.
.	.	8f#\J	.	.	.	.	.
.	.	8d\L	.	.	.	.	.
.	.	8d\	.	.	.	.	.
.	.	8e\	.	.	.	.	.
.	.	8d\J	.	.	.	.	.
=11	=11	=11	=11	=11	=11	=11	=11
1r	.	8g\L	.	[2dd\	p	1r	.
.	.	8d\	.	.	.	.	.
.	.	8e\	.	.	.	.	.
.	.	8f#\J	.	.	.	.	.
.	.	8g\L	.	8dd\L]	.	.	.
.	.	8f#\	.	8dd\	.	.	.
.	.	8g\	.	8ee\	.	.	.
.	.	8g#\J	.	8dd\J	.	.	.
=12	=12	=12	=12	=12	=12	=12	=12
1r	.	8a\L	.	8cc\L	.	1r	.
.	.	8gn\	.	8b\J	.	.	.
.	.	8f#\	.	4a/	.	.	.
.	.	8e\J	.	.	.	.	.
.	.	8f#\L	.	8r	.	.	.
.	.	8d\	.	8cc\L	.	.	.
.	.	8e\	.	8dd\	.	.	.
.	.	8f#\J	.	8cc\J	.	.	.
=13	=13	=13	=13	=13	=13	=13	=13
1r	.	8g\L	.	8b/L	.	1r	.
.	.	8d\	.	8a/J	.	.	.
.	.	8e\	.	4g/	.	.	.
.	.	8f#\J	.	.	.	.	.
.	.	8g\L	.	8r	.	.	.
.	.	8f#\	.	8dd\L	.	.	.
.	.	8g\	.	8ee\	.	.	.
.	.	8g#\J	.	8dd\J	.	.	.
=14	=14	=14	=14	=14	=14	=14	=14
1r	.	8a\L	.	8cc\L	.	1r	.
.	.	8gn\	.	8b\	.	.	.
.	.	8f#\	.	8a\	.	.	.
.	.	8e\J	.	8b\J	.	.	.
.	.	8d\L	.	8cc\L	.	.	.
.	.	8c\	.	8a\	.	.	.
.	.	8B\	.	8dd\	.	.	.
.	.	8A\J	.	8cc\J	.	.	.
=15	=15	=15	=15	=15	=15	=15	=15
1r	.	4G'/	.	8b/L	.	1r	.
.	.	.	.	8a/	.	.	.
.	.	4d'\	.	8g/	.	.	.
.	.	.	.	8a/J	.	.	.
.	.	4B'/	.	8b\L	.	.	.
.	.	.	.	8cc\	.	.	.
.	.	4G'/	.	8dd\	.	.	.
.	.	.	.	8b\J	.	.	.
=16	=16	=16	=16	=16	=16	=16	=16
1r	.	4c'/	.	8ee\L	.	1r	.
.	.	.	.	8dd\	.	.	.
.	.	4A'/	.	8cc\	.	.	.
.	.	.	.	8ee\J	.	.	.
.	.	4d'\	.	8ff#\L	.	.	.
.	.	.	.	8ee\	.	.	.
.	.	4c'\	.	8dd\	.	.	.
.	.	.	.	8ff#\J	.	.	.
=17	=17	=17	=17	=17	=17	=17	=17
1r	.	4B'/	.	8gg\L	.	1r	.
.	.	.	.	8aa\	.	.	.
.	.	4d'\	.	8bb\	.	.	.
.	.	.	.	8gg\J	.	.	.
.	.	4B'/	.	8dd\L	.	.	.
.	.	.	.	8cc\	.	.	.
.	.	4G'/	.	8b\	.	.	.
.	.	.	.	8dd\J	.	.	.
=18	=18	=18	=18	=18	=18	=18	=18
1r	.	4c'/	.	8ee\L	.	1r	.
.	.	.	.	8dd\	.	.	.
.	.	4G'/	.	8cc\	.	.	.
.	.	.	.	8ee\J	.	.	.
.	.	4c#'/	.	8ee\L	.	.	.
.	.	.	.	8dd\	.	.	.
.	.	4G'/	.	8cc#\	.	.	.
.	.	.	.	8ee\J	.	.	.
=19	=19	=19	=19	=19	=19	=19	=19
1r	.	4d'\	.	8ffn\L	.	1r	.
.	.	.	.	8ff\	.	.	.
.	.	4G'/	.	8gg\	.	.	.
.	.	.	.	8ff\J	.	.	.
.	.	4f'\	.	8dd\L	.	.	.
.	.	.	.	8dd\	.	.	.
.	.	4G'/	.	8ee\	.	.	.
.	.	.	.	8dd\J	.	.	.
=20	=20	=20	=20	=20	=20	=20	=20
1r	.	4g'\	.	8b\L	.	1r	.
.	.	.	.	8b\	.	.	.
.	.	4G'/	.	8cc\	.	.	.
.	.	.	.	8b\J	.	.	.
.	.	4f'\	.	8g/L	.	.	.
.	.	.	.	8g/	.	.	.
.	.	4G'/	.	8a/	.	.	.
.	.	.	.	8g/J	.	.	.
=21	=21	=21	=21	=21	=21	=21	=21
[2G\	.	8e\L	.	8cc\L	.	1r	.
.	.	8d\	.	8b\	.	.	.
.	.	8e\	.	8cc\	.	.	.
.	.	8f\J	.	8dd\J	.	.	.
8G\L]	.	8g\L	.	8ee\L	.	.	.
8G\	.	8c#\	.	8a\	.	.	.
8A\	.	8d\	.	8b\	.	.	.
8G\J	.	8e\J	.	8cc#\J	.	.	.
=22	=22	=22	=22	=22	=22	=22	=22
8F\L	.	8f\L	.	8dd\L	.	1r	.
8E\J	.	8g\	.	8ee\	.	.	.
4D\	.	8a\	.	8ff\	.	.	.
.	.	8f\J	.	8dd\J	.	.	.
8r	.	8d\L	.	8b/L	.	.	.
8F\L	.	8B\	.	8g/	.	.	.
8G\	.	8cn\	.	8a/	.	.	.
8F\J	.	8d\J	.	8b/J	.	.	.
=23	=23	=23	=23	=23	=23	=23	=23
8E\L	.	8e\L	.	8ccn\L	.	1r	.
8D\J	.	8f\	.	8dd\	.	.	.
4C/	.	8g\	.	8ee\	.	.	.
.	.	8g\J	.	8ee\J	.	.	.
8r	.	8g\L	.	8ee\L	.	.	.
8G\L	.	8A\	.	8cc#\	.	.	.
8A\	.	8B\	.	8dd\	.	.	.
8G\J	.	8c#\J	.	8ee\J	.	.	.
=24	=24	=24	=24	=24	=24	=24	=24
8F\L	.	8d\L	.	8ff\L	.	1r	.
8E\	.	8e\	.	8gg\	.	.	.
8D\	.	8f\	.	8aa\	.	.	.
8E\J	.	8e\J	.	8gg\J	.	.	.
8F\L	.	8d\L	.	8ff\L	.	.	.
8D\	.	8G\	.	8b\	.	.	.
8G\	.	8A\	.	8ccn\	.	.	.
8F\J	.	8B\J	.	8dd\J	.	.	.
=25	=25	=25	=25	=25	=25	=25	=25
8E\L	.	4cn'\	.	4ee'\	.	1r	.
8D\	.	.	.	.	.	.	.
8C\	.	4e'\	.	4gg'\	.	.	.
8D\J	.	.	.	.	.	.	.
8E\L	.	4g'\	.	4cc'\	.	.	.
8F\	.	.	.	.	.	.	.
8G\	.	4c'\	.	4bb-'\	.	.	.
8E\J	.	.	.	.	.	.	.
=26	=26	=26	=26	=26	=26	=26	=26
8A\L	.	4c'\	.	4cc'\	.	1r	.
8G\	.	.	.	.	.	.	.
8F\	.	4f'\	.	4aa'\	.	.	.
8A\J	.	.	.	.	.	.	.
8B\L	.	4f'\	.	4dd'\	.	.	.
8A\	.	.	.	.	.	.	.
8G\	.	4f'\	.	4gg'\	.	.	.
8B\J	.	.	.	.	.	.	.
=27	=27	=27	=27	=27	=27	=27	=27
8c\L	.	4e'\	.	4cc'\	.	1r	.
8d\	.	.	.	.	.	.	.
8e\	.	4e'\	.	4gg'\	.	.	.
8c\J	.	.	.	.	.	.	.
8G\L	.	4b-'\	.	4cc'\	.	.	.
8F\	.	.	.	.	.	.	.
8E\	.	4b-'\	.	4gg'\	.	.	.
8G\J	.	.	.	.	.	.	.
=28	=28	=28	=28	=28	=28	=28	=28
8A\L	.	4a'\	.	4cc'\	.	1r	.
8G\	.	.	.	.	.	.	.
8F\	.	4cc'\	.	4ff'\	.	.	.
8A\J	.	.	.	.	.	.	.
8B\L	.	4g'\	.	4dd'\	.	.	.
8A\	.	.	.	.	.	.	.
8G\	.	4dd'\	.	4ff'\	.	.	.
8B\J	.	.	.	.	.	.	.
=29	=29	=29	=29	=29	=29	=29	=29
8c\L	.	4g'\	.	4dd'\	.	1r	.
8c\	.	.	.	.	.	.	.
8B\	.	4dd'\	.	4ee'\	.	.	.
8c\J	.	.	.	.	.	.	.
8A\L	.	4a'\	.	4cc'\	.	.	.
8A\	.	.	.	.	.	.	.
8G#\	.	4cc'\	.	4ee'\	.	.	.
8A\J	.	.	.	.	.	.	.
=30	=30	=30	=30	=30	=30	=30	=30
8F\L	.	4cc\	.	4dd'\	.	1r	.
8F\	.	.	.	.	.	.	.
8E\	.	4c'\	.	4d/	.	.	.
8F\J	.	.	.	.	.	.	.
8Gn\L	.	4B'/	.	4d/	.	.	.
8G\	.	.	.	.	.	.	.
8F#\	.	4b'\	.	4dd'\	.	.	.
8G\J	.	.	.	.	.	.	.
=31	=31	=31	=31	=31	=31	=31	=31
8E/L	f	8e/L	f	4cc\	f	[2gg\	f
8GG/	.	8G/	.	.	.	.	.
8AA/	.	8A/	.	[4g/	.	.	.
8BB/J	.	8B/J	.	.	.	.	.
8C/L	.	8c/L	.	8g/L]	.	8gg\L]	.
8BB/	.	8B/	.	8g/	.	8gg\	.
8C/	.	8c/	.	8a/	.	8aa\	.
8C#/J	.	8c#/J	.	8g/J	.	8gg\J	.
=32	=32	=32	=32	=32	=32	=32	=32
8D\L	.	8d\L	.	8f/L	.	8ff\L	.
8E\	.	8e\	.	8e/J	.	8ee\J	.
8F\	.	8f\	.	4d/	.	4dd\	.
8D\J	.	8d\J	.	.	.	.	.
8BB/L	.	8B/L	.	8r	.	8r	.
8D/	.	8d/	.	8f/L	.	8ff\L	.
8GG/	.	8G/	.	8g/	.	8gg\	.
8BB/J	.	8B/J	.	8f/J	.	8ff\J	.
=33	=33	=33	=33	=33	=33	=33	=33
8Cn/L	.	8cn\L	.	8e/L	.	8ee\L	.
8BB/	.	8B\	.	8d/J	.	8dd\J	.
8C/	.	8c\	.	4c/	.	4cc\	.
8D/J	.	8d\J	.	.	.	.	.
8E/L	.	8e\L	.	8r	.	8r	.
8D/	.	8d\	.	8g/L	.	8gg\L	.
8C/	.	8c\	.	8a/	.	8aa\	.
8C#/J	.	8c#\J	.	8g/J	.	8gg\J	.
=34	=34	=34	=34	=34	=34	=34	=34
8D/L	.	8d/L	.	8f/L	.	8ff\L	.
8AA/	.	8A/	.	8e/	.	8ee\	.
8BB/	.	8B/	.	8d/	.	8dd\	.
8C#/J	.	8c#/J	.	8e/J	.	8ee\J	.
8D/L	.	8d/L	.	8f/L	.	8ff\L	.
8Cn/	.	8cn/	.	8d/	.	8dd\	.
8BB/	.	8B/	.	8g/	.	8gg\	.
8GG/J	.	8G/J	.	8f/J	.	8ff\J	.
=35	=35	=35	=35	=35	=35	=35	=35
4C'/	.	4c'/	.	8e/L	.	8ee\L	.
.	.	.	.	8d/	.	8dd\	.
4GG'/	.	4G'/	.	8c/	.	8cc\	.
.	.	.	.	8d/J	.	8dd\J	.
4CC'/	.	4C'/	.	8e/L	.	8ee\L	.
.	.	.	.	8f/	.	8ff\	.
4BB-'/	.	4B-'/	.	8g/	.	8gg\	.
.	.	.	.	8e/J	.	8ee\J	.
=36	=36	=36	=36	=36	=36	=36	=36
4FF/	.	4F/	.	8a/L	.	8aa\L	.
.	.	.	.	8g/	.	8gg\	.
4AA/	.	4A/	.	8f/	.	8ff\	.
.	.	.	.	8a/J	.	8aa\J	.
4DD/	.	4D/	.	8b/L	.	8bb\L	.
.	.	.	.	8a/	.	8aa\	.
4GG/	.	4G/	.	8g/	.	8gg\	.
.	.	.	.	8b/J	.	8bb\J	.
=37	=37	=37	=37	=37	=37	=37	=37
4EE/	.	4E/	.	8cc\L	.	8ccc\L	.
.	.	.	.	8dd\	.	8ddd\	.
4GG/	.	4G/	.	8ee\	.	8eee\	.
.	.	.	.	8cc\J	.	8ccc\J	.
4CC/	.	4C/	.	8g/L	.	8gg\L	.
.	.	.	.	8f/	.	8ff\	.
4BB-/	.	4B-/	.	8e/	.	8ee\	.
.	.	.	.	8g/J	.	8gg\J	.
=38	=38	=38	=38	=38	=38	=38	=38
4FF/	.	4F/	.	8a/L	.	8aa\L	.
.	.	.	.	8a/	.	8aa\	.
4AA/	.	4A/	.	8g/	.	8gg\	.
.	.	.	.	8a/J	.	8aa\J	.
4DD/	.	4D/	.	8b/L	.	8bb\L	.
.	.	.	.	8b/	.	8bb\	.
4GG/	.	4G/	.	8a/	.	8aa\	.
.	.	.	.	8b/J	.	8bb\J	.
=39	=39	=39	=39	=39	=39	=39	=39
2AA'/	.	2A'/	.	8cc\L	.	8ccc\L	.
.	.	.	.	8cc\	.	8ccc\	.
.	.	.	.	8b\	.	8bb\	.
.	.	.	.	8cc\J	.	8ccc\J	.
2BBn'/	.	2B'/	.	8dd\L	.	8ddd\L	.
.	.	.	.	8dd\	.	8ddd\	.
.	.	.	.	8cc\	.	8ccc\	.
.	.	.	.	8dd\J	.	8ddd\J	.
=40	=40	=40	=40	=40	=40	=40	=40
2C'/	.	2c'\	.	8ee\L	.	8eee\L	.
.	.	.	.	8ee\	.	8eee\	.
.	.	.	.	8dd\	.	8ddd\	.
.	.	.	.	8ee\J	.	8eee\J	.
2D'/	.	2d'\	.	8ff\L	.	8fff\L	.
.	.	.	.	8ff\	.	8fff\	.
.	.	.	.	8ee\	.	8eee\	.
.	.	.	.	8ff\J	.	8fff\J	.
=41	=41	=41	=41	=41	=41	=41	=41
2E'\	.	2e'\	.	8gg\L	.	8ggg\L	.
.	.	.	.	8gg\	.	8ggg\	.
.	.	.	.	8aa\	.	8aaa\	.
.	.	.	.	8gg\J	.	8ggg\J	.
2F'\	.	2f'\	.	8ff\L	.	8fff\L	.
.	.	.	.	8ff\	.	8fff\	.
.	.	.	.	8gg\	.	8ggg\	.
.	.	.	.	8ff\J	.	8fff\J	.
=42	=42	=42	=42	=42	=42	=42	=42
2G'\	.	2g'\	.	8ee\L	.	8eee\L	.
.	.	.	.	8ee\	.	8eee\	.
.	.	.	.	8ff\	.	8fff\	.
.	.	.	.	8ee\J	.	8eee\J	.
2G#'\	.	2g#'\	.	8dd\L	.	8ddd\L	.
.	.	.	.	8dd\	.	8ddd\	.
.	.	.	.	8ee\	.	8eee\	.
.	.	.	.	8dd\J	.	8ddd\J	.
=43	=43	=43	=43	=43	=43	=43	=43
2A'\	.	2a'\	.	4cc\	.	8ccc\L	.
.	.	.	.	.	.	8ccc\	.
.	.	.	.	4cc\	.	8bb\	.
.	.	.	.	.	.	8ccc\J	.
2B'\	.	2d'\	.	4r	.	8ddd\L	.
.	.	.	.	.	.	8ddd\	.
.	.	.	.	4g\ 4dd\	.	8ccc\	.
.	.	.	.	.	.	8ddd\J	.
=44	=44	=44	=44	=44	=44	=44	=44
2c'\	f	2g'\	f	4r	.	8eee\L	.
.	.	.	.	.	.	8eee\	.
.	.	.	.	4cc\ 4ee\	f	8ddd\	f
.	.	.	.	.	.	8eee\J	.
2d\	.	2f'\	.	4r	.	8fff\L	.
.	.	.	.	.	.	8fff\	.
.	.	.	.	4b\ 4ff\	.	8eee\	.
.	.	.	.	.	.	8fff\J	.
=45	=45	=45	=45	=45	=45	=45	=45
2e'\	.	4c\	.	4r	.	8ggg\L	.
.	.	.	.	.	.	8ggg\	.
.	.	4cc\	.	4gg\	.	8aaa\	.
.	.	.	.	.	.	8ggg\J	.
2F'\	.	4r	.	4r	.	8fff\L	.
.	.	.	.	.	.	8fff\	.
.	.	4a\	.	4dd\ 4ff\	.	8ggg\	.
.	.	.	.	.	.	8fff\J	.
=46	=46	=46	=46	=46	=46	=46	=46
2G'\	.	4r	.	4r	.	8eee\L	.
.	.	.	.	.	.	8eee\	.
.	.	4g\	.	4cc\ 4ee\	.	8fff\	.
.	.	.	.	.	.	8eee\J	.
2GG'/	.	4r	.	4r	.	8ddd\L	.
.	.	.	.	.	.	8ddd\	.
.	.	4B/	.	4G/ 4f/	.	8eee\	.
.	.	.	.	.	.	8ddd\J	.
=47	=47	=47	=47	=47	=47	=47	=47
4CC/ 4C/	ff	4c\	ff	4G/ 4e/	ff	(8ccc\L	ff
.	.	.	.	.	.	8gg\)	.
4r	.	4r	.	4r	.	8ccc\	.
.	.	.	.	.	.	8ccc\J	.
4CC/ 4C/	.	4e\	.	4G/ 4g/	.	(8ccc\L	.
.	.	.	.	.	.	8gg\)	.
4r	.	4r	.	4r	.	8ccc'\	.
.	.	.	.	.	.	8ccc'\J	.
=48	=48	=48	=48	=48	=48	=48	=48
4CC/ 4C/	.	4e\	.	4G/ 4g/	.	(8ccc\L	.
.	.	.	.	.	.	8gg\)	.
4r	.	4r	.	4r	.	8ccc'\	.
.	.	.	.	.	.	8ccc'\J	.
4CC/ 4C/	.	4e\	.	4G/ 4g/	.	(8ccc\L	.
.	.	.	.	.	.	8gg\)	.
4r	.	4r	.	4r	.	8ccc'\	.
.	.	.	.	.	.	8ccc'\J	.
=49	=49	=49	=49	=49	=49	=49	=49
[1CC [1C	.	(8f\L	.	(8a-/L	.	[1dd [1bb	.
.	.	8d\)	.	8f/)	.	.	.
.	.	8f'\	.	8a-'/	.	.	.
.	.	8f'\J	.	8a-'/J	.	.	.
.	.	(8f\L	.	(8a-/L	.	.	.
.	.	8d\)	.	8f/)	.	.	.
.	.	8f'\	.	8a-'/	.	.	.
.	.	8f'\J	.	8a-'/J	.	.	.
=50	=50	=50	=50	=50	=50	=50	=50
1CC] 1C]	.	(8f\L	.	(8a-/L	.	1dd] 1bb]	.
.	.	8d\)	.	8f/)	.	.	.
.	.	8f'\	.	8a-'/	.	.	.
.	.	8f'\J	.	8a-'/J	.	.	.
.	.	(8f\L	.	(8g/L	.	.	.
.	.	8d\)	.	8f/)	.	.	.
.	.	8f'\	.	8g'/	.	.	.
.	.	8f'\J	.	8g'/J	.	.	.
=51	=51	=51	=51	=51	=51	=51	=51
4CC/ 4C/	.	4e\	.	4G/ 4g/	.	(8ccc\L	.
.	.	.	.	.	.	8gg\)	.
4r	.	4r	.	4r	.	8ccc'\	.
.	.	.	.	.	.	8ccc'\J	.
4CC/ 4C/	.	4e\	.	4G/ 4g/	.	(8ccc\L	.
.	.	.	.	.	.	8gg\)	.
4r	.	4r	.	4r	.	8ccc'\	.
.	.	.	.	.	.	8ccc'\J	.
=52	=52	=52	=52	=52	=52	=52	=52
4CC/ 4C/	.	4e\	.	4G/ 4g/	.	(8ccc\L	.
.	.	.	.	.	.	8gg\)	.
4r	.	4r	.	4r	.	8ccc'\	.
.	.	.	.	.	.	8ccc'\J	.
4CC/ 4C/	.	4e\	.	4G/ 4g/	.	(8ccc\L	.
.	.	.	.	.	.	8gg\)	.
4r	.	4r	.	4r	.	8ccc'\	.
.	.	.	.	.	.	8ccc'\J	.
=53	=53	=53	=53	=53	=53	=53	=53
[1C#	.	(8e\L	.	(8g/L	.	[1b- [1bb-	.
.	.	8c#\)	.	8e/)	.	.	.
.	.	8e'\	.	8g'/	.	.	.
.	.	8e'\J	.	8g'/J	.	.	.
.	.	(8e\L	.	(8g/L	.	.	.
.	.	8c#\)	.	8e/)	.	.	.
.	.	8e'\	.	8g'/	.	.	.
.	.	8e'\J	.	8g'/J	.	.	.
=54	=54	=54	=54	=54	=54	=54	=54
1C#]	.	(8e\L	.	(8g/L	.	1b-] 1bb-]	.
.	.	8c#\)	.	8e/)	.	.	.
.	.	8e'\	.	8g'/	.	.	.
.	.	8e'\J	.	(8g'/J	.	.	.
.	.	(8e\L	.	8g/L	.	.	.
.	.	8c#\)	.	8e/)	.	.	.
.	.	8e\	.	8g'/	.	.	.
.	.	8e'\J	.	8g'/J	.	.	.
=55	=55	=55	=55	=55	=55	=55	=55
4C#/	.	4e\	.	4g/	.	(8aa\L	.
.	.	.	.	.	.	8ee\)	.
4r	.	4r	.	4r	.	8aa'\	.
.	.	.	.	.	.	8aa'\J	.
4D/	.	(8d\L	.	(8f/L	.	2r	.
.	.	8A\)	.	8d/)	.	.	.
4r	.	8d'\	.	8f'/	.	.	.
.	.	8d'\J	.	8f'/J	.	.	.
=56	=56	=56	=56	=56	=56	=56	=56
4BB/	.	4d\	.	4f/	.	(8gg\L	.
.	.	.	.	.	.	8dd\)	.
4r	.	4r	.	4r	.	8gg'\	.
.	.	.	.	.	.	8gg'\J	.
4Cn/	.	(8c/L	.	(8e/L	.	2r	.
.	.	8G/)	.	8c/)	.	.	.
4r	.	8c'/	.	8e'/	.	.	.
.	.	8c'/J	.	8e'/J	.	.	.
=57	=57	=57	=57	=57	=57	=57	=57
4C/	.	4r	.	4r	.	(8aa\L	.
.	.	.	.	.	.	8ee\)	.
4r	.	4c\	.	4e/	.	8aa'\	.
.	.	.	.	.	.	8aa'\J	.
4C/	.	4r	.	4r	.	(8aa#\L	.
.	.	.	.	.	.	8ee\)	.
4r	.	4e\	.	4g/	.	8aa#'\	.
.	.	.	.	.	.	8aa#'\J	.
=58	=58	=58	=58	=58	=58	=58	=58
4BB/	.	4r	.	4r	.	(8bb\L	.
.	.	.	.	.	.	8ee\)	.
4r	.	4e\	.	4g/	.	8bb\	.
.	.	.	.	.	.	8bb'\J	.
4AA/	.	4r	.	4r	.	(8ccc\L	.
.	.	.	.	.	.	8ee\)	.
4r	.	4e\	.	4a/	.	8ccc'\	.
.	.	.	.	.	.	8ccc'\J	.
=59	=59	=59	=59	=59	=59	=59	=59
4GG/	.	4r	.	4r	.	(8ccc\L	.
.	.	.	.	.	.	8ee-\)	.
4r	.	4e-\	.	4a/	.	8ccc'\	.
.	.	.	.	.	.	8ccc'\J	.
4FF#/	.	4r	.	4r	.	(8ccc\L	.
.	.	.	.	.	.	8dd\)	.
4r	.	4d\	.	4a/	.	8ccc'\	.
.	.	.	.	.	.	8ccc'\J	.
=60	=60	=60	=60	=60	=60	=60	=60
4FF#/	f	4d\	f	4a/	f	8ccc\L	f
.	.	.	.	.	.	8aa\	.
4r	.	4r	.	4r	.	8bb\	.
.	.	.	.	.	.	8ccc\J	.
2r	.	2r	.	2r	.	8ff#\L	.
.	.	.	.	.	.	8gg\	.
.	.	.	.	.	.	8aa\	.
.	.	.	.	.	.	8cc\J	.
=61	=61	=61	=61	=61	=61	=61	=61
1r	.	1r	.	1r	.	8dd\L	.
.	.	.	.	.	.	8ee\	.
.	.	.	.	.	.	8a\	.
.	.	.	.	.	.	8b\J	.
.	.	.	.	.	.	8cc/L	.
.	.	.	.	.	.	8f#/	.
.	.	.	.	.	.	8g/	.
.	.	.	.	.	.	8a/J	.
=62	=62	=62	=62	=62	=62	=62	=62
1r	.	1r	.	1r	.	8d/L	.
.	.	.	.	.	.	8e/	.
.	.	.	.	.	.	8f#/	.
.	.	.	.	.	.	8A/J	.
.	.	.	.	.	.	8B/L	.
.	.	.	.	.	.	8c#/	.
.	.	.	.	.	.	8d/	.
.	.	.	.	.	.	8e/J	.
=63	=63	=63	=63	=63	=63	=63	=63
1r	.	1r	.	1r	.	8f#/L	.
.	.	.	.	.	.	8c/	.
.	.	.	.	.	.	8d/	.
.	.	.	.	.	.	8e/J	.
.	.	.	.	.	.	8f#/L	.
.	.	.	.	.	.	8g/	.
.	.	.	.	.	.	8a/	.
.	.	.	.	.	.	8g#/J	.
=64	=64	=64	=64	=64	=64	=64	=64
1r	.	2r	.	[1d	p	8a\L	p
.	.	.	.	.	.	8b\	.
.	.	.	.	.	.	8cc\	.
.	.	.	.	.	.	8cc#\J	.
.	.	8c/L	p	.	.	4dd\	.
.	.	8B/	.	.	.	.	.
.	.	8A/	.	.	.	4dd\	.
.	.	8F#/J	.	.	.	.	.
=65	=65	=65	=65	=65	=65	=65	=65
2r	.	1r	.	1d_	.	8aa\L	.
.	.	.	.	.	.	8bb\	.
.	.	.	.	.	.	8ccc\	.
.	.	.	.	.	.	8ccc#\J	.
8C/L	p	.	.	.	.	4ddd\	.
8BB/	.	.	.	.	.	.	.
8AA/	.	.	.	.	.	4ddd\	.
8FF#/J	.	.	.	.	.	.	.
=66	=66	=66	=66	=66	=66	=66	=66
8DD/L	.	1r	.	1d_	.	2r	.
8EE/	.	.	.	.	.	.	.
8FF/	.	.	.	.	.	.	.
8FF#/J	.	.	.	.	.	.	.
4GG/	.	.	.	.	.	8ddd\L	.
.	.	.	.	.	.	8cccn\	.
4GG/	.	.	.	.	.	8bb\	.
.	.	.	.	.	.	8gg\J	.
=67	=67	=67	=67	=67	=67	=67	=67
1r	.	8D/L	.	1d]	.	2r	.
.	.	8E/	.	.	.	.	.
.	.	8Fn/	.	.	.	.	.
.	.	8F#/J	.	.	.	.	.
.	.	4G/	.	.	.	8dd\L	.
.	.	.	.	.	.	8cc\	.
.	.	4G/	.	.	.	8b\	.
.	.	.	.	.	.	8g\J	.
=68	=68	=68	=68	=68	=68	=68	=68
1r	.	2r	.	[1d [1dd	.	8a\L	.
.	.	.	.	.	.	8b\	.
.	.	.	.	.	.	8cc\	.
.	.	.	.	.	.	8cc#\J	.
.	.	8c/L	.	.	.	4dd\	.
.	.	8B/	.	.	.	.	.
.	.	8A/	.	.	.	4dd\	.
.	.	8F#/J	.	.	.	.	.
=69	=69	=69	=69	=69	=69	=69	=69
2r	.	1r	.	1d_ 1dd_	.	8aa\L	.
.	.	.	.	.	.	8bb\	.
.	.	.	.	.	.	8ccc\	.
.	.	.	.	.	.	8ccc#\J	.
8C/L	.	.	.	.	.	4ddd\	.
8BB/	.	.	.	.	.	.	.
8AA/	.	.	.	.	.	4ddd\	.
8FF#/J	.	.	.	.	.	.	.
=70	=70	=70	=70	=70	=70	=70	=70
8DD/L	.	1r	.	1d_ 1dd_	.	2r	.
8EE/	.	.	.	.	.	.	.
8FFn/	.	.	.	.	.	.	.
8FF#/J	.	.	.	.	.	.	.
4GG/	.	.	.	.	.	8ddd\L	.
.	.	.	.	.	.	8cccn\	.
4GG/	.	.	.	.	.	8bb\	.
.	.	.	.	.	.	8gg\J	.
=71	=71	=71	=71	=71	=71	=71	=71
1r	.	8D/L	.	4.d/] 4.dd/]	.	2r	.
.	.	8E/	.	.	.	.	.
.	.	8Fn/	.	.	.	.	.
.	.	8F#/J	.	8cc\	.	.	.
.	.	4G/	.	8b/L	.	8dd\L	.
.	.	.	.	8a/	.	8cc\	.
.	.	4G/	.	8g/	.	8b\	.
.	.	.	.	8f/J	.	8g\J	.
=72	=72	=72	=72	=72	=72	=72	=72
[1C	<	8E/L	<	8e/L	<	[2ee\	<
.	.	8F#/	.	8f#/	.	.	.
.	.	8G/	.	8g/	.	.	.
.	.	8G#/J	.	8g#/J	.	.	.
.	.	[2A/	.	[2a/	.	8ee\L]	.
.	.	.	.	.	.	8ff#\	.
.	.	.	.	.	.	8gg\	.
.	.	.	.	.	.	8aa\J	.
=73	=73	=73	=73	=73	=73	=73	=73
4C/]	.	4A/]	.	4a/]	.	8gg\L	.
.	.	.	.	.	.	8ff#\	.
(4c\	>	(4f#\	>	(4a/	>	8ee\	>
.	.	.	.	.	.	8dd\J	.
4B\)	.	4d\)	.	4gn/)	.	8gg\L	.
.	.	.	.	.	.	8dd\	.
4B\	.	4d\	.	4g/	.	8b\	.
.	.	.	.	.	.	8g\J	.
=74	=74	=74	=74	=74	=74	=74	=74
4c\	.	8E/L	.	8e/L	.	[2ee\	.
.	.	8F#/	.	8f#/	.	.	.
[2.C/	.	8Gn/	.	8g/	.	.	.
.	.	8G#/J	.	8g#/J	.	.	.
.	.	[2A/	.	[2a/	.	8ee\L]	.
.	.	.	.	.	.	8ff#\	.
.	.	.	.	.	.	8gg\	.
.	.	.	.	.	.	8aa\J	.
=75	=75	=75	=75	=75	=75	=75	=75
4C/]	.	8A/L]	.	8a/L]	.	[2ff#\	.
.	.	8F#/	.	8f#/	.	.	.
[2.D\	.	8Gn/	.	8gn/	.	.	.
.	.	8A/J	.	8a/J	.	.	.
.	.	[2B/	.	[2b/	.	8ff#\L]	.
.	.	.	.	.	.	8gg\	.
.	.	.	.	.	.	8aa\	.
.	.	.	.	.	.	8bb\J	.
=76	=76	=76	=76	=76	=76	=76	=76
4D\]	.	8B/L]	.	8b/L]	.	[2gg\	.
.	.	8G/	.	8g/	.	.	.
[2.E\	.	8A/	.	8a/	.	.	.
.	.	8B/J	.	8b/J	.	.	.
.	.	[2c/	.	[2cc\	.	8gg\L]	.
.	.	.	.	.	.	8aa\	.
.	.	.	.	.	.	8bb\	.
.	.	.	.	.	.	8ccc\J	.
=77	=77	=77	=77	=77	=77	=77	=77
4E\]	.	8c/L]	.	8cc\L]	.	[2aa\	.
.	.	8A/	.	8a\	.	.	.
2.F#\	.	8B/	.	8b\	.	.	.
.	.	8c/J	.	8cc\J	.	.	.
.	.	2d\	.	2dd\	.	8aa\L]	.
.	.	.	.	.	.	8bb\	.
.	.	.	.	.	.	8ccc\	.
.	.	.	.	.	.	8ddd\J	.
=78	=78	=78	=78	=78	=78	=78	=78
4G\	f	4B/	f	4g\ 4dd\	f	8ddd\L	f
.	.	.	.	.	.	8ccc\	.
4r	.	4r	.	4r	.	8bb\	.
.	.	.	.	.	.	8gg\J	.
4G\	.	4c/	.	4g\ 4ee\	.	8eee\L	.
.	.	.	.	.	.	8ddd\	.
4r	.	4r	.	4r	.	8ccc\	.
.	.	.	.	.	.	8aa\J	.
=79	=79	=79	=79	=79	=79	=79	=79
4G\	.	4B/	.	4g\ 4dd\	.	8ddd\L	.
.	.	.	.	.	.	8ccc\	.
4r	.	4r	.	4r	.	8bb\	.
.	.	.	.	.	.	8gg\J	.
4G\	.	8A/L	.	8cc/L	.	8ff#\L	.
.	.	8c/	.	8a/	.	8dd\	.
4r	.	8c/	.	8f#/	.	8ddd\	.
.	.	8c/J	.	8f#/J	.	8ddd\J	.
=80	=80	=80	=80	=80	=80	=80	=80
4G\	.	4B/	.	4g\ 4dd\	.	8ddd\L	.
.	.	.	.	.	.	8ccc\	.
4r	.	4r	.	4r	.	8bb\	.
.	.	.	.	.	.	8gg\J	.
4G\	.	4c/	.	4g\ 4ee\	.	8eee\L	.
.	.	.	.	.	.	8ddd\	.
4r	.	4r	.	4r	.	8ccc\	.
.	.	.	.	.	.	8aa\J	.
=81	=81	=81	=81	=81	=81	=81	=81
1r	.	1r	.	2r	.	8ddd\L	p
.	.	.	.	.	.	8ggg\	.
.	.	.	.	.	.	8gg\	.
.	.	.	.	.	.	8gg\J	.
.	.	.	.	8dd\L	p	[2gg\	.
.	.	.	.	8gg\	.	.	.
.	.	.	.	8g\	.	.	.
.	.	.	.	8g\J	.	.	.
=82	=82	=82	=82	=82	=82	=82	=82
8F\L	p	8d\L	p	8b\L	.	2gg\]	.
8F\	.	8d\	.	8b\	.	.	.
8E\	.	8c\	.	8cc\	.	.	.
8E\J	.	8c\J	.	8cc\J	.	.	.
8BB/L	.	8d\L	.	8ff\L	.	[2gg\	.
8BB/	.	8d\	.	8ff\	.	.	.
8C/	.	8c\	.	8ee\	.	.	.
8C/J	.	8c\J	.	8ee\J	.	.	.
=83	=83	=83	=83	=83	=83	=83	=83
8F\L	.	8d\L	.	8b\L	.	2gg\]	.
8F\	.	8d\	.	8b\	.	.	.
8E\	.	8c\	.	8cc\	.	.	.
8E\J	.	8c\J	.	8cc\J	.	.	.
8BB/L	.	8d\L	.	8ff\L	.	[2gg\	.
8BB/	.	8d\	.	8ff\	.	.	.
8C/	.	8c\	.	8ee\	.	.	.
8C/J	.	8c\J	.	8ee\J	.	.	.
=84	=84	=84	=84	=84	=84	=84	=84
8D/L	.	8B\L	.	8ff\L	.	4gg\]	.
8D/	.	8d\	.	8f\	.	.	.
8BB/	.	8d\	.	8f\	.	(4aa-\	.
8BB/J	.	8d\J	.	8f\J	.	.	.
8GG/L	.	8d\L	.	8f/L	.	4gg\)	.
8GG/	.	8d\	.	8f/	.	.	.
8BB/	.	8d\	.	8f/	.	4gg\	.
8BB/J	.	8d\J	.	8f/J	.	.	.
=85	=85	=85	=85	=85	=85	=85	=85
4GG/	p	4B/	p	4f/	p	8ddd\L	p
.	.	.	.	.	.	8ggg\	.
4r	.	4r	.	4r	.	8gg\	.
.	.	.	.	.	.	8gg\J	.
2r	.	2r	.	8dd\L	.	[2gg\	.
.	.	.	.	8gg\	.	.	.
.	.	.	.	8g\	.	.	.
.	.	.	.	8g\J	.	.	.
=86	=86	=86	=86	=86	=86	=86	=86
8F\L	.	8d\L	.	8b\L	.	2gg\]	.
8F\	.	8d\	.	8b\	.	.	.
8E\	.	8c\	.	8cc\	.	.	.
8E\J	.	8c\J	.	8cc\J	.	.	.
8BB/L	.	8G/ 8d/L	.	8ff\L	.	[2gg\	.
8BB/	.	8G/ 8d/	.	8ff\	.	.	.
8C/	.	8c/	.	8ee\	.	.	.
8C/J	.	8c/J	.	8ee\J	.	.	.
=87	=87	=87	=87	=87	=87	=87	=87
8F\L	.	8d\L	.	8b\L	.	2gg\]	.
8F\	.	8d\	.	8b\	.	.	.
8E\	.	8c\	.	8cc\	.	.	.
8E\J	.	8c\J	.	8cc\J	.	.	.
8BB/L	.	8G/ 8d/L	.	8ff\L	.	[2gg\	.
8BB/	.	8G/ 8d/	.	8ff\	.	.	.
8C/	.	8c/	.	8ee\	.	.	.
8C/J	.	8c/J	.	8ee\J	.	.	.
=88	=88	=88	=88	=88	=88	=88	=88
8BB-/L	.	8d\L	.	8ff\L	.	(4gg\]	.
8BB-/	.	8d\	.	8ff\	.	.	.
8BB-/	.	8d\	.	8ff\	.	4aa-\)	.
8BB-/J	.	8d\J	.	8ff\J	.	.	.
8BB-/L	.	8d\L	.	8ff\L	.	4aa-'\	.
8BB-/	.	8d\	.	8ff\	.	.	.
8BB-/	.	8d\	.	8ff\	.	4aa-'\	.
8BB-/J	.	8d\J	.	8ff\J	.	.	.
=89	=89	=89	=89	=89	=89	=89	=89
8BB-/L	.	8d\L	.	8ff\L	.	(4aa-\	.
8BB-/	.	8d\	.	8ff\	.	.	.
8BB-/	.	8d\	.	8ff\	.	4ddd\	.
8BB-/J	.	8d\J	.	8ff\J	.	.	.
8BB-/L	.	8d\L	.	8ff\L	.	4fff\	.
8BB-/	.	8d\	.	8ff\	.	.	.
8BB-/	.	8d\	.	8ff\	.	4aaa-\)	.
8BB-/J	.	8d\J	.	8ff\J	.	.	.
=90	=90	=90	=90	=90	=90	=90	=90
8BB-/L	.	8e-\L	.	8gg\L	.	(4ggg\	.
8BB-/	.	8e-\	.	8gg\	.	.	.
8BB-/	.	8e-\	.	8gg\	.	4bbb-\)	.
8BB-/J	.	8e-\J	.	8gg\J	.	.	.
8GG/L	.	8e-\L	.	8gg\L	.	4bbb-'\	.
8GG/	.	8e-\	.	8gg\	.	.	.
8EE-/	.	8e-\	.	8gg\	.	4bbb-'\	.
8EE-/J	.	8e-\J	.	8gg\J	.	.	.
=91	=91	=91	=91	=91	=91	=91	=91
4BB-/	ff	4d\	ff	4ff\	ff	2bbb-'\	ff
4r	.	4r	.	4r	.	.	.
2r	.	2r	.	2r	.	2bb-'\	.
=92	=92	=92	=92	=92	=92	=92	=92
1r	.	2r	.	2r	.	[1B-	.
.	.	8r	.	8r	.	.	.
.	.	8En/L	p	8b-\L	p	.	.
.	.	8D/	.	8cc\	.	.	.
.	.	8E/J	.	8b-\J	.	.	.
=93	=93	=93	=93	=93	=93	=93	=93
1r	.	8F/L	.	8a-/L	.	1B-_	.
.	.	8G/J	.	8g/J	.	.	.
.	.	4A-/	.	4f/	.	.	.
.	.	8r	.	8r	.	.	.
.	.	8D/L	.	8a-/L	.	.	.
.	.	8C/	.	8b-/	.	.	.
.	.	8D/J	.	8a-/J	.	.	.
=94	=94	=94	=94	=94	=94	=94	=94
2r	.	8E-/L	.	8g/L	.	1B-_	.
.	.	8F/J	.	8f/J	.	.	.
.	.	4G/	.	4e-/	.	.	.
8r	.	8r	.	8r	.	.	.
8BB-/L	p	8g\L	.	8en/L	.	.	.
8C/	.	8f\	.	8d/	.	.	.
8BB-/J	.	8g\J	.	8e/J	.	.	.
=95	=95	=95	=95	=95	=95	=95	=95
8AA-/L	.	8a-\L	.	8f/L	.	1B-_	.
8GG/J	.	8b-\J	.	8g/J	.	.	.
4FF/	.	4cc\	.	4a-/	.	.	.
8r	.	8r	.	8r	.	.	.
8AA-/L	.	8f\L	.	8d/L	.	.	.
8BB-/	.	8e-\	.	8c/	.	.	.
8AA-/J	.	8f\J	.	8d/J	.	.	.
=96	=96	=96	=96	=96	=96	=96	=96
8GG/L	.	4g\	.	4e-/	.	4B-/]	.
8FF/	.	.	.	.	.	.	.
8EE-/	.	4r	.	4r	.	4b-'\	.
8FF/J	.	.	.	.	.	.	.
8GG/L	.	2r	.	2r	.	4ee-'\	.
8AA-/	.	.	.	.	.	.	.
8BB-/	.	.	.	.	.	4gg'\	.
8GG/J	.	.	.	.	.	.	.
=97	=97	=97	=97	=97	=97	=97	=97
8C/L	.	2r	.	4r	.	2.a-/	.
8BB-/	.	.	.	.	.	.	.
8AA-/	.	.	.	4gg'\	.	.	.
8C/J	.	.	.	.	.	.	.
8D/L	.	4r	.	4ff'\	.	.	.
8C/	.	.	.	.	.	.	.
8BB-/	.	4f\	.	4b-'\	.	4aa-\	.
8D/J	.	.	.	.	.	.	.
=98	=98	=98	=98	=98	=98	=98	=98
4E-\	.	8B-/L	.	4e-/ 4b-/	.	4gg\	.
.	.	8A-/	.	.	.	.	.
4r	.	8G/	.	4b-'\	.	4r	.
.	.	8F/J	.	.	.	.	.
2r	.	8G/L	.	4ee-'\	.	2r	.
.	.	8A-/	.	.	.	.	.
.	.	8B-/	.	4gg'\	.	.	.
.	.	8G/J	.	.	.	.	.
=99	=99	=99	=99	=99	=99	=99	=99
1r	.	8d-\L	.	(2ff\	.	4r	.
.	.	8c\	.	.	.	.	.
.	.	8B-\	.	.	.	4ddd-'\	.
.	.	8d-\J	.	.	.	.	.
.	.	8en\L	.	4gg\)	.	4bb-'\	.
.	.	8dn\	.	.	.	.	.
.	.	8c\	.	4b-\	.	4ccc'\	.
.	.	8e\J	.	.	.	.	.
=100	=100	=100	=100	=100	=100	=100	=100
[2FF/	f	2.c\ 2.f\	f	2.a-/	f	[2ccc\	f
8FF/L]	.	.	.	.	.	8ccc\L]	.
8FF/	.	.	.	.	.	8ccc\	.
8EEn/	.	4c\ 4f\	.	4a-/	.	8ddd-\	.
8FF/J	.	.	.	.	.	8ccc\J	.
=101	=101	=101	=101	=101	=101	=101	=101
8GG/L	.	2.c\ 2.e\	.	2.b-\	.	8bb-\L	.
8AA-/J	.	.	.	.	.	8aa-\J	.
4BB-/	.	.	.	.	.	4gg\	.
8r	.	.	.	.	.	8r	.
8EE/L	.	.	.	.	.	8bb-\L	.
8DD/	.	4c\ 4g\	.	4b-\	.	8ccc\	.
8EE/J	.	.	.	.	.	8bb-\J	.
=102	=102	=102	=102	=102	=102	=102	=102
8FF/L	.	2c\ 2f\	.	2a-/	.	8aa-\L	.
8GG/J	.	.	.	.	.	8gg\J	.
4AA-/	.	.	.	.	.	4ff\	.
2r	.	8r	.	8r	.	8r	.
.	.	8A-/L	p	8cc\L	p	8ff\L	p
.	.	8B-/	.	8dd-\	.	8ee\	.
.	.	8A-/J	.	8cc\J	.	8ff\J	.
=103	=103	=103	=103	=103	=103	=103	=103
4C/	p	8G/L	.	8b-/L	.	8gg\L	.
.	.	8F/J	.	8a-/J	.	8aa-\J	.
4r	.	4E/	.	4g/	.	4bb-\	.
2r	.	8r	.	8r	.	8r	.
.	.	8G/L	.	8b-\L	.	8ee\L	.
.	.	8A-/	.	8cc\	.	8dd\	.
.	.	8G/J	.	8b-\J	.	8ee\J	.
=104	=104	=104	=104	=104	=104	=104	=104
8AA-/L	.	4F/ 4A-/	.	4cc\	.	4ff\	.
8GG/	.	.	.	.	.	.	.
8FF/	.	4r	.	4r	.	4c'/	.
8GG/J	.	.	.	.	.	.	.
8AA-/L	.	2r	.	2r	.	4f'/	.
8BB-/	.	.	.	.	.	.	.
8C/	.	.	.	.	.	4a-'/	.
8AA-/J	.	.	.	.	.	.	.
=105	=105	=105	=105	=105	=105	=105	=105
8D-/L	.	2r	.	4r	.	2.B-/	.
8C/	.	.	.	.	.	.	.
8BB-/	.	.	.	4a-'/	.	.	.
8D-/J	.	.	.	.	.	.	.
8En\L	.	4r	.	4g'/	.	.	.
8Dn\	.	.	.	.	.	.	.
8C\	.	4G/	.	4c'/	.	4b-\	.
8E\J	.	.	.	.	.	.	.
=106	=106	=106	=106	=106	=106	=106	=106
4F\	.	8F/L	.	4c/	.	4a-/	.
.	.	8E-/	.	.	.	.	.
4r	.	8D-/	.	4f/	.	4r	.
.	.	8C/J	.	.	.	.	.
2r	.	8D-/L	.	4a-/	.	2r	.
.	.	8E-/	.	.	.	.	.
.	.	8F/	.	4dd-\	.	.	.
.	.	8D-/J	.	.	.	.	.
=107	=107	=107	=107	=107	=107	=107	=107
1r	.	8B-/L	.	2.g-/	.	4r	.
.	.	8A-/	.	.	.	.	.
.	.	8G-/	.	.	.	4bb-\	.
.	.	8B-/J	.	.	.	.	.
.	.	8c/L	.	.	.	4aa-\	.
.	.	8B-/	.	.	.	.	.
.	.	8A-/	.	4gg-\	.	4aa-\	.
.	.	8c/J	.	.	.	.	.
=108	=108	=108	=108	=108	=108	=108	=108
4D-\	f	4d-\	f	[2ff\	f	[2aa-\	f
4r	.	4r	.	.	.	.	.
[2f\	.	[2a-\	.	8ff\L]	.	8aa-\L]	.
.	.	.	.	8ff\	.	8aa-\	.
.	.	.	.	8gg-\	.	8bb-\	.
.	.	.	.	8ff\J	.	8aa-\J	.
=109	=109	=109	=109	=109	=109	=109	=109
8f\L]	.	8a-\L]	.	8ee-\L	.	8gg-\L	.
8f\	.	8a-\	.	8dd-\J	.	8ff\J	.
8g-\	.	8b-\	.	4cc\	.	4ee-\	.
8f\J	.	8a-\J	.	.	.	.	.
8e-\L	.	8g-\L	.	8r	.	8r	.
8d-\J	.	8f\J	.	8ee-\L	.	8gg-\L	.
4c\	.	4e-\	.	8ff\	.	8aa-\	.
.	.	.	.	8ee-\J	.	8gg-\J	.
=110	=110	=110	=110	=110	=110	=110	=110
8r	.	8r	.	8dd-\L	.	8ff\L	.
8e-\L	.	8g-\L	.	8cc\J	.	8ee-\J	.
8f\	.	8a-\	.	4dd-\	.	4dd-\	.
8e-\J	.	8g-\J	.	.	.	.	.
4d-\	.	4f-\	.	8r	.	8r	.
.	.	.	.	8een\L	p	8gg#\L	p
4r	.	4r	.	8ff#\	.	8aan\	.
.	.	.	.	8ee\J	.	8gg#\J	.
=111	=111	=111	=111	=111	=111	=111	=111
8r	.	8r	.	8dd#\L	.	8ff#\L	.
8en\L	p	8g#\L	.	8cc#\J	.	8een\J	.
8f#\	.	8an\	.	4b#\	.	4dd#\	.
8e\J	.	8g#\J	.	.	.	.	.
8d#\L	.	8f#\L	.	8r	.	8r	.
8c#\J	.	8en\J	.	8dd#\L	.	8ff#\L	.
4B#\	.	4d#\	.	8ee\	.	8gg#\	.
.	.	.	.	8dd#\J	.	8ff#\J	.
=112	=112	=112	=112	=112	=112	=112	=112
*	*	*	*	*	*	*^	*
4c#\	f	4e\	.	8cc#\L	f	8ee\L	4ee/	f
.	.	.	.	8ee\	.	8ccc#\	.	.
*	*	*	*	*	*	*v	*v	*
4r	.	4r	.	8gg#\	.	8eee\	.
.	.	.	.	8gg#\J	.	8eee\J	.
4C#/	.	4E/	.	(8gg#\L	.	(8eee\L	.
.	.	.	.	8ee\)	.	8ccc#\	.
4r	.	4r	.	8gg#'\	.	8eee'\)	.
.	.	.	.	8gg#'\J	.	8eee'\J	.
=113	=113	=113	=113	=113	=113	=113	=113
4C#/	.	4E/	.	(8gg#\L	.	(8eee\L	.
.	.	.	.	8ee\)	.	8ccc#\	.
4r	.	4r	.	8gg#'\	.	8eee'\)	.
.	.	.	.	8gg#'\J	.	8eee'\J	.
4C#/	.	4E/	.	(8gg#\L	.	(8eee\L	.
.	.	.	.	8ee\)	.	8ccc#\	.
4r	.	4r	.	8gg#'\	.	8eee'\)	.
.	.	.	.	8gg#'\J	.	8eee'\J	.
=114	=114	=114	=114	=114	=114	=114	=114
[1C#	.	(8A/L	.	[1dd# [1ff#	.	[1bb#	.
.	.	8F#/)	.	.	.	.	.
.	.	8A'/	.	.	.	.	.
.	.	8A'/J	.	.	.	.	.
.	.	(8A/L	.	.	.	.	.
.	.	8F#/)	.	.	.	.	.
.	.	8A'/	.	.	.	.	.
.	.	8A'/J	.	.	.	.	.
=115	=115	=115	=115	=115	=115	=115	=115
1C#]	.	(8A/L	.	1dd#] 1ff#]	.	(1bb#]	.
.	.	8F#/)	.	.	.	.	.
.	.	8A'/	.	.	.	.	.
.	.	8A'/J	.	.	.	.	.
.	.	(8G#/L	.	.	.	.	.
.	.	8F#/)	.	.	.	.	.
.	.	8G#'/	.	.	.	.	.
.	.	8G#'/J	.	.	.	.	.
=116	=116	=116	=116	=116	=116	=116	=116
4C#/	.	(8G#\L	.	4ee\	.	8ccc#\L)	.
.	.	8e\)	.	.	.	8ccc#\	.
4r	.	8g#'\	.	4r	.	8eee\	.
.	.	8g#'\J	.	.	.	8eee\J	.
4C#/	.	(8g#\L	.	2r	.	(8eee\L	.
.	.	8e\)	.	.	.	8ccc#\)	.
4r	.	8g#'\	.	.	.	8eee'\	.
.	.	8g#'\J	.	.	.	8eee'\J	.
=117	=117	=117	=117	=117	=117	=117	=117
4C#/	.	(8g#\L	.	1r	.	(8eee\L	.
.	.	8e\)	.	.	.	8ccc#\)	.
4r	.	8g#'\	.	.	.	8eee'\	.
.	.	8g#'\J	.	.	.	8eee'\J	.
4C#/	.	(8g#\L	.	.	.	(8eee\L	.
.	.	8e\)	.	.	.	8ccc#\)	.
4r	.	8g#'\	.	.	.	8eee'\	.
.	.	8g#'\J	.	.	.	8eee'\J	.
=118	=118	=118	=118	=118	=118	=118	=118
[1C#	.	[1a	.	(8ff#\L	.	[1bb#	.
.	.	.	.	8dd#\)	.	.	.
.	.	.	.	8ff#'\	.	.	.
.	.	.	.	8ff#'\J	.	.	.
.	.	.	.	(8ff#\L	.	.	.
.	.	.	.	8dd#\)	.	.	.
.	.	.	.	8ff#'\	.	.	.
.	.	.	.	8ff#'\J	.	.	.
=119	=119	=119	=119	=119	=119	=119	=119
1C#]	.	(2a\]	.	(8ff#\L	.	1bb#]	.
.	.	.	.	8dd#\)	.	.	.
.	.	.	.	8ff#'\	.	.	.
.	.	.	.	8ff#'\J	.	.	.
.	.	2g#\)	.	(8ff#\L	.	.	.
.	.	.	.	8dd#\)	.	.	.
.	.	.	.	8ff#'\	.	.	.
.	.	.	.	8ff#'\J	.	.	.
=120	=120	=120	=120	=120	=120	=120	=120
4C#/	.	4g#\	.	4ee\	.	4ccc#\	.
4C#/	.	4C#/	.	4r	.	4r	.
4EE/	.	4C#/	.	8r	.	8r	.
.	.	.	.	8g#/L	.	8gg#\L	.
4EE/	.	4C#/	.	8a/	.	8aa\	.
.	.	.	.	8g#/J	.	8gg#\J	.
=121	=121	=121	=121	=121	=121	=121	=121
4FF#/	.	4C#/	.	4a/	.	4aa\	.
4FF#/	.	4C#/	.	4a/	.	4aa\	.
4GG#/	.	4C#/	.	8r	.	8r	.
.	.	.	.	8b#\L	.	8bb#\L	.
4GG#/	.	4C#/	.	8cc#\	.	8ccc#\	.
.	.	.	.	8b#\J	.	8bb#\J	.
=122	=122	=122	=122	=122	=122	=122	=122
4AA/	.	4C#/	.	4cc#\	.	4ccc#\	.
4AA/	.	4C#/	.	4cc#\	.	4ccc#\	.
4EE/	.	4C#/	.	8r	.	8r	.
.	.	.	.	8g#/L	.	8gg#\L	.
4EE/	.	4C#/	.	8a/	.	8aa\	.
.	.	.	.	8g#/J	.	8gg#\J	.
=123	=123	=123	=123	=123	=123	=123	=123
4FF#/	.	4C#/	.	8a/L	.	8aa\L	.
.	.	.	.	8g#/	.	8gg#\	.
4FF#/	.	4C#/	.	8f#/	.	8ff#\	.
.	.	.	.	8e/J	.	8ee\J	.
4GG#/	.	4BB#/	.	4d#'/	.	4dd#'\	.
4GG#/	.	4BB#/	.	4g#'/	.	4gg#'\	.
=124	=124	=124	=124	=124	=124	=124	=124
8CC#/L	.	8C#/L	.	4c#/	.	4cc#\	.
8CC#/	.	8C#/	.	.	.	.	.
8CC#/	.	8C#/	.	4c#/	.	4cc#\	.
8CC#/J	.	8C#/J	.	.	.	.	.
8EE/L	.	8C#/L	.	8r	.	8r	.
8EE/	.	8C#/	.	8g#/L	.	8gg#\L	.
8EE/	.	8C#/	.	8a/	.	8aa\	.
8EE/J	.	8C#/J	.	8g#/J	.	8gg#\J	.
=125	=125	=125	=125	=125	=125	=125	=125
8FF#/L	.	8C#/L	.	4a/	.	4aa\	.
8FF#/	.	8C#/	.	.	.	.	.
8FF#/	.	8C#/	.	4a/	.	4aa\	.
8FF#/J	.	8C#/J	.	.	.	.	.
8GG#/L	.	8C#/L	.	8r	.	8r	.
8GG#/	.	8C#/	.	8b#\L	.	8bb#\L	.
8GG#/	.	8C#/	.	8cc#\	.	8ccc#\	.
8GG#/J	.	8C#/J	.	8b#\J	.	8bb#\J	.
=126	=126	=126	=126	=126	=126	=126	=126
8AA/L	.	8C#/L	.	4cc#\	.	4ccc#\	.
8AA/	.	8C#/	.	.	.	.	.
8AA/	.	8C#/	.	4cc#\	.	4ccc#\	.
8AA/J	.	8C#/J	.	.	.	.	.
8BB#/L	.	8G#/L	.	8r	.	8r	.
8BB#/	.	8G#/	.	8dd#\L	.	8ddd#\L	.
8BB#/	.	8G#/	.	8ee\	.	8eee\	.
8BB#/J	.	8G#/J	.	8dd#\J	.	8ddd#\J	.
=127	=127	=127	=127	=127	=127	=127	=127
8C#/L	.	8G#/L	.	4ee'\	.	4eee'\	.
8C#/	.	8G#/	.	.	.	.	.
8C#/	.	8G#/	.	4ee'\	.	4eee'\	.
8C#/J	.	8G#/J	.	.	.	.	.
8GG#/L	.	8F#/L	.	4dd#'\	.	4bb#'\	.
8GG#/	.	8F#/	.	.	.	.	.
8GG#/	.	8F#/	.	4dd#'\	.	4bb#'\	.
8GG#/J	.	8F#/J	.	.	.	.	.
=128	=128	=128	=128	=128	=128	=128	=128
4CC#/	.	4G#/	.	4e/ 4cc#/	.	(8ccc#\L	.
.	.	.	.	.	.	8gg#\)	.
4r	.	4r	.	4r	.	8ccc#'\	.
.	.	.	.	.	.	8ccc#'\J	.
4C#/	.	4c#\	.	4e/	.	(8ccc#\L	.
.	.	.	.	.	.	8gg#\)	.
4r	.	4r	.	4r	.	8ccc#'\	.
.	.	.	.	.	.	8ccc#'\J	.
=129	=129	=129	=129	=129	=129	=129	=129
4C#/	.	4c#\	.	4e/	.	(8ccc#\L	.
.	.	.	.	.	.	8gg#\)	.
4r	.	4r	.	4r	.	8ccc#'\	.
.	.	.	.	.	.	8ccc#'\J	.
4C#/	.	4c#\	.	4e/	.	(8ccc#\L	.
.	.	.	.	.	.	8gg#\)	.
4r	.	4r	.	4r	.	8ccc#'\	.
.	.	.	.	.	.	8ccc#'\J	.
=130	=130	=130	=130	=130	=130	=130	=130
[1AA	.	(8e\L	.	(8gn/L	.	[1ccc#	.
.	.	8c#\)	.	8e/)	.	.	.
.	.	8e'\	.	8g'/	.	.	.
.	.	8e'\J	.	8g'/J	.	.	.
.	.	(8e\L	.	(8g/L	.	.	.
.	.	8c#\)	.	8e/)	.	.	.
.	.	8e'\	.	8g'/	.	.	.
.	.	8e'\J	.	8g'/J	.	.	.
=131	=131	=131	=131	=131	=131	=131	=131
1AA]	.	(8e\L	.	(8g/L	.	1ccc#_	.
.	.	8c#\)	.	8e/)	.	.	.
.	.	8e'\	.	8g'/	.	.	.
.	.	8e'\J	.	8g'/J	.	.	.
.	.	(8e\L	.	(8g/L	.	.	.
.	.	8c#\)	.	8e/)	.	.	.
.	.	8e'\	.	8g'/	.	.	.
.	.	8e'\J	.	8g'/J	.	.	.
=132	=132	=132	=132	=132	=132	=132	=132
4AA/	.	4e\	.	4g/	.	8ccc#\L]	.
.	.	.	.	.	.	8ccc#\	.
4r	.	4r	.	4r	.	8eee'\	.
.	.	.	.	.	.	8eee'\J	.
4AA/	.	4c#\ 4e\	.	4A/ 4g/	.	(8eee\L	.
.	.	.	.	.	.	8ccc#\)	.
4r	.	4r	.	4r	.	8eee'\	.
.	.	.	.	.	.	8eee'\J	.
=133	=133	=133	=133	=133	=133	=133	=133
4AA/	.	4A\ 4e\	.	4g\ 4cc#\	.	(8eee\L	.
.	.	.	.	.	.	8ccc#\)	.
4r	.	4r	.	4r	.	8eee'\	.
.	.	.	.	.	.	8eee'\J	.
4AA/	.	4A\ 4e\	.	4cc#\ 4ee\	.	(8eee\L	.
.	.	.	.	.	.	8ccc#\)	.
4r	.	4r	.	4r	.	8eee'\	.
.	.	.	.	.	.	8eee'\J	.
=134	=134	=134	=134	=134	=134	=134	=134
8CC#/L	.	(8e\L	.	(8gg\L	.	[1ggg	.
8AA/	.	8A\)	.	8ee\)	.	.	.
8CC#'/	.	8e'\	.	8gg'\	.	.	.
8CC#'/J	.	8e'\J	.	8gg'\J	.	.	.
8CC#/L	.	(8e\L	.	(8gg\L	.	.	.
8AA/	.	8A\)	.	8ee\)	.	.	.
8CC#'/	.	8e'\	.	8gg'\	.	.	.
8CC#'/J	.	8e'\J	.	8gg'\J	.	.	.
=135	=135	=135	=135	=135	=135	=135	=135
8CC#/L	.	(8e\L	.	(8gg\L	.	1ggg]	.
8AA/	.	8A\)	.	8ee\)	.	.	.
8CC#'/	.	8e'\	.	8gg'\	.	.	.
8CC#'/J	.	8e'\J	.	8gg'\J	.	.	.
8CC#/L	.	(8e\L	.	(8gg\L	.	.	.
8AA/	.	8A\)	.	8ee\)	.	.	.
8CC#'/	.	8e'\	.	8gg'\	.	.	.
8CC#'/J	.	8e'\J	.	8gg'\J	.	.	.
=136	=136	=136	=136	=136	=136	=136	=136
4DD/	.	4d\	.	4ff\	.	4fff\	.
4r	.	4r	.	4r	.	4r	.
2r	.	8r	.	2r	.	2ddd'\	.
.	.	8A/L	.	.	.	.	.
.	.	8B-/	.	.	.	.	.
.	.	8A/J	.	.	.	.	.
=137	=137	=137	=137	=137	=137	=137	=137
1r	.	4B-/	.	1r	.	2bb-'\	.
.	.	4B-/	.	.	.	.	.
.	.	8r	.	.	.	2gg'\	.
.	.	8c#\L	.	.	.	.	.
.	.	8d\	.	.	.	.	.
.	.	8c#\J	.	.	.	.	.
=138	=138	=138	=138	=138	=138	=138	=138
2r	.	4d\	.	2r	.	[2ff\	.
.	.	4d\	.	.	.	.	.
2F\	.	2A/	.	2d/	.	8ff\L]	.
.	.	.	.	.	.	8aa\	.
.	.	.	.	.	.	8bb-\	.
.	.	.	.	.	.	8aa\J	.
=139	=139	=139	=139	=139	=139	=139	=139
2E\	.	2B-/	.	2d/	.	8gg\L	.
.	.	.	.	.	.	8ff\J	.
.	.	.	.	.	.	4ee\	.
2A\	.	2c#\	.	2e/	.	8r	.
.	.	.	.	.	.	8gg\L	.
.	.	.	.	.	.	8aa\	.
.	.	.	.	.	.	8gg\J	.
=140	=140	=140	=140	=140	=140	=140	=140
4D\	.	4d\	.	4f/	.	8ff\L	.
.	.	.	.	.	.	8ee\J	.
4r	.	4r	.	4r	.	4dd\	.
8r	.	2r	.	2dd'\	.	2r	.
8AA/L	.	.	.	.	.	.	.
8BB-/	.	.	.	.	.	.	.
8AA/J	.	.	.	.	.	.	.
=141	=141	=141	=141	=141	=141	=141	=141
4BB-/	.	1r	.	2b-'\	.	1r	.
4BB-/	.	.	.	.	.	.	.
8r	.	.	.	2g'/	.	.	.
8C#/L	.	.	.	.	.	.	.
8D/	.	.	.	.	.	.	.
8C#/J	.	.	.	.	.	.	.
=142	=142	=142	=142	=142	=142	=142	=142
8D/L	.	2r	.	[2f/	.	2r	.
8DD/	.	.	.	.	.	.	.
8DD/	.	.	.	.	.	.	.
8DD/J	.	.	.	.	.	.	.
8DD/L	.	2F/	.	8f/L]	.	2A/	.
8DD/	.	.	.	8a/	.	.	.
8DD/	.	.	.	8b-/	.	.	.
8DD/J	.	.	.	8a/J	.	.	.
=143	=143	=143	=143	=143	=143	=143	=143
8DD/L	.	2E/	.	8g/L	.	2B-/	.
8DD/	.	.	.	8f/J	.	.	.
8DD/	.	.	.	4e/	.	.	.
8DD/J	.	.	.	.	.	.	.
8DD/L	.	2A/	.	8r	.	2c#/	.
8DD/	.	.	.	8g/L	.	.	.
8DD/	.	.	.	8a/	.	.	.
8DD/J	.	.	.	8g/J	.	.	.
=144	=144	=144	=144	=144	=144	=144	=144
4DD/	p	4A/	p	4f/	p	8d/L	p
.	.	.	.	.	.	8d/	.
4r	.	4d\	.	4ff\	.	8e/	.
.	.	.	.	.	.	8d/J	.
4D\	.	4r	.	4r	.	8A/L	.
.	.	.	.	.	.	8A/	.
4r	.	4d\	.	4ff\	.	8B-/	.
.	.	.	.	.	.	8A/J	.
=145	=145	=145	=145	=145	=145	=145	=145
4D\	.	4r	.	4r	.	8B-/L	.
.	.	.	.	.	.	8B-/	.
4r	.	4d\	.	4ff\	.	8c/	.
.	.	.	.	.	.	8B-/J	.
4D\	.	4r	.	4r	.	8c#/L	.
.	.	.	.	.	.	8c#/	.
4r	.	4d\	.	4ff\	.	8d/	.
.	.	.	.	.	.	8c#/J	.
=146	=146	=146	=146	=146	=146	=146	=146
4D\	.	4r	.	4r	.	8d/L	.
.	.	.	.	.	.	8d/	.
4r	.	4dd\	.	4ff\	.	8e/	.
.	.	.	.	.	.	8d/J	.
4D\	.	4r	.	4r	.	8e/L	.
.	.	.	.	.	.	8e/	.
4r	.	4dd\	.	4ff\	.	8f/	.
.	.	.	.	.	.	8e/J	.
=147	=147	=147	=147	=147	=147	=147	=147
4D\	.	4r	.	4r	.	8f/L	.
.	.	.	.	.	.	8f/	.
4r	.	4dd\	.	4ff\	.	8g/	.
.	.	.	.	.	.	8f/J	.
4D\	.	4r	.	4r	.	8g/L	.
.	.	.	.	.	.	8g/	.
4r	.	4dd\	.	4ff\	.	8a/	.
.	.	.	.	.	.	8g/J	.
=148	=148	=148	=148	=148	=148	=148	=148
[1C	f	[1e-	f	[1a [1aa	f	8a/L	f
.	.	.	.	.	.	8a/	>
.	.	.	.	.	.	8b-/	.
.	.	.	.	.	.	8a/J	.
.	.	.	.	.	.	8g/L	.
.	.	.	.	.	.	8g/	.
.	.	.	.	.	.	8a/	.
.	.	.	.	.	.	8g/J	.
=149	=149	=149	=149	=149	=149	=149	=149
1C_	.	(2e-\]	.	1a_ 1aa_	.	8f/L	.
.	.	.	.	.	.	8f/	.
.	.	.	.	.	.	8g/	.
.	.	.	.	.	.	8f/J	.
.	.	2cc\	.	.	.	8e/L	.
.	.	.	.	.	.	8e/	.
.	.	.	.	.	.	8f/	.
.	.	.	.	.	.	8e/J	.
=150	=150	=150	=150	=150	=150	=150	=150
4C/]	p	4ee-\)	p	4a\] 4aa\]	p	8f/L	p
.	.	.	.	.	.	8f/	.
4r	.	4e-\	.	4cc\ 4aa\	.	8g/	.
.	.	.	.	.	.	8f/J	.
4FF/	.	4r	.	4r	.	8e-/L	.
.	.	.	.	.	.	8e-/	.
4r	.	4c\	.	4cc\ 4aa\	.	8f/	.
.	.	.	.	.	.	8e-/J	.
=151	=151	=151	=151	=151	=151	=151	=151
4FF/	.	4r	.	4r	.	8c/L	.
.	.	.	.	.	.	8c/	.
4r	.	4F/	.	4cc\ 4aa\	.	8d/	.
.	.	.	.	.	.	8c/J	.
4FF/	.	4r	.	4r	.	8f/L	.
.	.	.	.	.	.	8f/	.
4r	.	4F/	.	4cc\ 4aa\	.	8g/	.
.	.	.	.	.	.	8f/J	.
=152	=152	=152	=152	=152	=152	=152	=152
4BB-/	.	4B-/	.	8dd\ 8bb-\L	.	4B-/	.
.	.	.	.	8b-\	.	.	.
4r	.	4b-\	.	8cc\	.	4dd\	.
.	.	.	.	8b-\J	.	.	.
4BB-/	.	4r	.	8f/L	.	4r	.
.	.	.	.	8f/	.	.	.
4r	.	4b-\	.	8g/	.	4dd\	.
.	.	.	.	8f/J	.	.	.
=153	=153	=153	=153	=153	=153	=153	=153
4BB-/	.	4r	.	8g/L	.	4r	.
.	.	.	.	8g/	.	.	.
4r	.	4b-\	.	8a/	.	4dd\	.
.	.	.	.	8g/J	.	.	.
4BB-/	.	4r	.	8a/L	.	4r	.
.	.	.	.	8a/	.	.	.
4r	.	4b-\	.	8b-/	.	4dd\	.
.	.	.	.	8a/J	.	.	.
=154	=154	=154	=154	=154	=154	=154	=154
4BB-/	.	4r	.	8b-\L	.	4r	.
.	.	.	.	8b-\	.	.	.
4r	.	4b-\	.	8cc\	.	4dd\	.
.	.	.	.	8b-\J	.	.	.
4BB-/	.	4r	.	8cc\L	.	4r	.
.	.	.	.	8cc\	.	.	.
4r	.	4B-/	.	8dd\	.	4dd\	.
.	.	.	.	8cc\J	.	.	.
=155	=155	=155	=155	=155	=155	=155	=155
4BB-/	.	4r	.	8dd\L	.	4r	.
.	.	.	.	8dd\	.	.	.
4r	.	4B-/	.	8ee-\	.	4dd\	.
.	.	.	.	8dd\J	.	.	.
4BB-/	.	4r	.	8ee-\L	.	4r	.
.	.	.	.	8ee-\	.	.	.
4r	.	4B-/	.	8ff\	.	4dd\	.
.	.	.	.	8ee-\J	.	.	.
=156	=156	=156	=156	=156	=156	=156	=156
[1D-	f	[1f	f	8ff\L	f	[1b- [1bb-	f
.	.	.	.	8ff\	.	.	.
.	.	.	.	8gg-\	.	.	.
.	.	.	.	8ff\J	.	.	.
.	.	.	.	8ee-\L	.	.	.
.	.	.	.	8ee-\	.	.	.
.	.	.	.	8ff\	.	.	.
.	.	.	.	8ee-\J	.	.	.
=157	=157	=157	=157	=157	=157	=157	=157
1D-_	.	1f_	.	8dd-\L	.	1b-_ 1bb-_	.
.	.	.	.	8dd-\	.	.	.
.	.	.	.	8ee-\	.	.	.
.	.	.	.	8dd-\J	.	.	.
.	.	.	.	8cc\L	.	.	.
.	.	.	.	8cc\	.	.	.
.	.	.	.	8dd-\	.	.	.
.	.	.	.	8cc\J	.	.	.
=158	=158	=158	=158	=158	=158	=158	=158
4D-\]	p	4f\]	p	8b-\L	p	4b-\] 4bb-\]	p
.	.	.	.	8b-\	.	.	.
4r	.	4f\	.	8cc\	.	4bb-\	.
.	.	.	.	8b-\J	.	.	.
4BB-/	.	4r	.	8dd-\L	.	4r	.
.	.	.	.	8dd-\	.	.	.
4r	.	4f\	.	8ee-\	.	4bb-\	.
.	.	.	.	8dd-\J	.	.	.
=159	=159	=159	=159	=159	=159	=159	=159
4C/	.	4r	.	8cc\L	.	4r	.
.	.	.	.	8cc\	.	.	.
4r	.	4e\	.	8dd-\	.	4bb-\	.
.	.	.	.	8cc\J	.	.	.
4C/	.	4r	.	8g/L	.	4r	.
.	.	.	.	8g/	.	.	.
4r	.	4c\	.	8a-/	.	4cc\ 4bb-\	.
.	.	.	.	8g/J	.	.	.
=160	=160	=160	=160	=160	=160	=160	=160
4FF/	.	8F/L	.	4a-/	.	4cc\ 4aa-\	.
.	.	8F/	.	.	.	.	.
4r	.	8G/	.	4f/	.	4a-/	.
.	.	8F/J	.	.	.	.	.
4FF/	.	8C/L	.	4r	.	4r	.
.	.	8C/	.	.	.	.	.
4r	.	8D/	.	4f/	.	4a-/	.
.	.	8C/J	.	.	.	.	.
=161	=161	=161	=161	=161	=161	=161	=161
4FF/	.	8D/L	.	4r	.	4r	.
.	.	8D/	.	.	.	.	.
4r	.	8E/	.	4f/	.	4a-/	.
.	.	8D/J	.	.	.	.	.
4FF/	.	8E/L	.	4r	.	4r	.
.	.	8E/	.	.	.	.	.
4r	.	8F/	.	4f/	.	4a-/	.
.	.	8E/J	.	.	.	.	.
=162	=162	=162	=162	=162	=162	=162	=162
4FF/	.	8F/L	.	4r	.	4r	.
.	.	8F/	.	.	.	.	.
4r	.	8G/	.	4f/	.	4a-/	.
.	.	8F/J	.	.	.	.	.
4FF/	.	8G/L	.	4r	.	4r	.
.	.	8G/	.	.	.	.	.
4r	.	8A-/	.	4f/	.	4a-/	.
.	.	8G/J	.	.	.	.	.
=163	=163	=163	=163	=163	=163	=163	=163
4FF/	.	8A-/L	.	4r	.	4r	.
.	.	8A-/	.	.	.	.	.
4r	.	8B-/	.	4f/	.	4a-/	.
.	.	8A-/J	.	.	.	.	.
4FF/	.	8B-/L	.	4r	.	4r	.
.	.	8B-/	.	.	.	.	.
4r	.	8c/	.	4f/	.	4a-/	.
.	.	8B-/J	.	.	.	.	.
=164	=164	=164	=164	=164	=164	=164	=164
[1AA-	f	8c/L	f	[1f [1cc	f	[1ff	f
.	.	8c/	.	.	.	.	.
.	.	8d-/	.	.	.	.	.
.	.	8c/J	.	.	.	.	.
.	.	8B-/L	.	.	.	.	.
.	.	8B-/	.	.	.	.	.
.	.	8c/	.	.	.	.	.
.	.	8B-/J	.	.	.	.	.
=165	=165	=165	=165	=165	=165	=165	=165
2AA-/]	.	8A-/L	.	2f/] 2cc/]	.	1ff_	.
.	.	8A-/	.	.	.	.	.
.	.	8B-/	.	.	.	.	.
.	.	8A-/J	.	.	.	.	.
[2BBn/	.	8G/L	.	[2f/ [2dd/	.	.	.
.	.	8G/	.	.	.	.	.
.	.	8A-/	.	.	.	.	.
.	.	8G/J	.	.	.	.	.
=166	=166	=166	=166	=166	=166	=166	=166
4BB/]	p	8F/L	p	4f/] 4dd/]	p	4ff\]	p
.	.	8F/	.	.	.	.	.
4r	.	8G/	.	4d/	.	4G/ 4f/	.
.	.	8F/J	.	.	.	.	.
4BB/	.	8A-/L	.	4r	.	4r	.
.	.	8A-/	.	.	.	.	.
4r	.	8B-/	.	4d/	.	4G/ 4f/	.
.	.	8A-/J	.	.	.	.	.
=167	=167	=167	=167	=167	=167	=167	=167
4BB/	.	8G/L	.	4r	.	4r	.
.	.	8G/	.	.	.	.	.
4r	.	8A-/	.	4d/	.	4G/ 4f/	.
.	.	8G/J	.	.	.	.	.
4GG/	.	8D/L	.	4r	.	4r	.
.	.	8D/	.	.	.	.	.
4r	.	8E-/	.	4G/ 4g/	.	4b\	.
.	.	8D/J	.	.	.	.	.
=168	=168	=168	=168	=168	=168	=168	=168
8C/L	.	4E-/	.	4G/ 4g/	.	4cc\	.
8C/	.	.	.	.	.	.	.
8D/	.	4c\	.	4ee-\	.	4gg\	.
8C/J	.	.	.	.	.	.	.
8GG/L	.	4r	.	4r	.	4r	.
8GG/	.	.	.	.	.	.	.
8AA/	.	4c\	.	4ee-\	.	4gg\	.
8GG/J	.	.	.	.	.	.	.
=169	=169	=169	=169	=169	=169	=169	=169
8AA/L	.	4r	.	4r	.	4r	.
8AA/	.	.	.	.	.	.	.
8BB/	.	4c\	.	4ee-\	.	4gg\	.
8AA/J	.	.	.	.	.	.	.
8BB/L	.	4r	.	4r	.	4r	.
8BB/	.	.	.	.	.	.	.
8C/	.	4c\	.	4ee-\	.	4gg\	.
8BB/J	.	.	.	.	.	.	.
=170	=170	=170	=170	=170	=170	=170	=170
8C/L	.	4r	.	4r	.	4r	.
8C/	.	.	.	.	.	.	.
8D/	.	4c\	.	4ee-\	.	4gg\	.
8C/J	.	.	.	.	.	.	.
8D\L	.	4r	.	4r	.	4r	.
8D\	.	.	.	.	.	.	.
8E-\	.	4c\	.	4ee-\	.	4gg\	.
8D\J	.	.	.	.	.	.	.
=171	=171	=171	=171	=171	=171	=171	=171
8E-\L	.	4r	.	4r	.	4r	.
8E-\	.	.	.	.	.	.	.
8F\	.	4c\	.	4ee-\	.	4gg\	.
8E-\J	.	.	.	.	.	.	.
8F\L	.	4r	.	4r	.	4r	.
8F\	.	.	.	.	.	.	.
8G\	.	4c\	.	4ee-\	.	4gg\	.
8F\J	.	.	.	.	.	.	.
=172	=172	=172	=172	=172	=172	=172	=172
8G\L	f	[1c	f	[1ee-	f	[1gg	f
8G\	.	.	.	.	.	.	.
8A-\	.	.	.	.	.	.	.
8G\J	.	.	.	.	.	.	.
8F\L	.	.	.	.	.	.	.
8F\	.	.	.	.	.	.	.
8G\	.	.	.	.	.	.	.
8F\J	.	.	.	.	.	.	.
=173	=173	=173	=173	=173	=173	=173	=173
8E-\L	.	1c_	.	1ee-_	.	1gg_	.
8E-\	.	.	.	.	.	.	.
8F\	.	.	.	.	.	.	.
8E-\J	.	.	.	.	.	.	.
8D\L	.	.	.	.	.	.	.
8D\	.	.	.	.	.	.	.
8E-\	.	.	.	.	.	.	.
8D\J	.	.	.	.	.	.	.
=174	=174	=174	=174	=174	=174	=174	=174
8C/L	p	4c\]	.	4ee-\]	p	4gg\]	p
8C/	.	.	.	.	.	.	.
8D/	.	4c\	.	4ee-\	.	4gg\	.
8C/J	.	.	.	.	.	.	.
8E-\L	.	4r	.	4r	.	4r	.
8E-\	.	.	.	.	.	.	.
8F\	.	4g\	.	4cc\	.	4gg\	.
8E-\J	.	.	.	.	.	.	.
=175	=175	=175	=175	=175	=175	=175	=175
8C/L	.	4r	.	4r	.	4r	.
8C/	.	.	.	.	.	.	.
8D/	.	4g\	.	4ee-\	.	4gg\	.
8C/J	.	.	.	.	.	.	.
8E-\L	.	4r	.	4r	.	4r	.
8E-\	.	.	.	.	.	.	.
8F\	.	4g\	.	4cc#\	.	4gg\	.
8E-\J	.	.	.	.	.	.	.
=176	=176	=176	=176	=176	=176	=176	=176
1D	ff	1a	ff	1dd	ff	[2a\ [2ff#\	ff
.	.	.	.	.	.	8a\] 8ff#\]	.
.	.	.	.	.	.	8ddd\L	.
.	.	.	.	.	.	8eee-\	.
.	.	.	.	.	.	8ddd\J	.
=177	=177	=177	=177	=177	=177	=177	=177
1DD	.	1c 1d	.	1A 1f#	.	8ccc\L	.
.	.	.	.	.	.	8bb-\J	.
.	.	.	.	.	.	4aa\	.
.	.	.	.	.	.	8r	.
.	.	.	.	.	.	8ddd\L	.
.	.	.	.	.	.	8eee-\	.
.	.	.	.	.	.	8ddd\J	.
=178	=178	=178	=178	=178	=178	=178	=178
1DD	.	1c 1d	.	1A 1f#	.	8ccc\L	.
.	.	.	.	.	.	8bb-\J	.
.	.	.	.	.	.	4aa\	.
.	.	.	.	.	.	8r	.
.	.	.	.	.	.	8ddd\L	.
.	.	.	.	.	.	8eee-\	.
.	.	.	.	.	.	8ddd\J	.
=179	=179	=179	=179	=179	=179	=179	=179
1DD	.	1c 1d	.	1A 1f#	.	8ccc\L	.
.	.	.	.	.	.	8bb-\	.
.	.	.	.	.	.	8aa\	.
.	.	.	.	.	.	8bb-\J	.
.	.	.	.	.	.	8ccc\L	.
.	.	.	.	.	.	8aa\	.
.	.	.	.	.	.	8ddd\	.
.	.	.	.	.	.	8ddd\J	.
=180	=180	=180	=180	=180	=180	=180	=180
1GG	.	1G	.	[2G/ [2fn/	.	1dd 1bbn	.
.	.	.	.	8G/] 8f/L]	.	.	.
.	.	.	.	8g/	.	.	.
.	.	.	.	8a-/	.	.	.
.	.	.	.	8g/J	.	.	.
=181	=181	=181	=181	=181	=181	=181	=181
1GG	.	1F 1G	.	8fn/L	.	1dd 1bb	.
.	.	.	.	8e-/J	.	.	.
.	.	.	.	4d/	.	.	.
.	.	.	.	8r	.	.	.
.	.	.	.	8g/L	.	.	.
.	.	.	.	8a-/	.	.	.
.	.	.	.	8g/J	.	.	.
=182	=182	=182	=182	=182	=182	=182	=182
1GG	.	1F 1G	.	8f/L	.	1dd 1bb	.
.	.	.	.	8e-/J	.	.	.
.	.	.	.	4d/	.	.	.
.	.	.	.	8r	.	.	.
.	.	.	.	8g/L	.	.	.
.	.	.	.	8a-/	.	.	.
.	.	.	.	8g/J	.	.	.
=183	=183	=183	=183	=183	=183	=183	=183
1GG	.	1F 1G	.	8f/L	.	1dd 1bb	.
.	.	.	.	8e-/	.	.	.
.	.	.	.	8d/	.	.	.
.	.	.	.	8e-/J	.	.	.
.	.	.	.	8f/L	.	.	.
.	.	.	.	8d/	.	.	.
.	.	.	.	8g/	.	.	.
.	.	.	.	8g/J	.	.	.
=184	=184	=184	=184	=184	=184	=184	=184
1CC 1C	.	[2E/ [2G/	.	1en	.	1bb-	.
.	.	8E/] 8G/L]	.	.	.	.	.
.	.	8cc\	.	.	.	.	.
.	.	8dd-\	.	.	.	.	.
.	.	8cc\J	.	.	.	.	.
=185	=185	=185	=185	=185	=185	=185	=185
1CC 1C	.	8b-\L	.	1B-	.	1G 1e	.
.	.	8a-\J	.	.	.	.	.
.	.	4g\	.	.	.	.	.
.	.	8r	.	.	.	.	.
.	.	8cc\L	.	.	.	.	.
.	.	8dd-\	.	.	.	.	.
.	.	8cc\J	.	.	.	.	.
=186	=186	=186	=186	=186	=186	=186	=186
1CC 1C	.	8b-\L	.	1B-	.	1G 1e	.
.	.	8a-\J	.	.	.	.	.
.	.	4g\	.	.	.	.	.
.	.	8r	.	.	.	.	.
.	.	8cc\L	.	.	.	.	.
.	.	8dd-\	.	.	.	.	.
.	.	8cc\J	.	.	.	.	.
=187	=187	=187	=187	=187	=187	=187	=187
1CC 1C	.	8b-\L	.	2.B-/	.	1G 1e	.
.	.	8a-\	.	.	.	.	.
.	.	8g\	.	.	.	.	.
.	.	8a-\J	.	.	.	.	.
.	.	8b-\L	.	.	.	.	.
.	.	8g\	.	.	.	.	.
.	.	8cc\	.	4g/	.	.	.
.	.	8cc\J	.	.	.	.	.
=188	=188	=188	=188	=188	=188	=188	=188
2.FF/	.	8a-\L	.	2.c/	.	2.A-/ 2.f/	.
.	.	8g\	.	.	.	.	.
.	.	8f\	.	.	.	.	.
.	.	8g\J	.	.	.	.	.
.	.	8a-\L	.	.	.	.	.
.	.	8cc\	.	.	.	.	.
4F\	.	8ddn\	.	4c/ 4a-/	.	4cc\	.
.	.	8cc\J	.	.	.	.	.
=189	=189	=189	=189	=189	=189	=189	=189
2.E-\	.	8g\L	.	2.c/ 2.g/	.	2.cc\	.
.	.	8f\	.	.	.	.	.
.	.	8e-\	.	.	.	.	.
.	.	8f\J	.	.	.	.	.
.	.	8g\L	.	.	.	.	.
.	.	8cc\	.	.	.	.	.
4E-\	.	8dd\	.	4c/ 4g/	.	4cc\	.
.	.	8cc\J	.	.	.	.	.
=190	=190	=190	=190	=190	=190	=190	=190
2.D\	.	8f\L	.	2.c/ 2.f/	.	2.cc\	.
.	.	8e-\	.	.	.	.	.
.	.	8d\	.	.	.	.	.
.	.	8e-\J	.	.	.	.	.
.	.	8f\L	.	.	.	.	.
.	.	8cc\	.	.	.	.	.
4D\	.	8dd\	.	4c/ 4f/	.	4cc\	.
.	.	8cc\J	.	.	.	.	.
=191	=191	=191	=191	=191	=191	=191	=191
2.C/	.	8e-\L	.	2.c/ 2.e-/	.	[2cc\	.
.	.	8d\	.	.	.	.	.
.	.	8c\	.	.	.	.	.
.	.	8d\J	.	.	.	.	.
.	.	4e-\	.	.	.	8cc\]	.
.	.	.	.	.	.	8ccc\L	.
4EE-/	.	4r	.	4c/ 4e-/	.	8ddd\	.
.	.	.	.	.	.	8ccc\J	.
=192	=192	=192	=192	=192	=192	=192	=192
2.FF/	ff	2.A-/	ff	2.a-/	ff	8aa-\L	ff
.	.	.	.	.	.	8gg\	.
.	.	.	.	.	.	8ff\	.
.	.	.	.	.	.	8gg\J	.
.	.	.	.	.	.	8aa-\L	.
.	.	.	.	.	.	8ccc\	.
4FF/	.	4A-/	.	4a-/	.	8ddd\	.
.	.	.	.	.	.	8ccc\J	.
=193	=193	=193	=193	=193	=193	=193	=193
2.EE-/	.	2.G/	.	2.g/	.	8gg\L	.
.	.	.	.	.	.	8ff\	.
.	.	.	.	.	.	8ee-\	.
.	.	.	.	.	.	8ff\J	.
.	.	.	.	.	.	8gg\L	.
.	.	.	.	.	.	8ccc\	.
4EE-/	.	4G/	.	4g/	.	8ddd\	.
.	.	.	.	.	.	8ccc\J	.
=194	=194	=194	=194	=194	=194	=194	=194
2.DD/	.	2.F/	.	2.f/	.	8ff\L	.
.	.	.	.	.	.	8ee-\	.
.	.	.	.	.	.	8dd\	.
.	.	.	.	.	.	8ee-\J	.
.	.	.	.	.	.	8ff\L	.
.	.	.	.	.	.	8ccc\	.
4DD/	.	4F/	.	4f/	.	8ddd\	.
.	.	.	.	.	.	8ccc\J	.
=195	=195	=195	=195	=195	=195	=195	=195
2.CC/	.	[2E-/	.	2.G/ 2.e-/	.	8ee-\L	.
.	.	.	.	.	.	8dd\	.
.	.	.	.	.	.	8cc\	.
.	.	.	.	.	.	8dd\J	.
.	.	8E-/]	.	.	.	4ee-\	.
.	.	8c\L	.	.	.	.	.
4C/	.	8d\	.	4G/ 4e-/	.	4r	.
.	.	8c\J	.	.	.	.	.
=196	=196	=196	=196	=196	=196	=196	=196
2.GG/	.	8Bn/L	.	2.G/ 2.d/	.	2r	.
.	.	8A/J	.	.	.	.	.
.	.	4G/	.	.	.	.	.
.	.	4r	.	.	.	8r	.
.	.	.	.	.	.	8gg\L	.
4GG/	.	4B/	.	4G/ 4d/	.	8aa-\	.
.	.	.	.	.	.	8gg\J	.
=197	=197	=197	=197	=197	=197	=197	=197
2.C/	.	[2c\	.	2.G/ 2.e-/	.	8ee-\L	.
.	.	.	.	.	.	8dd\J	.
.	.	.	.	.	.	4cc\	.
.	.	8c\]	.	.	.	2r	.
.	.	8c\L	.	.	.	.	.
4C/	.	8d\	.	4G/ 4e-/	.	.	.
.	.	8c\J	.	.	.	.	.
=198	=198	=198	=198	=198	=198	=198	=198
2.GG/	.	8B/L	.	2.G/ 2.d/	.	2r	.
.	.	8A/J	.	.	.	.	.
.	.	4G/	.	.	.	.	.
.	.	4r	.	.	.	8r	.
.	.	.	.	.	.	8gg\L	.
4GG/	.	4B/	.	4G/ 4d/	.	8aa-\	.
.	.	.	.	.	.	8gg\J	.
=199	=199	=199	=199	=199	=199	=199	=199
2.C/	.	2.c\	.	2.G/ 2.e-/	.	8ee-\L	.
.	.	.	.	.	.	8dd\	.
.	.	.	.	.	.	8cc\	.
.	.	.	.	.	.	8dd\J	.
.	.	.	.	.	.	8ee-\L	.
.	.	.	.	.	.	8dd\	.
8c\L	.	8c/L	.	8cc\L	.	8cc\	.
8B-\J	.	8B-/J	.	8b-\J	.	8b-\J	.
=200	=200	=200	=200	=200	=200	=200	=200
8A-\L	.	8A-/L	.	8a-/L	.	8a-/L	.
8G\	.	8G/	.	8g/	.	8g/	.
8F\	.	8F/	.	8f/	.	8f/	.
8G\J	.	8G/J	.	8g/J	.	8g/J	.
8A-\L	.	8A-/L	.	8a-/L	.	8a-/L	.
8G\	.	8G/	.	8g/	.	8g/	.
8F\	.	8F/	.	8f/	.	8f/	.
8E-\J	.	8E-/J	.	8e-/J	.	8e-/J	.
=201	=201	=201	=201	=201	=201	=201	=201
8D\L	.	4D/	.	8d/L	.	8d/L	.
8E-\	.	.	.	8e-/	.	8e-/	.
8F\	.	8f\L	.	8f/	.	8f/	.
8E-\J	.	8e-\J	.	8e-/J	.	8e-/J	.
8D\L	.	8d\L	.	8d/L	.	8d/L	.
8E-\	.	8e-\	.	8e-/	.	8e-/	.
8D\	.	8d\	.	8d/	.	8d/	.
8C\J	.	8c\J	.	8c/J	.	8c/J	.
=202	=202	=202	=202	=202	=202	=202	=202
8BBn/L	.	8Bn/L	.	8Bn/L	.	8Bn/L	.
8C/	.	8c/	.	8c/	.	8c/	.
8D/	.	8d/	.	8d/	.	8d/	.
8C/J	.	8c/J	.	8c/J	.	8c/J	.
8BB/L	.	8B/L	.	8B/L	.	8B/L	.
8C/	.	8c/	.	8c/	.	8c/	.
8BB/	.	8B/	.	8B/	.	8B/	.
8AA-/J	.	8A-/J	.	8A-/J	.	8A-/J	.
=203	=203	=203	=203	=203	=203	=203	=203
8GG/L	.	8G\L	.	8G/L	.	8G/L	.
8GG/	.	8d\	.	8f/	.	8b\	.
8GG/	.	8d\	.	8f/	.	8dd\	.
8GG/J	.	8d\J	.	8f/J	.	8b\J	.
8GG/L	.	8d\L	.	8f/L	.	8f/L	.
8GG/	.	8d\	.	8f/	.	8b/	.
8GG/	.	8d\	.	8f/	.	8f/	.
8GG/J	.	8d\J	.	8f/J	.	8d/J	.
=204	=204	=204	=204	=204	=204	=204	=204
8GG/L	.	8d\L	.	8f/L	.	8G/L	.
8GG/	.	8f\	.	8b/	.	8dd\	.
8GG/	.	8f\	.	8b/	.	8ff\	.
8GG/J	.	8f\J	.	8b/J	.	8dd\J	.
8GG/L	.	8f\L	.	8b\L	.	8b/L	.
8GG/	.	8f\	.	8b\	.	8dd/	.
8GG/	.	8f\	.	8b\	.	8b/	.
8GG/J	.	8f\J	.	8b\J	.	8f/J	.
=205	=205	=205	=205	=205	=205	=205	=205
8GG/L	.	8f\L	.	8b\L	.	8G/L	.
8GG/	.	8b\	.	8dd\	.	8ff\	.
8GG/	.	8b\	.	8dd\	.	8bb\	.
8GG/J	.	8b\J	.	8dd\J	.	8ff\J	.
8GG/L	.	8b\L	.	8dd/L	.	8dd\L	.
8GG/	.	8d\	.	8f/	.	8ff\	.
8AA-/	.	8d\	.	8f/	.	8dd\	.
8AA-/J	.	8d\J	.	8f/J	.	8b\J	.
=206	=206	=206	=206	=206	=206	=206	=206
8GG/L	.	8d\L	.	8f/L	.	8dd\L	.
8GG/	.	8B\	.	8d/	.	8ff\	.
8AA-/	.	8B\	.	8d/	.	8bb\	.
8AA-/J	.	8B\J	.	8d/J	.	8ff\J	.
8GG/L	.	8B\L	.	8d/L	.	8bb\L	.
8GG/	.	8d\	.	8b/	.	8ddd\	.
8AA-/	.	8d\	.	8b/	.	8fff\	.
8AA-/J	.	8d\J	.	8b/J	.	8ddd\J	.
=207	=207	=207	=207	=207	=207	=207	=207
1GG;	.	1G; 1d;	.	1d; 1b;	.	1fff;	.
=208	=208	=208	=208	=208	=208	=208	=208
[1GG	ff	[1g	ff	[1g	ff	[1G [1g	ff
=209	=209	=209	=209	=209	=209	=209	=209
1GG]	.	1g]	.	1g]	.	1G] 1g]	.
=210	=210	=210	=210	=210	=210	=210	=210
4CC/	p	[2g\	p	4c/	p	2c'/	p
4r	.	.	.	4r	.	.	.
2r	.	8g\L]	.	2r	.	2c#'/	.
.	.	8g\	.	.	.	.	.
.	.	8a\	.	.	.	.	.
.	.	8g\J	.	.	.	.	.
=211	=211	=211	=211	=211	=211	=211	=211
1r	.	8f\L	.	1r	.	2d'/	.
.	.	8e\J	.	.	.	.	.
.	.	4d\	.	.	.	.	.
.	.	8r	.	.	.	2G'/	.
.	.	8f\L	.	.	.	.	.
.	.	8g\	.	.	.	.	.
.	.	8f\J	.	.	.	.	.
=212	=212	=212	=212	=212	=212	=212	=212
1r	.	8e\L	.	1r	.	2c'/	.
.	.	8d\J	.	.	.	.	.
.	.	4c\	.	.	.	.	.
.	.	8r	.	.	.	2c#'/	.
.	.	8g\L	.	.	.	.	.
.	.	8a\	.	.	.	.	.
.	.	8g\J	.	.	.	.	.
=213	=213	=213	=213	=213	=213	=213	=213
1r	.	8f\L	.	1r	.	2d'/	.
.	.	8e\	.	.	.	.	.
.	.	8d\	.	.	.	.	.
.	.	8e\J	.	.	.	.	.
.	.	8f\L	.	.	.	2G'/	.
.	.	8d\	.	.	.	.	.
.	.	8g\	.	.	.	.	.
.	.	8f\J	.	.	.	.	.
=214	=214	=214	=214	=214	=214	=214	=214
1r	.	8e\L	.	1r	.	2c'/	.
.	.	8d\	.	.	.	.	.
.	.	8c\	.	.	.	.	.
.	.	8d\J	.	.	.	.	.
.	.	8e\L	.	.	.	2B-'/	.
.	.	8f\	.	.	.	.	.
.	.	8g\	.	.	.	.	.
.	.	8e\J	.	.	.	.	.
=215	=215	=215	=215	=215	=215	=215	=215
1r	.	8a\L	.	1r	.	2A'/	.
.	.	8g\	.	.	.	.	.
.	.	8f\	.	.	.	.	.
.	.	8a\J	.	.	.	.	.
.	.	8b\L	.	.	.	2f'/	.
.	.	8a\	.	.	.	.	.
.	.	8g\	.	.	.	.	.
.	.	8b\J	.	.	.	.	.
=216	=216	=216	=216	=216	=216	=216	=216
1r	.	8cc\L	.	1r	.	2e'/	.
.	.	8dd\	.	.	.	.	.
.	.	8ee\	.	.	.	.	.
.	.	8cc\J	.	.	.	.	.
.	.	8g\L	.	.	.	2b-'/	.
.	.	8f\	.	.	.	.	.
.	.	8e\	.	.	.	.	.
.	.	8g\J	.	.	.	.	.
=217	=217	=217	=217	=217	=217	=217	=217
1r	.	8a\L	.	1r	.	2a'/	.
.	.	8g\	.	.	.	.	.
.	.	8f\	.	.	.	.	.
.	.	8a\J	.	.	.	.	.
.	.	8b\L	.	.	.	2f'/	.
.	.	8a\	.	.	.	.	.
.	.	8g\	.	.	.	.	.
.	.	8b\J	.	.	.	.	.
=218	=218	=218	=218	=218	=218	=218	=218
1r	.	8cc\L	.	1r	.	2e'/	.
.	.	8cc\	.	.	.	.	.
.	.	8dd\	.	.	.	.	.
.	.	8cc\J	.	.	.	.	.
.	.	8a\L	.	.	.	2c'/	.
.	.	8a\	.	.	.	.	.
.	.	8b\	.	.	.	.	.
.	.	8a\J	.	.	.	.	.
=219	=219	=219	=219	=219	=219	=219	=219
1r	.	8f#\L	.	1r	.	2A'/	.
.	.	8f#\	.	.	.	.	.
.	.	8g\	.	.	.	.	.
.	.	8f#\J	.	.	.	.	.
.	.	8d\L	.	.	.	2c'/	.
.	.	8d\	.	.	.	.	.
.	.	8e\	.	.	.	.	.
.	.	8d\J	.	.	.	.	.
=220	=220	=220	=220	=220	=220	=220	=220
2G'\	p	4g\	p	[2dd\	p	2B/	.
.	.	4r	.	.	.	.	.
2G#'\	.	2B/	.	8dd\L]	.	2r	.
.	.	.	.	8dd\	.	.	.
.	.	.	.	8ee\	.	.	.
.	.	.	.	8dd\J	.	.	.
=221	=221	=221	=221	=221	=221	=221	=221
2A'\	.	2c'/	.	8cc\L	.	1r	.
.	.	.	.	8b\J	.	.	.
.	.	.	.	4a/	.	.	.
2D'\	.	2F#'/	.	8r	.	.	.
.	.	.	.	8cc\L	.	.	.
.	.	.	.	8dd\	.	.	.
.	.	.	.	8cc\J	.	.	.
=222	=222	=222	=222	=222	=222	=222	=222
2G'\	.	2B/	.	8b/L	.	1r	.
.	.	.	.	8a/J	.	.	.
.	.	.	.	4g/	.	.	.
2G#'\	.	2B/	.	8r	.	.	.
.	.	.	.	8dd\L	.	.	.
.	.	.	.	8ee\	.	.	.
.	.	.	.	8dd\J	.	.	.
=223	=223	=223	=223	=223	=223	=223	=223
2A'\	.	2c'/	.	8cc\L	.	1r	.
.	.	.	.	8b\J	.	.	.
.	.	.	.	4a/	.	.	.
2D'\	.	2F#'/	.	8r	.	.	.
.	.	.	.	8cc\L	.	.	.
.	.	.	.	8dd\	.	.	.
.	.	.	.	8cc\J	.	.	.
=224	=224	=224	=224	=224	=224	=224	=224
2G'\	.	2B/	.	8b/L	.	1r	.
.	.	.	.	8a/	.	.	.
.	.	.	.	8g/	.	.	.
.	.	.	.	8a/J	.	.	.
2F'\	.	2A-'/	.	8b\L	.	.	.
.	.	.	.	8cc\	.	.	.
.	.	.	.	8dd\	.	.	.
.	.	.	.	8b\J	.	.	.
=225	=225	=225	=225	=225	=225	=225	=225
2E\	.	2G'/	.	8ee\L	.	1r	.
.	.	.	.	8dd\	.	.	.
.	.	.	.	8cc\	.	.	.
.	.	.	.	8ee\J	.	.	.
2A'\	.	2c'/	.	8ff#\L	.	.	.
.	.	.	.	8ee\	.	.	.
.	.	.	.	8dd\	.	.	.
.	.	.	.	8ff#\J	.	.	.
=226	=226	=226	=226	=226	=226	=226	=226
2G'\	.	2B/	.	8gg\L	.	1r	.
.	.	.	.	8aa\	.	.	.
.	.	.	.	8bb\	.	.	.
.	.	.	.	8gg\J	.	.	.
2f'\	.	2a-'\	.	8dd\L	.	.	.
.	.	.	.	8cc\	.	.	.
.	.	.	.	8b\	.	.	.
.	.	.	.	8dd\J	.	.	.
=227	=227	=227	=227	=227	=227	=227	=227
2e'\	.	2g'\	.	8ee\L	.	1r	.
.	.	.	.	8dd\	.	.	.
.	.	.	.	8cc\	.	.	.
.	.	.	.	8ee\J	.	.	.
2g'\	.	2b-'\	.	8ee\L	.	.	.
.	.	.	.	8dd\	.	.	.
.	.	.	.	8cc#\	.	.	.
.	.	.	.	8ee\J	.	.	.
=228	=228	=228	=228	=228	=228	=228	=228
2f'\	.	2an'\	.	8ff\L	.	1r	.
.	.	.	.	8ff\	.	.	.
.	.	.	.	8gg\	.	.	.
.	.	.	.	8ff\J	.	.	.
2F'\	.	2A'/	.	8dd\L	.	.	.
.	.	.	.	8dd\	.	.	.
.	.	.	.	8ee\	.	.	.
.	.	.	.	8dd\J	.	.	.
=229	=229	=229	=229	=229	=229	=229	=229
2D'/	.	2F'/	.	8b\L	.	2r	.
.	.	.	.	8b\	.	.	.
.	.	.	.	8cc\	.	.	.
.	.	.	.	8b\J	.	.	.
2BB'/	.	2F'/	.	8g/L	.	2dd'\	.
.	.	.	.	8g/	.	.	.
.	.	.	.	8a/	.	.	.
.	.	.	.	8g/J	.	.	.
=230	=230	=230	=230	=230	=230	=230	=230
[2G\	.	4E/	.	2cc'\	.	2ee'\	.
.	.	4r	.	.	.	.	.
8G\L]	.	2r	.	2cc#'\	.	2ee'\	.
8G\	.	.	.	.	.	.	.
8A\	.	.	.	.	.	.	.
8G\J	.	.	.	.	.	.	.
=231	=231	=231	=231	=231	=231	=231	=231
8F\L	.	1r	.	2dd'\	.	2ff'\	.
8E\J	.	.	.	.	.	.	.
4D\	.	.	.	.	.	.	.
8r	.	.	.	2g/	.	2b'\	.
8F\L	.	.	.	.	.	.	.
8G\	.	.	.	.	.	.	.
8F\J	.	.	.	.	.	.	.
=232	=232	=232	=232	=232	=232	=232	=232
8E\L	.	1r	.	2ccn'\	.	2ee'\	.
8D\J	.	.	.	.	.	.	.
4C/	.	.	.	.	.	.	.
8r	.	.	.	2cc#'\	.	2ee'\	.
8G\L	.	.	.	.	.	.	.
8A\	.	.	.	.	.	.	.
8G\J	.	.	.	.	.	.	.
=233	=233	=233	=233	=233	=233	=233	=233
8F\L	.	1r	.	2dd'\	.	2ff'\	.
8E\J	.	.	.	.	.	.	.
4D\	.	.	.	.	.	.	.
8r	.	.	.	2g'/	.	2b'\	.
8F\L	.	.	.	.	.	.	.
8G\	.	.	.	.	.	.	.
8F\J	.	.	.	.	.	.	.
=234	=234	=234	=234	=234	=234	=234	=234
8E\L	.	1r	.	2ccn'\	.	2ee'\	.
8D\	.	.	.	.	.	.	.
8C\	.	.	.	.	.	.	.
8D\J	.	.	.	.	.	.	.
8E\L	.	.	.	2b-'\	.	2gg'\	.
8F\	.	.	.	.	.	.	.
8G\	.	.	.	.	.	.	.
8E\J	.	.	.	.	.	.	.
=235	=235	=235	=235	=235	=235	=235	=235
8A\L	.	1r	.	2a/	.	2ff'\	.
8G\	.	.	.	.	.	.	.
8F\	.	.	.	.	.	.	.
8A\J	.	.	.	.	.	.	.
8B\L	.	.	.	2ff'\	.	2dd'\	.
8A\	.	.	.	.	.	.	.
8G\	.	.	.	.	.	.	.
8B\J	.	.	.	.	.	.	.
=236	=236	=236	=236	=236	=236	=236	=236
8c\L	.	1r	.	2ee'\	.	2cc'\	.
8d\	.	.	.	.	.	.	.
8e\	.	.	.	.	.	.	.
8c\J	.	.	.	.	.	.	.
8G\L	.	.	.	2bb-'\	.	2cc'\	.
8F\	.	.	.	.	.	.	.
8E\	.	.	.	.	.	.	.
8G\J	.	.	.	.	.	.	.
=237	=237	=237	=237	=237	=237	=237	=237
8A\L	.	1r	.	2aa'\	.	2cc'\	.
8G\	.	.	.	.	.	.	.
8F\	.	.	.	.	.	.	.
8A\J	.	.	.	.	.	.	.
8B\L	.	.	.	2ff'\	.	2dd'\	.
8A\	.	.	.	.	.	.	.
8G\	.	.	.	.	.	.	.
8B\J	.	.	.	.	.	.	.
=238	=238	=238	=238	=238	=238	=238	=238
8c\L	.	2r	.	2ee'\	.	2cc'\	.
8c\	.	.	.	.	.	.	.
8B\	.	.	.	.	.	.	.
8c\J	.	.	.	.	.	.	.
8A\L	.	2f'\	.	[2dd\	.	[2cc\	.
8A\	.	.	.	.	.	.	.
8G#\	.	.	.	.	.	.	.
8A\J	.	.	.	.	.	.	.
=239	=239	=239	=239	=239	=239	=239	=239
8F\L	.	2a-'\	.	2dd\]	.	2cc\]	.
8F\	.	.	.	.	.	.	.
8E\	.	.	.	.	.	.	.
8F\J	.	.	.	.	.	.	.
8Gn\L	.	2g'\	.	2dd'\	.	2b'\	.
8G\	.	.	.	.	.	.	.
8F#\	.	.	.	.	.	.	.
8G\J	.	.	.	.	.	.	.
=240	=240	=240	=240	=240	=240	=240	=240
2C'/	f	2c'\	f	2e/ 2cc/	f	[2gg\	f
2C#'/	.	2B-'/	.	2b-'/	.	8gg\L]	.
.	.	.	.	.	.	8gg\	.
.	.	.	.	.	.	8aa\	.
.	.	.	.	.	.	8gg\J	.
=241	=241	=241	=241	=241	=241	=241	=241
2D'/	.	2A'/	.	2a'/	.	8ff\L	.
.	.	.	.	.	.	8ee\J	.
.	.	.	.	.	.	4dd\	.
2GG'/	.	2Bn'/	.	2bn'\	.	8r	.
.	.	.	.	.	.	8ff\L	.
.	.	.	.	.	.	8gg\	.
.	.	.	.	.	.	8ff\J	.
=242	=242	=242	=242	=242	=242	=242	=242
2C'/	.	8c/L	.	8cc\L	.	8ee\L	.
.	.	8c/	.	8cc\	.	8dd\J	.
.	.	8c/	.	8cc\	.	4cc\	.
.	.	8c/J	.	8cc\J	.	.	.
2C#'/	.	8B-/L	.	8b-\L	.	8r	.
.	.	8B-/	.	8b-\	.	8gg\L	.
.	.	8B-/	.	8b-\	.	8aa\	.
.	.	8B-/J	.	8b-\J	.	8gg\J	.
=243	=243	=243	=243	=243	=243	=243	=243
2D'/	.	8A/L	.	8a/L	.	8ff\L	.
.	.	8A/	.	8a/	.	8ee\	.
.	.	8A/	.	8a/	.	8dd\	.
.	.	8A/J	.	8a/J	.	8ee\J	.
2GG'/	.	8Bn/L	.	8bn\L	.	8ff\L	.
.	.	8B/	.	8b\	.	8dd\	.
.	.	8B/	.	8b\	.	8gg\	.
.	.	8B/J	.	8b\J	.	8ff\J	.
=244	=244	=244	=244	=244	=244	=244	=244
2C'/	.	8c\L	.	8cc\L	.	8ee\L	.
.	.	8c\	.	8cc\	.	8dd\	.
.	.	8c\	.	8cc\	.	8cc\	.
.	.	8c\J	.	8cc\J	.	8dd\J	.
2BB-'/	.	8c\L	.	8cc\L	.	8ee\L	.
.	.	8c\	.	8cc\	.	8ff\	.
.	.	8c\	.	8cc\	.	8gg\	.
.	.	8c\J	.	8cc\J	.	8ee\J	.
=245	=245	=245	=245	=245	=245	=245	=245
2AA'/	.	8c\L	.	8cc\L	.	8aa\L	.
.	.	8c\	.	8cc\	.	8gg\	.
.	.	8c\	.	8cc\	.	8ff\	.
.	.	8c\J	.	8cc\J	.	8aa\J	.
2FF'/	.	8G/L	.	8g/L	.	8bb\L	.
.	.	8G/	.	8g/	.	8aa\	.
.	.	8G/	.	8g/	.	8gg\	.
.	.	8G/J	.	8g/J	.	8bb\J	.
=246	=246	=246	=246	=246	=246	=246	=246
2EE'/	.	8G/L	.	8g\L	.	8ccc\L	.
.	.	8c/	.	8cc\	.	8ddd\	.
.	.	8c/	.	8cc\	.	8eee\	.
.	.	8c/J	.	8cc\J	.	8ccc\J	.
2BB-'/	.	8c\L	.	8cc\L	.	8gg\L	.
.	.	8c\	.	8cc\	.	8ff\	.
.	.	8c\	.	8cc\	.	8ee\	.
.	.	8c\J	.	8cc\J	.	8gg\J	.
=247	=247	=247	=247	=247	=247	=247	=247
2AA'/	.	8c\L	.	8cc\L	.	8aa\L	.
.	.	8c\	.	8cc\	.	8gg\	.
.	.	8c\	.	8cc\	.	8ff\	.
.	.	8c\J	.	8cc\J	.	8aa\J	.
2F'\	.	8G/L	.	8g/L	.	8bb\L	.
.	.	8G/	.	8g/	.	8aa\	.
.	.	8G/	.	8g/	.	8gg\	.
.	.	8G/J	.	8g/J	.	8bb\J	.
=248	=248	=248	=248	=248	=248	=248	=248
2E'\	.	8G\L	.	8g\L	.	8ccc\L	.
.	.	8g\	.	8gg\	.	8ccc\	.
.	.	8g\	.	8gg\	.	8bb\	.
.	.	8g\J	.	8gg\J	.	8ccc\J	.
2BBn'/	.	8g\L	.	8gg\L	.	8ddd\L	.
.	.	8g\	.	8gg\	.	8ddd\	.
.	.	8g\	.	8gg\	.	8ccc\	.
.	.	8g\J	.	8gg\J	.	8ddd\J	.
=249	=249	=249	=249	=249	=249	=249	=249
2C'/	.	8g\L	.	8gg\L	.	8eee\L	.
.	.	8g\	.	8gg\	.	8eee\	.
.	.	8g\	.	8gg\	.	8ddd\	.
.	.	8g\J	.	8gg\J	.	8eee\J	.
2D'/	.	8g\L	.	8gg\L	.	8fff\L	.
.	.	8g\	.	8gg\	.	8fff\	.
.	.	8g\	.	8gg\	.	8eee\	.
.	.	8g\J	.	8gg\J	.	8fff\J	.
=250	=250	=250	=250	=250	=250	=250	=250
2E'\	.	8g\L	.	8gg\L	.	8ggg\L	.
.	.	8g\	.	8cc\	.	8ggg\	.
.	.	8g\	.	8cc\	.	8aaa\	.
.	.	8g\J	.	8cc\J	.	8ggg\J	.
2F'\	.	8a\L	.	8cc\L	.	8fff\L	.
.	.	8a\	.	8cc\	.	8fff\	.
.	.	8a\	.	8dd\	.	8ggg\	.
.	.	8a\J	.	8dd\J	.	8fff\J	.
=251	=251	=251	=251	=251	=251	=251	=251
2G'\	.	8g\L	.	8dd\L	.	8eee\L	.
.	.	8g\	.	8dd\	.	8eee\	.
.	.	8g\	.	8cc\	.	8fff\	.
.	.	8g\J	.	8cc\J	.	8eee\J	.
2G#'\	.	8f\L	.	8cc\L	.	8ddd\L	.
.	.	8f\	.	8cc\	.	8ddd\	.
.	.	8f\	.	8b\	.	8eee\	.
.	.	8f\J	.	8b\J	.	8ddd\J	.
=252	=252	=252	=252	=252	=252	=252	=252
8A\L	.	2e'\	.	8cc\L	.	8ccc\L	.
8A\	.	.	.	8cc\	.	8ccc\	.
8G\	.	.	.	8b\	.	8bb\	.
8A\J	.	.	.	8cc\J	.	8ccc\J	.
8B\L	.	2g'\	.	8dd\L	.	8ddd\L	.
8B\	.	.	.	8dd\	.	8ddd\	.
8A\	.	.	.	8cc\	.	8ccc\	.
8B\J	.	.	.	8dd\J	.	8ddd\J	.
=253	=253	=253	=253	=253	=253	=253	=253
8c\L	.	2g'\	f	8ee\L	.	8eee\L	.
8c\	f	.	.	8ee\	f	8eee\	f
8B\	.	.	.	8dd\	.	8ddd\	.
8c\J	.	.	.	8ee\J	.	8eee\J	.
8d\L	.	2b'\	.	8ff\L	.	8fff\L	.
8d\	.	.	.	8ff\	.	8fff\	.
8c\	.	.	.	8ee\	.	8eee\	.
8d\J	.	.	.	8ff\J	.	8fff\J	.
=254	=254	=254	=254	=254	=254	=254	=254
8e\L	.	2cc'\	.	8gg\L	.	8ggg\L	.
8e\	.	.	.	8gg\	.	8ggg\	.
8d\	.	.	.	8aa\	.	8aaa\	.
8e\J	.	.	.	8gg\J	.	8ggg\J	.
8f\L	.	8a\L	.	8ff\L	.	8fff\L	.
8f\	.	8dd\	.	8ff\	.	8fff\	.
8e\	.	8ee\	.	8gg\	.	8ggg\	.
8f\J	.	8dd\J	.	8ff\J	.	8fff\J	.
=255	=255	=255	=255	=255	=255	=255	=255
8g\L	.	8cc\L	.	8ee\L	.	8eee\L	.
8G\	.	8g\	.	8ee\	.	8eee\	.
8G\	.	8a\	.	8ff\	.	8fff\	.
8G\J	.	8g\J	.	8ee\J	.	8eee\J	.
8G\L	.	8f\L	.	8dd/L	.	8ddd\L	.
8GG/	.	8B\	.	8f/	.	8ddd\	.
8GG/	.	8A\	.	8g/	.	8eee\	.
8GG/J	.	8B\J	.	8f/J	.	8ddd\J	.
=256	=256	=256	=256	=256	=256	=256	=256
4CC'/ 4C'/	ff	4c\	ff	4e/	ff	(8ccc\L	ff
.	.	.	.	.	.	8gg\)	.
4r	.	4r	.	4r	.	8ccc'\	.
.	.	.	.	.	.	8ccc'\J	.
4CC/ 4C/	.	4G/ 4e/	.	4c/ 4g/	.	(8ccc\L	.
.	.	.	.	.	.	8gg\)	.
4r	.	4r	.	4r	.	8ccc'\	.
.	.	.	.	.	.	8ccc'\J	.
=257	=257	=257	=257	=257	=257	=257	=257
4CC/ 4C/	.	4G/ 4e/	.	4c/ 4g/	.	(8ccc\L	.
.	.	.	.	.	.	8gg\)	.
4r	.	4r	.	4r	.	8ccc'\	.
.	.	.	.	.	.	8ccc'\J	.
4CC/ 4C/	.	4G/ 4e/	.	4c/ 4g/	.	(8ccc\L	.
.	.	.	.	.	.	8gg\)	.
4r	.	4r	.	4r	.	8ccc'\	.
.	.	.	.	.	.	8ccc'\J	.
=258	=258	=258	=258	=258	=258	=258	=258
[1CC [1C	.	(8f\L	.	(8a-/L	.	[1dd [1bb	.
.	.	8d\)	.	8f/)	.	.	.
.	.	8f'\	.	8a-'/	.	.	.
.	.	8f'\J	.	8a-'/J	.	.	.
.	.	(8f\L	.	(8a-/L	.	.	.
.	.	8d\)	.	8f/)	.	.	.
.	.	8f'\	.	8a-'/	.	.	.
.	.	8f'\J	.	8a-'/J	.	.	.
=259	=259	=259	=259	=259	=259	=259	=259
*	*	*	*	*	*	*^	*
1CC] 1C]	.	(8f\L	.	(8a-/L	.	1bb]	1dd]	.
.	.	8d\)	.	8f/)	.	.	.	.
.	.	8f'\	.	8a-'/	.	.	.	.
.	.	8f'\J	.	8a-'/J	.	.	.	.
.	.	(8f\L	.	(8g/L	.	.	.	.
.	.	8d\)	.	8f/)	.	.	.	.
.	.	8f'\	.	8g'/	.	.	.	.
.	.	8f'\J	.	8g'/J	.	.	.	.
*	*	*	*	*	*	*v	*v	*
=260	=260	=260	=260	=260	=260	=260	=260
4CC/ 4C/	.	4G/ 4e/	.	4c/ 4g/	.	(8ccc\L	.
.	.	.	.	.	.	8gg\)	.
4r	.	4r	.	4r	.	8ccc'\	.
.	.	.	.	.	.	8ccc'\J	.
4CC/ 4C/	.	4G/ 4e/	.	4c/ 4g/	.	(8ccc\L	.
.	.	.	.	.	.	8gg\)	.
4r	.	4r	.	4r	.	8ccc'\	.
.	.	.	.	.	.	8ccc'\J	.
=261	=261	=261	=261	=261	=261	=261	=261
4CC/ 4C/	.	4G/ 4e/	.	4c/ 4g/	.	(8ccc\L	.
.	.	.	.	.	.	8gg\)	.
4r	.	4r	.	4r	.	8ccc'\	.
.	.	.	.	.	.	8ccc'\J	.
4CC/ 4C/	.	4G/ 4e/	.	4c/ 4g/	.	(8ccc\L	.
.	.	.	.	.	.	8gg\)	.
4r	.	4r	.	4r	.	8ccc'\	.
.	.	.	.	.	.	8ccc'\J	.
=262	=262	=262	=262	=262	=262	=262	=262
[1C#	.	(8e\L	.	(8g/L	.	[1b- [1bb-	.
.	.	8c#\)	.	8e/)	.	.	.
.	.	8e'\	.	8g'/	.	.	.
.	.	8e'\J	.	8g'/J	.	.	.
.	.	(8e\L	.	(8g/L	.	.	.
.	.	8c#\)	.	8e/)	.	.	.
.	.	8e'\	.	8g'/	.	.	.
.	.	8e'\J	.	8g'/J	.	.	.
=263	=263	=263	=263	=263	=263	=263	=263
1C#]	.	(8e\L	.	(8g/L	.	1b-] 1bb-]	.
.	.	8c#\)	.	8e/)	.	.	.
.	.	8e'\	.	8g'/	.	.	.
.	.	8e'\J	.	8g'/J	.	.	.
.	.	(8e\L	.	(8g/L	.	.	.
.	.	8c#\)	.	8e/)	.	.	.
.	.	8e'\	.	8g'/	.	.	.
.	.	8e'\J	.	8g'/J	.	.	.
=264	=264	=264	=264	=264	=264	=264	=264
4C#/	.	4e\	.	4g/	.	(8aa\L	.
.	.	.	.	.	.	8ee\)	.
4r	.	4r	.	4r	.	8aa'\	.
.	.	.	.	.	.	8aa'\J	.
4D\	.	(8d\L	.	(8f/L	.	2r	.
.	.	8A\)	.	8d/)	.	.	.
4r	.	8d'\	.	8f'/	.	.	.
.	.	8d'\J	.	8f'/J	.	.	.
=265	=265	=265	=265	=265	=265	=265	=265
4BB/	.	4d\	.	4f/	.	(8gg\L	.
.	.	.	.	.	.	8dd\)	.
4r	.	4r	.	4r	.	8gg'\	.
.	.	.	.	.	.	8gg'\J	.
4Cn/	.	(8cn/L	.	(8e/L	.	2r	.
.	.	8G/)	.	8c/)	.	.	.
4r	.	8c'/	.	8e'/	.	.	.
.	.	8c'/J	.	8e'/J	.	.	.
=266	=266	=266	=266	=266	=266	=266	=266
4C#/	.	8e\L	.	8g/L	.	(8aa\L	.
.	.	8e\	.	8g/	.	8ee\)	.
4r	.	8e\	.	8g/	.	8aa'\	.
.	.	8e\J	.	8g/J	.	8aa'\J	.
4D\	.	(8d\L	.	(8f/L	.	2r	.
.	.	8A\)	.	8d/)	.	.	.
4r	.	8d'\	.	8f'/	.	.	.
.	.	8d'\J	.	8f'/J	.	.	.
=267	=267	=267	=267	=267	=267	=267	=267
4BB/	.	8d\L	.	8f/L	.	(8gg\L	.
.	.	8d\	.	8f/	.	8dd\)	.
4r	.	8d\	.	8f/	.	8gg'\	.
.	.	8d\J	.	8f/J	.	8gg'\J	.
4Cn/	.	(8c/L	.	(8e/L	.	2r	.
.	.	8G/)	.	8c/)	.	.	.
4r	.	8c'/	.	8e'/	.	.	.
.	.	8c'/J	.	8e'/J	.	.	.
=268	=268	=268	=268	=268	=268	=268	=268
4C/	.	4r	.	4r	.	(8aa\L	.
.	.	.	.	.	.	8ee\)	.
4r	.	4c\	.	4e/	.	8aa'\	.
.	.	.	.	.	.	8aa'\J	.
4C/	.	4r	.	4r	.	(8bb-\L	.
.	.	.	.	.	.	8ee\)	.
4r	.	4e\	.	4g/	.	8bb-'\	.
.	.	.	.	.	.	8bb-'\J	.
=269	=269	=269	=269	=269	=269	=269	=269
4BB/	.	4r	.	4r	.	(8bbn\L	.
.	.	.	.	.	.	8ee\)	.
4r	.	4e\	.	4g/	.	8bb'\	.
.	.	.	.	.	.	8bb'\J	.
4BB-/	.	4r	.	4r	.	(8ccc\L	.
.	.	.	.	.	.	8ee\)	.
4r	.	4e\	.	4g/	.	8ccc'\	.
.	.	.	.	.	.	8ccc'\J	.
=270	=270	=270	=270	=270	=270	=270	=270
4AA/	.	4r	.	4r	.	(8ccc\L	.
.	.	.	.	.	.	8ff\)	.
4r	.	4A/	.	4c/ 4f/	.	8ccc'\	.
.	.	.	.	.	.	8ccc'\J	.
4AA-/	.	4r	.	4r	.	(8ccc\L	.
.	.	.	.	.	.	8ff\)	.
4r	.	4A-/	.	4c/ 4f#/	.	8ccc'\	.
.	.	.	.	.	.	8ccc'\J	.
=271	=271	=271	=271	=271	=271	=271	=271
4GG/	.	4r	.	4r	.	(8bb\L	.
.	.	.	.	.	.	8ff\)	.
4r	.	4G/	.	4B/ 4g/	.	8bb'\	.
.	.	.	.	.	.	8bb'\J	.
4GG/	.	4r	.	4r	.	(8ddd\L	.
.	.	.	.	.	.	8bb\)	.
4r	.	4G/	.	4B/ 4d/	.	8ddd'\	.
.	.	.	.	.	.	8ddd'\J	.
=272	=272	=272	=272	=272	=272	=272	=272
4GG/	.	4G/ 4d/	.	4B/ 4f/	.	8ddd\L	.
.	.	.	.	.	.	8eee\	.
4r	.	4r	.	4r	.	8fff\	.
.	.	.	.	.	.	8bb\J	.
2r	.	2r	.	2r	.	8ccc\L	.
.	.	.	.	.	.	8ddd\	.
.	.	.	.	.	.	8ff\	.
.	.	.	.	.	.	8gg\J	.
=273	=273	=273	=273	=273	=273	=273	=273
1r	.	1r	.	1r	.	8aa\L	.
.	.	.	.	.	.	8dd\	.
.	.	.	.	.	.	8ee\	.
.	.	.	.	.	.	8ff\J	.
.	.	.	.	.	.	8b/L	.
.	.	.	.	.	.	8cc/	.
.	.	.	.	.	.	8dd/	.
.	.	.	.	.	.	8f/J	.
=274	=274	=274	=274	=274	=274	=274	=274
1r	.	1r	.	1r	.	8g/L	.
.	.	.	.	.	.	8a/	.
.	.	.	.	.	.	8d/	.
.	.	.	.	.	.	8e/J	.
.	.	.	.	.	.	8f/L	.
.	.	.	.	.	.	8B/	.
.	.	.	.	.	.	8c/	.
.	.	.	.	.	.	8d/J	.
=275	=275	=275	=275	=275	=275	=275	=275
1r	.	1r	.	1r	.	8G/L	.
.	.	.	.	.	.	8A/	.
.	.	.	.	.	.	8B/	.
.	.	.	.	.	.	8c/J	.
.	.	.	.	.	.	8d/L	.
.	.	.	.	.	.	8B/	.
.	.	.	.	.	.	8c/	.
.	.	.	.	.	.	8d/J	.
=276	=276	=276	=276	=276	=276	=276	=276
1r	.	1r	.	1r	.	8e/L	.
.	.	.	.	.	.	8f/	.
.	.	.	.	.	.	8g/	.
.	.	.	.	.	.	8a/J	.
.	.	.	.	.	.	8b\L	.
.	.	.	.	.	.	8a\	.
.	.	.	.	.	.	8b\	.
.	.	.	.	.	.	8cc\J	.
=277	=277	=277	=277	=277	=277	=277	=277
1r	.	2r	.	[1G	.	8dd\L	p
.	.	.	.	.	.	8ee\	.
.	.	.	.	.	.	8ff\	.
.	.	.	.	.	.	8ff#\J	.
.	.	8A/L	p	.	.	4gg\	.
.	.	8G/	.	.	.	.	.
.	.	8F/	.	.	.	4gg\	.
.	.	8D/J	.	.	.	.	.
=278	=278	=278	=278	=278	=278	=278	=278
2r	.	1r	.	1G_	.	8ddd\L	.
.	.	.	.	.	.	8eee\	.
.	.	.	.	.	.	8fff\	.
.	.	.	.	.	.	8fff#\J	.
8AA/L	p	.	.	.	.	4ggg\	.
8GG/	.	.	.	.	.	.	.
8FF/	.	.	.	.	.	4ggg\	.
8DD/J	.	.	.	.	.	.	.
=279	=279	=279	=279	=279	=279	=279	=279
8GG/L	.	1r	.	1G_	.	2r	.
8AA/	.	.	.	.	.	.	.
8BB-/	.	.	.	.	.	.	.
8BBn/J	.	.	.	.	.	.	.
4C/	.	.	.	.	.	8ggg\L	.
.	.	.	.	.	.	8fffn\	.
4C/	.	.	.	.	.	8eee\	.
.	.	.	.	.	.	8ccc\J	.
=280	=280	=280	=280	=280	=280	=280	=280
1r	.	8G/L	.	1G]	.	2r	.
.	.	8A/	.	.	.	.	.
.	.	8B-/	.	.	.	.	.
.	.	8Bn/J	.	.	.	.	.
.	.	4c/	.	.	.	8gg\L	.
.	.	.	.	.	.	8ff\	.
.	.	4c/	.	.	.	8ee\	.
.	.	.	.	.	.	8cc\J	.
=281	=281	=281	=281	=281	=281	=281	=281
1r	.	2r	.	[1G [1g	.	8dd\L	.
.	.	.	.	.	.	8ee\	.
.	.	.	.	.	.	8ff\	.
.	.	.	.	.	.	8ff#\J	.
.	.	8A/L	.	.	.	4gg\	.
.	.	8G/	.	.	.	.	.
.	.	8F/	.	.	.	4gg\	.
.	.	8D/J	.	.	.	.	.
=282	=282	=282	=282	=282	=282	=282	=282
2r	.	1r	.	1G_ 1g_	.	8ddd\L	.
.	.	.	.	.	.	8eee\	.
.	.	.	.	.	.	8fff\	.
.	.	.	.	.	.	8fff#\J	.
8AA/L	.	.	.	.	.	4ggg\	.
8GG/	.	.	.	.	.	.	.
8FF/	.	.	.	.	.	4ggg\	.
8DD/J	.	.	.	.	.	.	.
=283	=283	=283	=283	=283	=283	=283	=283
8GG/L	.	1r	.	1G_ 1g_	.	2r	.
8AA/	.	.	.	.	.	.	.
8BB-/	.	.	.	.	.	.	.
8BBn/J	.	.	.	.	.	.	.
4C/	.	.	.	.	.	8ggg\L	.
.	.	.	.	.	.	8fffn\	.
4C/	.	.	.	.	.	8eee\	.
.	.	.	.	.	.	8ccc\J	.
=284	=284	=284	=284	=284	=284	=284	=284
1r	.	8G/L	.	1G] 1g]	.	2r	.
.	.	8A/	.	.	.	.	.
.	.	8B-/	.	.	.	.	.
.	.	8Bn/J	.	.	.	.	.
.	.	4c\	.	.	.	8gg\L	.
.	.	.	.	.	.	8ff\	.
.	.	4c\	.	.	.	8ee\	.
.	.	.	.	.	.	8cc\J	.
=285	=285	=285	=285	=285	=285	=285	=285
2.F\	<	8A\L	.	2.a/	<	[2aa\	<
.	.	8B\	.	.	.	.	.
.	.	8c\	<	.	.	.	.
.	.	8c#\J	.	.	.	.	.
.	.	4d\	.	.	.	8aa\L]	.
.	.	.	.	.	.	8bb\	.
[4f\	.	(4a\	.	[4dd\	.	8ccc\	.
.	.	.	.	.	.	8ddd\J	.
=286	=286	=286	=286	=286	=286	=286	=286
4f\]	.	4b\)	.	4dd\]	.	8ccc\L	.
.	.	.	.	.	.	8bb\	>
(4f\	>	(4b\	>	(4dd\	>	8aa\	.
.	.	.	.	.	.	8gg\J	.
4e\)	.	4g\)	.	4cc\)	.	8ccc\L	.
.	.	.	.	.	.	8gg\	.
4e\	.	4c\	.	4cc\	.	8ee\	.
.	.	.	.	.	.	8cc\J	.
=287	=287	=287	=287	=287	=287	=287	=287
4f\	.	8A/L	.	8a\L	.	[2aa\	.
.	.	8B/	.	8b\	.	.	.
[2.F\	.	8c/	.	8cc\	.	.	.
.	.	8c#/J	.	8cc#\J	.	.	.
.	.	[2d\	.	[2dd\	.	8aa\L]	.
.	.	.	.	.	.	8bb\	.
.	.	.	.	.	.	8ccc\	.
.	.	.	.	.	.	8ddd\J	.
=288	=288	=288	=288	=288	=288	=288	=288
4F\]	.	8d\L]	.	8dd\L]	.	[2bb\	.
.	.	8B\	.	8b\	.	.	.
[2.G\	.	8cn\	.	8ccn\	.	.	.
.	.	8d\J	.	8dd\J	.	.	.
.	.	[2e\	.	[2ee\	.	8bb\L]	.
.	.	.	.	.	.	8ccc\	.
.	.	.	.	.	.	8ddd\	.
.	.	.	.	.	.	8eee\J	.
=289	=289	=289	=289	=289	=289	=289	=289
4G\]	.	8e\L]	.	8ee\L]	.	[2ccc\	.
.	.	8c\	.	8cc\	.	.	.
[2.A\	.	8d\	.	8dd\	.	.	.
.	.	8e\J	.	8ee\J	.	.	.
.	.	[2f\	.	[2ff\	.	8ccc\L]	.
.	.	.	.	.	.	8ddd\	.
.	.	.	.	.	.	8eee\	.
.	.	.	.	.	.	8fff\J	.
=290	=290	=290	=290	=290	=290	=290	=290
4A\]	.	8f\L]	.	8ff\L]	.	[2ddd\	.
.	.	8d\	.	8dd\	.	.	.
2.B\	.	8e\	.	8ee\	.	.	.
.	.	8f\J	.	8ff\J	.	.	.
.	.	4g\	.	2gg\	.	8ddd\L]	.
.	.	.	.	.	.	8eee\	.
.	.	4f\	.	.	.	8fff\	.
.	.	.	.	.	.	8ggg\J	.
=291	=291	=291	=291	=291	=291	=291	=291
4c\	f	4e\	f	4cc\ 4gg\	f	8ggg\L	f
.	.	.	.	.	.	8fff\	.
4r	.	4r	.	4r	.	8eee\	.
.	.	.	.	.	.	8ccc\J	.
4c\	.	4f\	.	4cc\ 4aa\	.	8aaa\L	.
.	.	.	.	.	.	8ggg\	.
4r	.	4r	.	4r	.	8fff\	.
.	.	.	.	.	.	8ddd\J	.
=292	=292	=292	=292	=292	=292	=292	=292
4c\	.	4e\	.	4cc\ 4gg\	.	8ggg\L	.
.	.	.	.	.	.	8fff\	.
4r	.	4r	.	4r	.	8eee\	.
.	.	.	.	.	.	8ccc\J	.
4c\	.	4d\ 4f\	.	4b\	.	8bb\L	.
.	.	.	.	.	.	8gg\	.
4r	.	4r	.	4r	.	8ggg\	.
.	.	.	.	.	.	8ggg\J	.
=293	=293	=293	=293	=293	=293	=293	=293
4c\	.	4e\	.	4g/ 4cc/	.	8gg\L	.
.	.	.	.	.	.	8ff\	.
4r	.	4r	.	4r	.	8ee\	.
.	.	.	.	.	.	8cc\J	.
4C/	.	4c\ 4f\	.	4a/ 4cc/	.	8aa\L	.
.	.	.	.	.	.	8gg\	.
4r	.	4r	.	4r	.	8ff\	.
.	.	.	.	.	.	8dd\J	.
=294	=294	=294	=294	=294	=294	=294	=294
4C/	p	4c\ 4e\	p	4g/ 4cc/	p	8gg\L	p
.	.	.	.	.	.	8ccc\	.
4r	.	4r	.	4r	.	8cc\	.
.	.	.	.	.	.	8cc\J	.
2r	.	2r	.	8g/L	.	[2cc\	.
.	.	.	.	8cc/	.	.	.
.	.	.	.	8c/	.	.	.
.	.	.	.	8c/J	.	.	.
=295	=295	=295	=295	=295	=295	=295	=295
8B-\L	.	8G/L	.	8e/L	.	2cc\]	.
8B-\	.	8G/	.	8e/	.	.	.
8A\	.	8A/	.	8f/	.	.	.
8A\J	.	8A/J	.	8f/J	.	.	.
8E\L	.	8g\L	.	8b-/L	.	[2cc\	.
8E\	.	8g\	.	8b-/	.	.	.
8F\	.	8f\	.	8a/	.	.	.
8F\J	.	8f\J	.	8a/J	.	.	.
=296	=296	=296	=296	=296	=296	=296	=296
8B-\L	.	8G/L	.	8e/L	.	2cc\]	.
8B-\	.	8G/	.	8e/	.	.	.
8A\	.	8A/	.	8f/	.	.	.
8A\J	.	8A/J	.	8f/J	.	.	.
8E\L	.	8g\L	.	8b-/L	.	[2cc\	.
8E\	.	8g\	.	8b-/	.	.	.
8F\	.	8f\	.	8a/	.	.	.
8F\J	.	8f\J	.	8a/J	.	.	.
=297	=297	=297	=297	=297	=297	=297	=297
8G\L	.	8e/L	.	8b-/L	.	(4cc\]	.
8G\	.	8G/	.	8B-/	.	.	.
8E\	.	8G/	.	8B-/	.	4dd-\	.
8E\J	.	8G/J	.	8B-/J	.	.	.
8C\L	.	8G/L	.	8B-/L	.	4cc\)	.
8C\	.	8G/	.	8B-/	.	.	.
8E\	.	8G/	.	8B-/	.	4cc\	.
8E\J	.	8G/J	.	8B-/J	.	.	.
=298	=298	=298	=298	=298	=298	=298	=298
4C/	p	4G/	p	4B-/	p	8gg\L	p
.	.	.	.	.	.	8ccc\	.
4r	.	4r	.	4r	.	8cc\	.
.	.	.	.	.	.	8cc\J	.
2r	.	2r	.	8g/L	.	[2cc\	.
.	.	.	.	8cc/	.	.	.
.	.	.	.	8c/	.	.	.
.	.	.	.	8c/J	.	.	.
=299	=299	=299	=299	=299	=299	=299	=299
8BB-/L	.	8G/L	.	8e/L	.	2cc\]	.
8BB-/	.	8G/	.	8e/	.	.	.
8AA/	.	8F/	.	8f/	.	.	.
8AA/J	.	8F/J	.	8f/J	.	.	.
8EE/L	.	8G/L	.	8b-/L	.	[2cc\	.
8EE/	.	8G/	.	8b-/	.	.	.
8FF/	.	8F/	.	8a/	.	.	.
8FF/J	.	8F/J	.	8a/J	.	.	.
=300	=300	=300	=300	=300	=300	=300	=300
8BB-/L	.	8G/L	.	8e/L	.	2cc\]	.
8BB-/	.	8G/	.	8e/	.	.	.
8AA/	.	8F/	.	8f/	.	.	.
8AA/J	.	8F/J	.	8f/J	.	.	.
8EE/L	.	8G/L	.	8b-/L	.	[2cc\	.
8EE/	.	8G/	.	8b-/	.	.	.
8FF/	.	8F/	.	8a/	.	.	.
8FF/J	.	8F/J	.	8a/J	.	.	.
=301	=301	=301	=301	=301	=301	=301	=301
8EE/L	.	8G/L	.	8b-\L	.	(4cc\]	.
8EE/	.	8G/	.	8b-\	.	.	.
8EE/	.	8G/	.	8b-\	.	4dd-\)	.
8EE/J	.	8G/J	.	8b-\J	.	.	.
8EE/L	.	8G/L	.	8b-\L	.	4dd-'\	.
8EE/	.	8G/	.	8b-\	.	.	.
8EE/	.	8G/	.	8b-\	.	4dd-'\	.
8EE/J	.	8G/J	.	8b-\J	.	.	.
=302	=302	=302	=302	=302	=302	=302	=302
8EE-/L	.	8G/L	.	8b-\L	.	(4dd-\	.
8EE-/	.	8G/	.	8b-\	.	.	.
8EE-/	.	8G/	.	8b-\	.	4gg\	.
8EE-/J	.	8G/J	.	8b-\J	.	.	.
8EE-/L	.	8G/L	.	8b-\L	.	4bb-\	.
8EE-/	.	8G/	.	8b-\	.	.	.
8EE-/	.	8G/	.	8b-\	.	4ddd-\)	.
8EE-/J	.	8G/J	.	8b-\J	.	.	.
=303	=303	=303	=303	=303	=303	=303	=303
8EE-/L	.	8A-/L	.	8cc\L	.	(4ccc\	.
8EE-/	.	8A-/	.	8cc\	.	.	.
8E-/	.	8A-/	.	8cc\	.	4eee-\)	.
8E-/J	.	8A-/J	.	8cc\J	.	.	.
8C/L	.	8A-/L	.	8cc\L	.	4eee-'\	.
8C/	.	8A-/	.	8cc\	.	.	.
8AA-/	.	8A-/	.	8cc\	.	4eee-'\	.
8AA-/J	.	8A-/J	.	8cc\J	.	.	.
=304	=304	=304	=304	=304	=304	=304	=304
4EE-/	ff	4G/	ff	4b-\	ff	2eee-'\	ff
4r	.	4r	.	4r	.	.	.
2r	.	2r	.	2r	.	2ee-'\	.
=305	=305	=305	=305	=305	=305	=305	=305
1r	.	2r	.	2r	.	[1e-	.
.	.	8r	.	8r	.	.	.
.	.	8An/L	p	8ee-\L	p	.	.
.	.	8G/	.	8ff\	.	.	.
.	.	8A/J	.	8ee-\J	.	.	.
=306	=306	=306	=306	=306	=306	=306	=306
1r	.	8B-/L	.	8dd-\L	.	1e-_	.
.	.	8c/J	.	8cc\J	.	.	.
.	.	4d-\	.	4b-\	.	.	.
.	.	8r	.	8r	.	.	.
.	.	8G/L	.	8dd-\L	.	.	.
.	.	8F/	.	8ee-\	.	.	.
.	.	8G/J	.	8dd-\J	.	.	.
=307	=307	=307	=307	=307	=307	=307	=307
2r	.	8A-/L	.	8cc\L	.	1e-_	.
.	.	8B-/J	.	8b-\J	.	.	.
.	.	4c/	.	4a-/	.	.	.
8r	.	8r	.	8r	.	.	.
8e-\L	p	8cc\L	.	8an/L	.	.	.
8f\	.	8b-\	.	8g/	.	.	.
8e-\J	.	8cc\J	.	8a/J	.	.	.
=308	=308	=308	=308	=308	=308	=308	=308
8d-\L	.	8dd-\L	.	8b-\L	.	1e-_	.
8c\J	.	8ee-\J	.	8cc\J	.	.	.
4B-\	.	4ff\	.	4dd-\	.	.	.
8r	.	8r	.	8r	.	.	.
8d-\L	.	8b-\L	.	8g/L	.	.	.
8e-\	.	8a-\	.	8f/	.	.	.
8d-\J	.	8b-\J	.	8g/J	.	.	.
=309	=309	=309	=309	=309	=309	=309	=309
8c\L	.	8cc\L	.	8a-\L	.	2e-/_	.
8B-\J	.	8dd-\J	.	8b-\J	.	.	.
4A-\	.	4ee-\	.	4cc\	.	.	.
2r	.	2r	.	2r	.	8e-\L]	.
.	.	.	.	.	.	8ee-\	.
.	.	.	.	.	.	8ff\	.
.	.	.	.	.	.	8ee-\J	.
=310	=310	=310	=310	=310	=310	=310	=310
2r	.	2r	.	2r	.	8dd-\L	.
.	.	.	.	.	.	8cc\	.
.	.	.	.	.	.	8b-\	.
.	.	.	.	.	.	8dd-\J	.
4E-\	.	4B-/	.	4d-/	.	8gg\L	.
.	.	.	.	.	.	8ff\	.
4r	.	4r	.	4r	.	8ee-\	.
.	.	.	.	.	.	8gg\J	.
=311	=311	=311	=311	=311	=311	=311	=311
4AA-/	.	4A-/	.	4c/	.	8aa-\L	.
.	.	.	.	.	.	8bb-\	.
4r	.	4r	.	4r	.	8ccc\	.
.	.	.	.	.	.	8aa-\J	.
2r	.	8r	.	2r	.	2r	.
.	.	8c\L	.	.	.	.	.
.	.	8d-\	.	.	.	.	.
.	.	8c\J	.	.	.	.	.
=312	=312	=312	=312	=312	=312	=312	=312
2r	.	8B-/L	.	2r	.	2r	.
.	.	8A-/	.	.	.	.	.
.	.	8G/	.	.	.	.	.
.	.	8B-/J	.	.	.	.	.
4C/	.	8en\L	.	4c/ 4g/	.	4b-\	.
.	.	8dn\	.	.	.	.	.
4r	.	8c\	.	4r	.	4r	.
.	.	8e\J	.	.	.	.	.
=313	=313	=313	=313	=313	=313	=313	=313
4FF/	.	8f\L	.	4c/ 4f/	.	4a-/	.
.	.	8g\	.	.	.	.	.
4r	.	8a-\	.	4r	.	4r	.
.	.	8f\J	.	.	.	.	.
4r	.	4r	.	8r	.	4r	.
.	.	.	.	8cc\L	f	.	.
4AA-/	f	4F#/	f	8ddn\	.	4c/	f
.	.	.	.	8cc\J	.	.	.
=314	=314	=314	=314	=314	=314	=314	=314
4GG/	.	4G/	.	8bn/L	.	4Bn/	.
.	.	.	.	8cc/	.	.	.
4r	.	4r	.	8dd/	.	4r	.
.	.	.	.	8f/J	.	.	.
4C/	.	4c\	.	8e-/L	.	4G/ 4e-/	.
.	.	.	.	8f/	.	.	.
4r	.	4r	.	8g/	.	4r	.
.	.	.	.	8c/J	.	.	.
=315	=315	=315	=315	=315	=315	=315	=315
4GG/	.	4G/	.	8B/L	.	4G/ 4d/	.
.	.	.	.	8c/	.	.	.
4r	.	4r	.	8d/	.	4r	.
.	.	.	.	8G/J	.	.	.
2r	.	2r	.	2r	.	8B/L	.
.	.	.	.	.	.	8c/	.
.	.	.	.	.	.	8d/	.
.	.	.	.	.	.	8B/J	.
=316	=316	=316	=316	=316	=316	=316	=316
4GG/	.	2r	.	2r	.	8e-/L	.
.	.	.	.	.	.	8d/	.
4r	.	.	.	.	.	8c/	.
.	.	.	.	.	.	8e-/J	.
2r	.	(2A/	.	(2cc\	.	8f#/L	.
.	.	.	.	.	.	8e-/	.
.	.	.	.	.	.	8d/	.
.	.	.	.	.	.	8f#/J	.
=317	=317	=317	=317	=317	=317	=317	=317
4GG/	.	4B/)	.	4b\)	.	8g/L	.
.	.	.	.	.	.	8a/	.
4r	.	4r	.	4r	.	8b/	.
.	.	.	.	.	.	8g/J	.
2r	.	2r	.	2r	.	8d/L	.
.	.	.	.	.	.	8c/	.
.	.	.	.	.	.	8B/	.
.	.	.	.	.	.	8d/J	.
=318	=318	=318	=318	=318	=318	=318	=318
4GG/	.	2r	.	2r	.	8e-/L	.
.	.	.	.	.	.	8d/	.
4r	.	.	.	.	.	8c/	.
.	.	.	.	.	.	8e-/J	.
2r	.	2A/	.	2cc\	.	8f#/L	.
.	.	.	.	.	.	8e-/	.
.	.	.	.	.	.	8d/	.
.	.	.	.	.	.	8f#/J	.
=319	=319	=319	=319	=319	=319	=319	=319
8GG/L	.	8B/L	.	8b/L	.	8g/L	.
8GG/	f	8B/	f	8d/	.	8b/	.
8GG/	.	8B/	.	8d/	f	8dd/	f
8GG/J	.	8B/J	.	8d/J	.	8b/J	.
8GG/L	.	8B/L	.	8d/L	.	8g/L	.
8GG/	.	8B/	.	8d/	.	8b/	.
8GG/	.	8B/	.	8d/	.	8g/	.
8GG/J	.	8B/J	.	8d/J	.	8d/J	.
=320	=320	=320	=320	=320	=320	=320	=320
8GG/L	.	8B/L	.	8d/L	.	8G/L	.
8GG/	.	8B/	.	8d/ 8f/	.	8dd\	.
8GG/	.	8B/	.	8d/ 8f/	.	8ff\	.
8GG/J	.	8B/J	.	8d/ 8f/J	.	8dd\J	.
8GG/L	.	8B/L	.	8d/ 8f/L	.	8b\L	.
8GG/	.	8B/	.	8d/ 8f/	.	8dd\	.
8GG/	.	8B/	.	8d/ 8f/	.	8b\	.
8GG/J	.	8B/J	.	8d/ 8f/J	.	8f\J	.
=321	=321	=321	=321	=321	=321	=321	=321
8GG/L	.	8B\L	.	8d/ 8f/L	.	8G/L	.
8GG/	.	8d\	.	8f/ 8b/	.	8ff\	.
8GG/	.	8d\	.	8f/ 8b/	.	8bb\	.
8GG/J	.	8d\J	.	8f/ 8b/J	.	8ff\J	.
8GG/L	.	8d\L	.	8f/ 8b/L	.	8dd\L	.
8GG/	.	8d\	.	8f/ 8b/	.	8ff\	.
8AA-/	.	8d\	.	8f/ 8b/	.	8bb\	.
8AA-/J	.	8d\J	.	8f/ 8b/J	.	8ff\J	.
=322	=322	=322	=322	=322	=322	=322	=322
8GG/L	.	8d\L	.	8f/ 8b/L	.	8ff\L	.
8GG/	.	8d\ 8b\	.	8f/ 8dd/	.	8bb\	.
8AA-/	.	8d\ 8b\	.	8f/ 8dd/	.	8ddd\	.
8AA-/J	.	8d\ 8b\J	.	8f/ 8dd/J	.	8bb\J	.
8GG/L	.	8d\ 8b\L	.	8f/ 8dd/L	.	8bb\L	.
8GG/	.	8d\ 8b\	.	8f/ 8dd/	.	8ddd\	.
8AA-/	.	8d\ 8b\	.	8f/ 8dd/	.	8fff\	.
8AA-/J	.	8d\ 8b\J	.	8f/ 8dd/J	.	8ddd\J	.
=323	=323	=323	=323	=323	=323	=323	=323
4GG/	.	4d\ 4b\	.	4f/ 4dd/	.	[1fff	f
4r	.	4r	.	4r	.	.	.
2r	.	2r	.	2r	.	.	.
=324	=324	=324	=324	=324	=324	=324	=324
1r	.	1r	.	1r	.	1fff]	.
=325	=325	=325	=325	=325	=325	=325	=325
4AA/	.	4c\	.	4e-/	.	[1fff#	.
4r	.	4r	.	4r	.	.	.
2r	.	2r	.	2r	.	.	.
=326	=326	=326	=326	=326	=326	=326	=326
1r	.	1r	.	1r	.	1fff#]	.
=327	=327	=327	=327	=327	=327	=327	=327
4BB/	p	4B/	p	4G/ 4d/	p	[1ggg	p
4r	.	4r	.	4r	.	.	.
2r	.	2r	.	2r	.	.	.
=328	=328	=328	=328	=328	=328	=328	=328
1r	.	1r	.	1r	.	1ggg_	.
=329	=329	=329	=329	=329	=329	=329	=329
1r	.	2c'\	p	2r	.	1ggg_	.
.	.	2c#'\	.	4r	.	.	.
.	.	.	.	8aa\L	p	.	.
.	.	.	.	8gg\J	.	.	.
=330	=330	=330	=330	=330	=330	=330	=330
1r	.	2d'\	.	8ff\L	.	1ggg_	.
.	.	.	.	8ee\J	.	.	.
.	.	.	.	4dd\	.	.	.
.	.	2G'/	.	4r	.	.	.
.	.	.	.	8gg\L	.	.	.
.	.	.	.	8ff\J	.	.	.
=331	=331	=331	=331	=331	=331	=331	=331
1r	.	2c'\	.	8ee\L	.	1ggg_	.
.	.	.	.	8dd\J	.	.	.
.	.	.	.	4cc\	.	.	.
.	.	2c#'\	.	4r	.	.	.
.	.	.	.	8aa\L	.	.	.
.	.	.	.	8gg\J	.	.	.
=332	=332	=332	=332	=332	=332	=332	=332
1r	.	2d'\	.	8ff\L	.	1ggg_	.
.	.	.	.	8ee\J	.	.	.
.	.	.	.	4dd\	.	.	.
.	.	2G'/	.	4r	.	.	.
.	.	.	.	8gg\L	.	.	.
.	.	.	.	8ff\J	.	.	.
=333	=333	=333	=333	=333	=333	=333	=333
2c'\	p	2e'\	.	8ee\L	.	2.ggg\]	.
.	.	.	.	8dd\J	.	.	.
.	.	.	.	4cc\	.	.	.
2c#'\	.	2e'\	.	[2gg\	.	.	.
.	.	.	.	.	.	8aaa\L	.
.	.	.	.	.	.	8ggg\J	.
=334	=334	=334	=334	=334	=334	=334	=334
2d'\	.	2f'\	.	1gg_	.	8fff\L	.
.	.	.	.	.	.	8eee\J	.
.	.	.	.	.	.	4ddd\	.
2G'\	.	2d'\	.	.	.	4r	.
.	.	.	.	.	.	8ggg\L	.
.	.	.	.	.	.	8fff\J	.
=335	=335	=335	=335	=335	=335	=335	=335
2c'\	.	2e'\	.	1gg_	.	8eee\L	.
.	.	.	.	.	.	8ddd\J	.
.	.	.	.	.	.	4ccc\	.
2c#'\	.	2e'\	.	.	.	4r	.
.	.	.	.	.	.	8aaa\L	.
.	.	.	.	.	.	8ggg\J	.
=336	=336	=336	=336	=336	=336	=336	=336
2d\	.	2f'\	.	1gg]	.	8fff\L	.
.	.	.	.	.	.	8eee\J	.
.	.	.	.	.	.	4ddd\	.
2G'\	.	2g'\	.	.	.	8r	.
.	.	.	.	.	.	8ggg\L	.
.	.	.	.	.	.	8fff\	.
.	.	.	.	.	.	8ddd\J	.
=337	=337	=337	=337	=337	=337	=337	=337
4c\	.	[1g	.	2ee'\	.	2ccc'\	.
4r	.	.	.	.	.	.	.
4r	.	.	.	2ee'\	.	2ccc#'\	.
8A\L	.	.	.	.	.	.	.
8G\J	.	.	.	.	.	.	.
=338	=338	=338	=338	=338	=338	=338	=338
8F\L	.	1g_	.	2ff'\	.	2ddd'\	.
8E\J	.	.	.	.	.	.	.
4D\	.	.	.	.	.	.	.
4r	.	.	.	2dd'\	.	2bb'\	.
8G\L	.	.	.	.	.	.	.
8F\J	.	.	.	.	.	.	.
=339	=339	=339	=339	=339	=339	=339	=339
8E\L	.	1g_	.	2ee'\	.	2cccn'\	.
8D\J	.	.	.	.	.	.	.
4C/	.	.	.	.	.	.	.
4r	.	.	.	2ee'\	.	2ccc#'\	.
8A\L	.	.	.	.	.	.	.
8G\J	.	.	.	.	.	.	.
=340	=340	=340	=340	=340	=340	=340	=340
8F\L	.	1g]	.	2ff'\	.	2ddd'\	.
8E\J	.	.	.	.	.	.	.
4D\	.	.	.	.	.	.	.
4r	.	.	.	2bb'\	.	2ddd'\	.
8G\L	.	.	.	.	.	.	.
8F\J	.	.	.	.	.	.	.
=341	=341	=341	=341	=341	=341	=341	=341
8E\L	.	[1G	.	2ccc'\	.	2eee'\	.
8D\J	.	.	.	.	.	.	.
4C/	.	.	.	.	.	.	.
4r	.	.	.	2ccc#'\	.	2eee'\	.
8AA/L	.	.	.	.	.	.	.
8GG/J	.	.	.	.	.	.	.
=342	=342	=342	=342	=342	=342	=342	=342
8FF/L	.	1G_	.	2ddd'\	.	2fff'\	.
8EE/J	.	.	.	.	.	.	.
4DD/	.	.	.	.	.	.	.
4r	.	.	.	2bb'\	.	2ddd'\	.
8GG/L	.	.	.	.	.	.	.
8FF/J	.	.	.	.	.	.	.
=343	=343	=343	=343	=343	=343	=343	=343
8EE/L	.	1G_	.	2ccc'\	.	2eee'\	.
8DD/J	.	.	.	.	.	.	.
4CC/	.	.	.	.	.	.	.
4r	.	.	.	2ccc#'\	.	2eee'\	.
8AA/L	.	.	.	.	.	.	.
8GG/J	.	.	.	.	.	.	.
=344	=344	=344	=344	=344	=344	=344	=344
8FF/L	.	1G]	.	2ddd'\	.	2fff'\	.
8EE/J	.	.	.	.	.	.	.
4DD/	.	.	.	.	.	.	.
4r	.	.	.	2bb'\	.	2ddd'\	.
4GG/	.	.	.	.	.	.	.
=345	=345	=345	=345	=345	=345	=345	=345
4EE/	.	4C/	f	4cccn\	f	8ggg\L	f
.	.	.	.	.	.	8ggg\	.
4r	.	4r	.	4r	.	8aaa\	.
.	.	.	.	.	.	8ggg\J	.
2r	.	[2g\	.	[2gg\	.	8fff\L	.
.	.	.	.	.	.	8fff\	.
.	.	.	.	.	.	8ggg\	.
.	.	.	.	.	.	8fff\J	.
=346	=346	=346	=346	=346	=346	=346	=346
4C/	.	2g\]	.	2gg\]	.	8eee\L	.
.	.	.	.	.	.	8eee\	.
4r	.	.	.	.	.	8fff\	.
.	.	.	.	.	.	8eee\J	.
2r	.	[2c\	.	[2cc\	.	8ddd\L	.
.	.	.	.	.	.	8ddd\	.
.	.	.	.	.	.	8eee\	.
.	.	.	.	.	.	8ddd\J	.
=347	=347	=347	=347	=347	=347	=347	=347
4EE/	.	2c\]	.	2cc\]	.	8ccc\L	.
.	.	.	.	.	.	8ccc\	.
4r	.	.	.	.	.	8ddd\	.
.	.	.	.	.	.	8ccc\J	.
2r	.	[2G/	.	[2g/	.	8bb\L	.
.	.	.	.	.	.	8bb\	.
.	.	.	.	.	.	8ccc\	.
.	.	.	.	.	.	8bb\J	.
=348	=348	=348	=348	=348	=348	=348	=348
4EE/	.	2G/]	.	2g/]	.	8aa\L	.
.	.	.	.	.	.	8aa\	.
4r	.	.	.	.	.	8bb\	.
.	.	.	.	.	.	8aa\J	.
2r	.	[2C/	.	[2c/	.	8gg#\L	.
.	.	.	.	.	.	8gg#\	.
.	.	.	.	.	.	8aa\	.
.	.	.	.	.	.	8gg#\J	.
=349	=349	=349	=349	=349	=349	=349	=349
4FF/	.	2C/]	.	2c/]	.	8aa\L	.
.	.	.	.	.	.	8aa\	.
4r	.	.	.	.	.	8bb\	.
.	.	.	.	.	.	8aa\J	.
2r	.	[2A/	.	[2a/	.	8gg#\L	.
.	.	.	.	.	.	8gg#\	.
.	.	.	.	.	.	8aa\	.
.	.	.	.	.	.	8gg#\J	.
=350	=350	=350	=350	=350	=350	=350	=350
4FF/	.	2A/]	.	2a/]	.	8aa\L	.
.	.	.	.	.	.	8aa\	.
4r	.	.	.	.	.	8bb\	.
.	.	.	.	.	.	8aa\J	.
2r	.	[2c/	.	[2d/	.	8dd\L	.
.	.	.	.	.	.	8dd\	.
.	.	.	.	.	.	8ee\	.
.	.	.	.	.	.	8dd\J	.
=351	=351	=351	=351	=351	=351	=351	=351
4GG/	.	2c/]	.	2d/]	.	8gg\L	.
.	.	.	.	.	.	8gg\	.
4r	.	.	.	.	.	8aa\	.
.	.	.	.	.	.	8gg\J	.
2r	.	[2c/	.	2e/	.	8cc\L	.
.	.	.	.	.	.	8cc\	.
.	.	.	.	.	.	8dd\	.
.	.	.	.	.	.	8cc\J	.
=352	=352	=352	=352	=352	=352	=352	=352
4GG/	.	2c\]	.	1f	.	8dd\L	.
.	.	.	.	.	.	8dd\	.
4r	.	.	.	.	.	8ee\	.
.	.	.	.	.	.	8dd\J	.
2r	.	2B/	.	.	.	8g/L	.
.	.	.	.	.	.	8g/	.
.	.	.	.	.	.	8a/	.
.	.	.	.	.	.	8g/J	.
=353	=353	=353	=353	=353	=353	=353	=353
4EE/	p	8g\L	p	1r	.	8gg\L	p
.	.	8g\	.	.	.	8gg\	.
4r	.	8a\	.	.	.	8aa\	.
.	.	8g\J	.	.	.	8gg\J	.
2r	.	8f\L	.	.	.	8ff\L	.
.	.	8f\	.	.	.	8ff\	.
.	.	8g\	.	.	.	8gg\	.
.	.	8f\J	.	.	.	8ff\J	.
=354	=354	=354	=354	=354	=354	=354	=354
4CC/	.	8e\L	.	(2gg\	p	8ee\L	.
.	.	8e\	.	.	.	8ee\	.
4r	.	8f\	.	.	.	8ff\	.
.	.	8e\J	.	.	.	8ee\J	.
2r	.	8d\L	.	2ff\	.	8dd\L	.
.	.	8d\	.	.	.	8dd\	.
.	.	8e\	.	.	.	8ee\	.
.	.	8d\J	.	.	.	8dd\J	.
=355	=355	=355	=355	=355	=355	=355	=355
4CC/	.	8c\L	.	2ee\	.	8cc\L	.
.	.	8c\	.	.	.	8cc\	.
4r	.	8d\	.	.	.	8dd\	.
.	.	8c\J	.	.	.	8cc\J	.
2r	.	8B/L	.	2dd\	.	8b\L	.
.	.	8B/	.	.	.	8b\	.
.	.	8c/	.	.	.	8cc\	.
.	.	8B/J	.	.	.	8b\J	.
=356	=356	=356	=356	=356	=356	=356	=356
4EE/	.	8A/L	.	2cc\	.	8a/L	.
.	.	8A/	.	.	.	8a/	.
4r	.	8B/	.	.	.	8b/	.
.	.	8A/J	.	.	.	8a/J	.
2r	.	8G#/L	.	2b\)	.	8g#/L	.
.	.	8G#/	.	.	.	8g#/	.
.	.	8A/	.	.	.	8a/	.
.	.	8G#/J	.	.	.	8g#/J	.
=357	=357	=357	=357	=357	=357	=357	=357
4FF/	.	8A/L	.	2a/	.	8a/L	.
.	.	8A/	.	.	.	8a/	.
4r	.	8B/	.	.	.	8b/	.
.	.	8A/J	.	.	.	8a/J	.
2r	.	8G#/L	.	[2dd\	.	8g#/L	.
.	.	8G#/	.	.	.	8g#/	.
.	.	8A/	.	.	.	8a/	.
.	.	8G#/J	.	.	.	8g#/J	.
=358	=358	=358	=358	=358	=358	=358	=358
4FF/	.	8A/L	.	2dd\]	.	8a/L	.
.	.	8A/	.	.	.	8a/	.
4r	.	8B/	.	.	.	8b/	.
.	.	8A/J	.	.	.	8a/J	.
2r	.	8D/L	.	(2ff\	.	8d/L	.
.	.	8D/	.	.	.	8d/	.
.	.	8E/	.	.	.	8e/	.
.	.	8D/J	.	.	.	8d/J	.
=359	=359	=359	=359	=359	=359	=359	=359
4GG/	.	8Gn/L	.	2ee\	.	8gn/L	.
.	.	8G/	.	.	.	8g/	.
4r	.	8A/	.	.	.	8a/	.
.	.	8G/J	.	.	.	8g/J	.
2r	.	8C/L	.	2gg\	.	8c/L	.
.	.	8C/	.	.	.	8c/	.
.	.	8D/	.	.	.	8d/	.
.	.	8C/J	.	.	.	8c/J	.
=360	=360	=360	=360	=360	=360	=360	=360
4GG/	.	8D/L	.	2ff\	.	8d/L	.
.	.	8D/	.	.	.	8d/	.
4r	.	8E/	.	.	.	8e/	.
.	.	8D/J	.	.	.	8d/J	.
2r	.	8F/L	.	2dd\)	.	8G/L	.
.	.	8F/	.	.	.	8G/	.
.	.	8F/	.	.	.	8A/	.
.	.	8F/J	.	.	.	8G/J	.
=361	=361	=361	=361	=361	=361	=361	=361
4C/	.	4E/	.	4ee\	.	8c/L	.
.	.	.	.	.	.	8c/	.
4r	.	4r	.	4r	.	8d/	.
.	.	.	.	.	.	8c/J	.
2r	.	2r	.	(2ee\	>	[8B-/L	.
.	.	.	.	.	.	8B-/]	.
.	.	.	.	.	.	8c/	.
.	.	.	.	.	.	8B-/J	.
=362	=362	=362	=362	=362	=362	=362	=362
4C/	.	2r	.	4ff\)	.	8A/L	.
.	.	.	.	.	.	8A/	.
4r	.	.	.	4r	.	8G/	.
.	.	.	.	.	.	8A/J	.
2r	.	(2d\	.	(2ff\	>	8Bn/L	.
.	.	.	.	.	.	8B/	.
.	.	.	.	.	.	8A/	.
.	.	.	.	.	.	8B/J	.
=363	=363	=363	=363	=363	=363	=363	=363
4C/	.	4G/)	.	4ee\)	.	8c/L	.
.	.	.	.	.	.	8c/	.
4r	.	4r	.	4r	.	8d/	.
.	.	.	.	.	.	8c/J	.
2r	.	2r	.	(2ee\	>	8B-/L	.
.	.	.	.	.	.	8B-/	.
.	.	.	.	.	.	8c/	.
.	.	.	.	.	.	8B-/J	.
=364	=364	=364	=364	=364	=364	=364	=364
4C/	.	2r	.	4ff\)	.	8A/L	.
.	.	.	.	.	.	8A/	.
4r	.	.	.	4r	.	8G/	.
.	.	.	.	.	.	8A/J	.
2r	.	(2d\	.	(2ff\	>	8Bn/L	.
.	.	.	.	.	.	8B/	.
.	.	.	.	.	.	8A/	.
.	.	.	.	.	.	8B/J	.
=365	=365	=365	=365	=365	=365	=365	=365
4C/	.	4G/)	.	4ee\)	.	8c/L	.
.	.	.	.	.	.	8c/	.
4r	.	4r	.	4r	.	8d/	.
.	.	.	.	.	.	8c/J	.
2r	.	2r	.	[2gg\	.	8B-/L	.
.	.	.	.	.	.	8B-/	.
.	.	.	.	.	.	8c/	.
.	.	.	.	.	.	8B-/J	.
=366	=366	=366	=366	=366	=366	=366	=366
4AA/	.	2r	.	(2gg\]	.	8A/L	.
.	.	.	.	.	.	8A/	.
4r	.	.	.	.	.	8B-/	.
.	.	.	.	.	.	8A/J	.
2r	.	[2a\	.	2ee\	.	8c#/L	.
.	.	.	.	.	.	8c#/	.
.	.	.	.	.	.	8d/	.
.	.	.	.	.	.	8c#/J	.
=367	=367	=367	=367	=367	=367	=367	=367
4D\	.	4a\]	.	4ff\)	.	8d/L	.
.	.	.	.	.	.	8d/	.
4r	.	4r	.	4r	.	8e/	.
.	.	.	.	.	.	8d/J	.
2r	.	2r	.	[2ff\	.	8A-/L	.
.	.	.	.	.	.	8A-/	.
.	.	.	.	.	.	8B-/	.
.	.	.	.	.	.	8A-/J	.
=368	=368	=368	=368	=368	=368	=368	=368
4GG/	.	2r	.	(2ff\]	.	8G/L	.
.	.	.	.	.	.	8G/	.
4r	.	.	.	.	.	8A-/	.
.	.	.	.	.	.	8G/J	.
2r	.	[2g\	.	2dd\	.	8Bn/L	.
.	.	.	.	.	.	8B/	.
.	.	.	.	.	.	8c/	.
.	.	.	.	.	.	8B/J	.
=369	=369	=369	=369	=369	=369	=369	=369
4C/	.	4g\]	.	4ee\)	.	8c/L	.
.	.	.	.	.	.	8c/	.
4r	.	4r	.	4r	.	8d/	.
.	.	.	.	.	.	8c/J	.
2r	.	[2e\	.	[2gg\	.	8B-/L	.
.	.	.	.	.	.	8B-/	.
.	.	.	.	.	.	8c/	.
.	.	.	.	.	.	8B-/J	.
=370	=370	=370	=370	=370	=370	=370	=370
4AA/	.	2e\]	.	(2gg\]	.	8A/L	.
.	.	.	.	.	.	8A/	.
4r	.	.	.	.	.	8B-/	.
.	.	.	.	.	.	8A/J	.
2r	.	[2A/	.	2ee\	.	8c/L	.
.	.	.	.	.	.	8c/	.
.	.	.	.	.	.	8d/	.
.	.	.	.	.	.	8c/J	.
=371	=371	=371	=371	=371	=371	=371	=371
4D\	.	4A/]	.	4ff\)	.	8d/L	.
.	.	.	.	.	.	8d/	.
4r	.	4r	.	4r	.	8e/	.
.	.	.	.	.	.	8d/J	.
2r	.	[2d\	.	[2ff\	.	8A-/L	.
.	.	.	.	.	.	8A-/	.
.	.	.	.	.	.	8B-/	.
.	.	.	.	.	.	8A-/J	.
=372	=372	=372	=372	=372	=372	=372	=372
4GG/	.	2d\]	.	(2ff\]	.	8G/L	.
.	.	.	.	.	.	8G/	.
4r	.	.	.	.	.	8A-/	.
.	.	.	.	.	.	8G/J	.
2r	.	[2G/	.	2dd\)	.	8Bn/L	.
.	.	.	.	.	.	8B/	.
.	.	.	.	.	.	8c/	.
.	.	.	.	.	.	8B/J	.
=373	=373	=373	=373	=373	=373	=373	=373
4C/	.	4G/]	.	[1ee	.	8c/L	.
.	.	.	.	.	.	8c/	.
4r	.	4r	.	.	.	8B/	.
.	.	.	.	.	.	8c/J	.
2r	.	2r	.	.	.	8d/L	.
.	.	.	.	.	.	8d/	.
.	.	.	.	.	.	8c/	.
.	.	.	.	.	.	8d/J	.
=374	=374	=374	=374	=374	=374	=374	=374
1r	.	1r	.	1ee]	.	8e/L	.
.	.	.	.	.	.	8e/	.
.	.	.	.	.	.	8d/	.
.	.	.	.	.	.	8e/J	.
.	.	.	.	.	.	8f/L	.
.	.	.	.	.	.	8f/	.
.	.	.	.	.	.	8e/	.
.	.	.	.	.	.	8f/J	.
=375	=375	=375	=375	=375	=375	=375	=375
[1G	.	[1G [1f	.	[1dd	.	8g/L	.
.	.	.	.	.	.	8g/	.
.	.	.	.	.	.	8f/	.
.	.	.	.	.	.	8g/J	.
.	.	.	.	.	.	8a/L	.
.	.	.	.	.	.	8a/	.
.	.	.	.	.	.	8g/	.
.	.	.	.	.	.	8a/J	.
=376	=376	=376	=376	=376	=376	=376	=376
1G]	.	1G] 1f]	.	1dd]	.	8b-\L	.
.	.	.	.	.	.	8b-\	.
.	.	.	.	.	.	8a\	.
.	.	.	.	.	.	8b-\J	.
.	.	.	.	.	.	8bn\L	.
.	.	.	.	.	.	8b\	.
.	.	.	.	.	.	8a\	.
.	.	.	.	.	.	8b\J	.
=377	=377	=377	=377	=377	=377	=377	=377
4c\	.	4G/ 4e/	.	1cc	.	8cc\L	.
.	.	.	.	.	.	8cc\	.
4r	.	4r	.	.	.	8b\	.
.	.	.	.	.	.	8cc\J	.
2r	.	2r	.	.	.	8dd\L	.
.	.	.	.	.	.	8dd\	.
.	.	.	.	.	.	8cc\	.
.	.	.	.	.	.	8dd\J	.
=378	=378	=378	=378	=378	=378	=378	=378
1r	.	1r	.	1g	.	8ee\L	.
.	.	.	.	.	.	8ee\	.
.	.	.	.	.	.	8dd\	.
.	.	.	.	.	.	8ee\J	.
.	.	.	.	.	.	8ff\L	.
.	.	.	.	.	.	8ff\	.
.	.	.	.	.	.	8ee\	.
.	.	.	.	.	.	8ff\J	.
=379	=379	=379	=379	=379	=379	=379	=379
[1GG	.	[1D	.	[1G [1f	.	8gg\L	.
.	.	.	.	.	.	8gg\	.
.	.	.	.	.	.	8ff\	.
.	.	.	.	.	.	8gg\J	.
.	.	.	.	.	.	8aa\L	.
.	.	.	.	.	.	8aa\	.
.	.	.	.	.	.	8gg\	.
.	.	.	.	.	.	8aa\J	.
=380	=380	=380	=380	=380	=380	=380	=380
1GG]	.	1D]	.	1G] 1f]	.	8bb-\L	.
.	.	.	.	.	.	8bb-\	.
.	.	.	.	.	.	8aa\	.
.	.	.	.	.	.	8bb-\J	.
.	.	.	.	.	.	8bbn\L	.
.	.	.	.	.	.	8bb\	.
.	.	.	.	.	.	8aa\	.
.	.	.	.	.	.	8bb\J	.
=381	=381	=381	=381	=381	=381	=381	=381
4C/	ff	4C/	ff	8G/ 8e/L	ff	8ccc\L	ff
.	.	.	.	8cc/	.	8ccc\	.
4r	.	4r	.	8b/	.	8bb\	.
.	.	.	.	8cc/J	.	8ccc\J	.
8C/L	.	8c/L	.	8cc\L	.	8ccc\L	.
8C/	.	8c/	.	8cc\	.	8ccc\	.
8D/	.	8d/	.	8b\	.	8bb\	.
8C/J	.	8c/J	.	8cc\J	.	8ccc\J	.
=382	=382	=382	=382	=382	=382	=382	=382
8BB/L	.	8B/L	.	8dd\L	.	8ddd\L	.
8BB/	.	8B/	.	8dd\	.	8ddd\	.
8C/	.	8c/	.	8cc\	.	8ccc\	.
8BB/J	.	8B/J	.	8dd\J	.	(8ddd\J	.
8AA/L	.	8A/L	.	8ee\L	.	8eee\L	.
8AA/	.	8A/	.	8ee\	.	8eee\)	.
8BB/	.	8B/	.	8dd\	.	8ddd\	.
8AA/J	.	8A/J	.	8ee\J	.	8eee\J	.
=383	=383	=383	=383	=383	=383	=383	=383
8GG/L	.	8G/L	.	8ff\L	.	8fff\L	.
8GG/	.	8G/	.	8ff\	.	8fff\	.
8AA/	.	8A/	.	8ee\	.	8eee\	.
8GG/J	.	8G/J	.	8ff\J	.	8fff\J	.
8FF/L	.	8F/L	.	8gg\L	.	8ggg\L	.
8FF/	.	8F/	.	8gg\	.	8ggg\	.
8GG/	.	8G/	.	8ff\	.	8fff\	.
8FF/J	.	8F/J	.	8gg\J	.	8ggg\J	.
=384	=384	=384	=384	=384	=384	=384	=384
8EE/L	.	8E/L	.	8aa\L	.	8aaa\L	.
8EE/	.	8E/	.	8aa\	.	8aaa\	.
8FF/	.	8F/	.	8gg\	.	8ggg\	.
8EE/J	.	8E/J	.	8aa\J	.	8aaa\J	.
8DD/L	.	8D/L	.	8bb\L	.	8bbb\L	.
8DD/	.	8D/	.	8bb\	.	8bbb\	.
8EE/	.	8E/	.	8aa\	.	8aaa\	.
8DD/J	.	8D/J	.	8bb\J	.	8bbb\J	.
=385	=385	=385	=385	=385	=385	=385	=385
4CC/	.	4C/	.	4ccc\	.	4cccc\	.
4r	.	4r	.	4r	.	4r	.
2r	.	2r	.	2r	.	2r	.
=386	=386	=386	=386	=386	=386	=386	=386
4BB-/	ff	4B-/	ff	4B-/	ff	4B-/	ff
4r	.	4r	.	4r	.	4r	.
2r	.	2r	.	2r	.	2r	.
=387	=387	=387	=387	=387	=387	=387	=387
2.AA;/	.	2.A;/	.	2.A;/	.	2.A;/	.
(8AA/L	ff	(8A/L	ff	(8a/L	ff	(8aa\L	ff
8GG/J	.	8G/J	.	8g/J	.	8gg\J	.
=388	=388	=388	=388	=388	=388	=388	=388
8FF/L	.	8F/L	.	8f/L	.	8ff\L	.
8EE/J	.	8E/J	.	8e/J	.	8ee\J	.
4DD'/)	.	4D'/)	.	4d'/)	.	4dd'\)	.
2r	.	2r	.	2r	.	2r	.
=389	=389	=389	=389	=389	=389	=389	=389
1r	.	1r	.	1r	.	1f	p
=390	=390	=390	=390	=390	=390	=390	=390
1r	.	1r	.	1r	.	1f#	.
=391	=391	=391	=391	=391	=391	=391	=391
1r	.	1r	.	(1g	p	8g/L	.
.	.	.	.	.	.	8g/	.
.	.	.	.	.	.	8a/	.
.	.	.	.	.	.	8g/J	.
.	.	.	.	.	.	8fn/L	.
.	.	.	.	.	.	8f/	.
.	.	.	.	.	.	8g/	.
.	.	.	.	.	.	8f/J	.
=392	=392	=392	=392	=392	=392	=392	=392
1r	.	1r	.	1b	.	8e/L	.
.	.	.	.	.	.	8e/	.
.	.	.	.	.	.	8f/	.
.	.	.	.	.	.	8e/J	.
.	.	.	.	.	.	8d/L	.
.	.	.	.	.	.	8d/	.
.	.	.	.	.	.	8e/	.
.	.	.	.	.	.	8d/J	.
=393	=393	=393	=393	=393	=393	=393	=393
1r	.	1r	.	1dd	.	8c/L	.
.	.	.	.	.	.	8c/	.
.	.	.	.	.	.	8d/	.
.	.	.	.	.	.	8c/J	.
.	.	.	.	.	.	8B/L	.
.	.	.	.	.	.	8B/	.
.	.	.	.	.	.	8c/	.
.	.	.	.	.	.	8B/J	.
=394	=394	=394	=394	=394	=394	=394	=394
2r	.	2r	.	1dd#)	.	8A/L	.
.	.	.	.	.	.	8A/	.
.	.	.	.	.	.	8B/	.
.	.	.	.	.	.	8A/J	.
(2GG/	p	(4B/	p	.	.	8G/L	.
.	.	.	.	.	.	8G/	.
.	.	[4g\)	.	.	.	8A/	.
.	.	.	.	.	.	8G/J	.
=395	=395	=395	=395	=395	=395	=395	=395
4CC/)	.	4g\]	.	4ee\	.	8c/L	.
.	.	.	.	.	.	8c/	.
4r	.	4r	.	4r	.	8d/	.
.	.	.	.	.	.	8c/J	.
2r	.	8g\L	.	(2ee\	.	8B-/L	.
.	.	8g\	.	.	.	8B-/	.
.	.	8a\	.	.	.	8c/	.
.	.	8g\J	.	.	.	8B-/J	.
=396	=396	=396	=396	=396	=396	=396	=396
4C/	.	4f\	.	4ff\)	.	8A/L	.
.	.	.	.	.	.	8A/	.
4r	.	4r	.	4r	.	8G/	.
.	.	.	.	.	.	8A/J	.
2r	.	8d\L	.	(2ff\	.	8Bn/L	.
.	.	8d\	.	.	.	8B/	.
.	.	8c\	.	.	.	8A/	.
.	.	8d\J	.	.	.	8B/J	.
=397	=397	=397	=397	=397	=397	=397	=397
4C/	.	4e\	.	4ee\)	.	8c/L	.
.	.	.	.	.	.	8c/	.
4r	.	4r	.	4r	.	8d/	.
.	.	.	.	.	.	8c/J	.
2r	.	8g\L	.	[2cc\ (2ee\	.	8B-/L	.
.	.	8g\	.	.	.	8B-/	.
.	.	8a\	.	.	.	8c/	.
.	.	8g\J	.	.	.	8B-/J	.
=398	=398	=398	=398	=398	=398	=398	=398
4C/	.	4f\	.	4cc\] 4ff\)	.	8A/L	.
.	.	.	.	.	.	8A/	.
4r	.	4r	.	4r	.	8G/	.
.	.	.	.	.	.	8A/J	.
2r	.	8d\L	.	2dd\ (2ff\	.	8Bn/L	.
.	.	8d\	.	.	.	8B/	.
.	.	8c\	.	.	.	8A/	.
.	.	8d\J	.	.	.	8B/J	.
=399	=399	=399	=399	=399	=399	=399	=399
4C/	.	4G/	.	4ee\)	.	8c/L	.
.	.	.	.	.	.	8c/	.
4r	.	4r	.	4r	.	8d/	.
.	.	.	.	.	.	8c/J	.
2r	.	8d\L	.	[2gg\	.	8B-/L	.
.	.	8d\	.	.	.	8B-/	.
.	.	8e\	.	.	.	8c/	.
.	.	8d\J	.	.	.	8B-/J	.
=400	=400	=400	=400	=400	=400	=400	=400
4AA/	.	4c#\	.	(2gg\]	.	8A/L	.
.	.	.	.	.	.	8A/	.
4r	.	4r	.	.	.	8B-/	.
.	.	.	.	.	.	8A/J	.
2r	.	[2a\	.	(2ee\)	.	8c#/L	.
.	.	.	.	.	.	8c#/	.
.	.	.	.	.	.	8d/	.
.	.	.	.	.	.	8c#/J	.
=401	=401	=401	=401	=401	=401	=401	=401
4D\	.	4a\]	.	4ff\)	.	8d/L	.
.	.	.	.	.	.	8d/	.
4r	.	4r	.	4r	.	8e/	.
.	.	.	.	.	.	8d/J	.
2r	.	8cn\L	.	[2ff\	.	8A-/L	.
.	.	8c\	.	.	.	8A-/	.
.	.	8d\	.	.	.	8B-/	.
.	.	8c\J	.	.	.	8A-/J	.
=402	=402	=402	=402	=402	=402	=402	=402
4GG/	.	4B/	.	(2ff\]	.	8G/L	.
.	.	.	.	.	.	8G/	.
4r	.	4r	.	.	.	8A-/	.
.	.	.	.	.	.	8G/J	.
2r	.	[2g\	.	(2dd\)	.	8Bn/L	.
.	.	.	.	.	.	8B/	.
.	.	.	.	.	.	8c/	.
.	.	.	.	.	.	8B/J	.
=403	=403	=403	=403	=403	=403	=403	=403
4C/	.	4g\]	.	4ee\)	.	8c/L	.
.	.	.	.	.	.	8c/	.
4C/	.	4r	.	2gg\	.	8d/	.
.	.	.	.	.	.	8c/J	.
4r	.	8d\L	.	.	.	8B-/L	.
.	.	8d\	.	.	.	8B-/	.
4C/	.	8e\	.	[4gg\	.	8c/	.
.	.	8d\J	.	.	.	8B-/J	.
=404	=404	=404	=404	=404	=404	=404	=404
4AA/	.	4c#\	.	4gg\]	.	8A/L	.
.	.	.	.	.	.	8A/	.
4AA/	.	4r	.	4ee\	.	8B-/	.
.	.	.	.	.	.	8A/J	.
4r	.	8a\L	.	(4.ee\	.	8c#/L	.
.	.	8a\	.	.	.	8c#/	.
4AA/	.	8a\	.	.	.	8d/	.
.	.	8a\J	.	16dd\LL	.	8c#/J	.
.	.	.	.	16ee\JJ)	.	.	.
=405	=405	=405	=405	=405	=405	=405	=405
4D\	.	4a\	.	4ff\	.	8d/L	.
.	.	.	.	.	.	8d/	.
4D\	.	4r	.	2ff\	.	8e/	.
.	.	.	.	.	.	8d/J	.
4r	.	8cn\L	.	.	.	8A-/L	.
.	.	8c\	.	.	.	8A-/	.
4D\	.	8d\	.	[4ff\	.	8B-/	.
.	.	8c\J	.	.	.	8A-/J	.
=406	=406	=406	=406	=406	=406	=406	=406
4GG/	.	4B/	.	4ff\]	.	8G/L	.
.	.	.	.	.	.	8G/	.
4GG/	.	4r	.	4dd\	.	8A-/	.
.	.	.	.	.	.	8G/J	.
4r	.	8g\L	.	2dd\	.	8Bn/L	.
.	.	8g\	.	.	.	8B/	.
4GG/	.	8g\	.	.	.	8c/	.
.	.	8g\J	.	.	.	8B/J	.
=407	=407	=407	=407	=407	=407	=407	=407
.	.	.	.	ccq/LL	.	.	.
.	.	.	.	ddq/JJ	.	.	.
8C/L	.	8e\L	.	8ee'\L	.	8c/L	.
8C/	.	8e\	.	(8gg\	.	8c/	.
8D/	.	8f\	.	8ff#\	.	8d/	.
8C/J	.	8e\J	.	8gg\J	.	8c/J	.
8BB-/L	.	8d\L	.	8aa\L	.	8B-/L	.
8BB-/	.	8d\	.	8gg\	.	8B-/	.
8C/	.	8e\	.	8ff#\	.	8c/	.
8BB-/J	.	8d\J	.	8gg\J)	.	8B-/J	.
=408	=408	=408	=408	=408	=408	=408	=408
8AA/L	.	8c#\L	.	8r	.	8A/L	.
8AA/	.	8c#\	.	8ee\L	.	8A/	.
8BB-/	.	8d\	.	8dd\	.	8B-/	.
8AA/J	.	8c#\J	.	8ee\J	.	8A/J	.
8C#/L	.	8e\L	.	8ffn\L	.	8c#/L	.
8C#/	.	8e\	.	8ee\	.	8c#/	.
8D/	.	8f\	.	8dd\	.	8d/	.
8C#/J	.	8e\J	.	8ee\J	.	8c#/J	.
=409	=409	=409	=409	=409	=409	=409	=409
8D/L	.	8f\L	.	8r	.	8d/L	.
8D/	.	8f\	.	(8ff\L	.	8d/	.
8E/	.	8g\	.	8ee\	.	8e/	.
8D/J	.	8f\J	.	8ff\J	.	8d/J	.
8AA-/L	.	8cn\L	.	8gg\L	.	8A-/L	.
8AA-/	.	8c\	.	8ff\	.	8A-/	.
8BB-/	.	8d\	.	8ee\	.	8B-/	.
8AA-/J	.	8c\J	.	8ff\J)	.	8A-/J	.
=410	=410	=410	=410	=410	=410	=410	=410
8GG/L	.	8B\L	.	8r	.	8G/L	.
8GG/	.	8B\	.	(8dd\L	.	8G/	.
8AA-/	.	8c\	.	8cc\	.	8A-/	.
8GG/J	.	8B\J	.	8dd\J	.	8G/J	.
8GG/L	.	8f\L	.	8ee\L	.	8Bn/L	.
8GG/	.	8f\	.	8dd\	.	8B/	.
8GG/	.	8e\	.	8cc\	.	8c/	.
8GG/J	.	8f\J	.	8dd\J)	.	8B/J	.
=411	=411	=411	=411	=411	=411	=411	=411
8GG/L	f	8e\L	f	8cc\L	f	8c/L	f
8GG/	.	8c\	.	8ee\	.	8c/	.
8GG/	.	8c\	.	8ee\	.	8B/	.
8GG/J	.	8c\J	.	8ee\J	.	8c/J	.
8GG/L	.	8c\L	.	8ee\L	.	8d/L	.
8GG/	.	8c\	.	8ee\	.	8d/	.
8GG/	.	8c\	.	8ee\	.	8c/	.
8GG/J	.	8c\J	.	8ee\J	.	8d/J	.
=412	=412	=412	=412	=412	=412	=412	=412
8GG/L	.	8c\L	.	8ee\L	.	8e/L	.
8GG/	.	8c\	.	8ee\	.	8e/	.
8GG/	.	8c\	.	8ee\	.	8d/	.
8GG/J	.	8c\J	.	8ee\J	.	8e/J	.
8GG/L	.	8c\L	.	8ee\L	.	8f/L	.
8GG/	.	8c\	.	8ee\	.	8f/	.
8GG/	.	8c\	.	8ee\	.	8e/	.
8GG/J	.	8c\J	.	8ee\J	.	8f/J	.
=413	=413	=413	=413	=413	=413	=413	=413
8GG/L	.	8d\L	.	8ff\L	.	8g/L	.
8GG/	.	8d\	.	8ff\	.	8g/	.
8GG/	.	8d\	.	8ff\	.	8f/	.
8GG/J	.	8d\J	.	8ff\J	.	8g/J	.
8GG/L	.	8d\L	.	8ff\L	.	8a/L	.
8GG/	.	8d\	.	8ff\	.	8a/	.
8GG/	.	8d\	.	8ff\	.	8g/	.
8GG/J	.	8d\J	.	8ff\J	.	8a/J	.
=414	=414	=414	=414	=414	=414	=414	=414
8GG/L	.	8d\L	.	8ff\L	.	8b-\L	.
8GG/	.	8d\	.	8ff\	.	8b-\	.
8GG/	.	8d\	.	8ff\	.	8a\	.
8GG/J	.	8d\J	.	8ff\J	.	8b-\J	.
8GG/L	.	8d\L	.	8ff\L	.	8bn\L	.
8GG/	.	8d\	.	8ff\	.	8b\	.
8GG/	.	8d\	.	8ff\	.	8a\	.
8GG/J	.	8d\J	.	8ff\J	.	8b\J	.
=415	=415	=415	=415	=415	=415	=415	=415
8GG/L	.	8c/L	.	8ee/L	.	8cc\L	.
8GG/	f	8C/	f	8e/	f	8cc\	.
8GG/	.	8C/	.	8e/	.	8b\	f
8GG/J	.	8C/J	.	8e/J	.	8cc\J	.
8GG/L	.	8C/L	.	8e/L	.	8dd\L	.
8GG/	.	8C/	.	8e/	.	8dd\	.
8GG/	.	8C/	.	8e/	.	8cc\	.
8GG/J	.	8C/J	.	8e/J	.	8dd\J	.
=416	=416	=416	=416	=416	=416	=416	=416
8GG/L	.	8C/L	.	8e/L	.	8ee\L	.
8GG/	.	8C/	.	8e/	.	8ee\	.
8GG/	.	8C/	.	8e/	.	8dd\	.
8GG/J	.	8C/J	.	8e/J	.	8ee\J	.
8GG/L	.	8C/L	.	8e/L	.	8ff\L	.
8GG/	.	8C/	.	8e/	.	8ff\	.
8GG/	.	8C/	.	8e/	.	8ee\	.
8GG/J	.	8C/J	.	8e/J	.	8ff\J	.
=417	=417	=417	=417	=417	=417	=417	=417
8GG/L	.	8D/L	.	8f/L	.	8gg\L	.
8GG/	.	8D/	.	8f/	.	8gg\	.
8GG/	.	8D/	.	8f/	.	8ff\	.
8GG/J	.	8D/J	.	8f/J	.	8gg\J	.
8GG/L	.	8D/L	.	8f/L	.	8aa\L	.
8GG/	.	8D/	.	8f/	.	8aa\	.
8GG/	.	8D/	.	8f/	.	8gg\	.
8GG/J	.	8D/J	.	8f/J	.	8aa\J	.
=418	=418	=418	=418	=418	=418	=418	=418
8GG/L	.	8D/L	.	8f/L	.	8bb-\L	.
8GG/	.	8D/	.	8f/	.	8bb-\	.
8GG/	.	8D/	.	8f/	.	8aa\	.
8GG/J	.	8D/J	.	8f/J	.	8bb-\J	.
8GG/L	.	8D/L	.	8f/L	.	8bbn\L	.
8GG/	.	8D/	.	8f/	.	8bb\	.
8GG/	.	8D/	.	8f/	.	8aa\	.
8GG/J	.	8D/J	.	8f/J	.	8bb\J	.
=419	=419	=419	=419	=419	=419	=419	=419
8C/L	.	8C/L	.	8e\L	.	8ccc\L	.
8C/	.	8e\	.	8ee\	.	8ccc\	.
8D/	.	8d\	.	8dd\	.	8bb\	.
8C/J	.	8e\J	.	8ee\J	.	8ccc\J	.
8C/L	.	8e\L	.	8ee\L	.	8ccc\L	.
8C/	.	8e\	.	8ee\	.	8ccc\	.
8D/	.	8d\	.	8dd\	.	8bb\	.
8C/J	.	8e\J	.	8ee\J	.	8ccc\J	.
=420	=420	=420	=420	=420	=420	=420	=420
8BB/L	.	8f\L	.	8ff\L	.	8ddd\L	.
8BB/	.	8f\	.	8ff\	.	8ddd\	.
8C/	.	8e\	.	8ee\	.	8ccc\	.
8BB/J	.	8f\J	.	8ff\J	.	8ddd\J	.
8AA/L	.	8g\L	.	8gg\L	.	8eee\L	.
8AA/	.	8g\	.	8gg\	.	8eee\	.
8BB/	.	8f\	.	8ff\	.	8ddd\	.
8AA/J	.	8g\J	.	8gg\J	.	8eee\J	.
=421	=421	=421	=421	=421	=421	=421	=421
8GG/L	.	8a\L	.	8aa\L	.	8fff\L	.
8GG/	.	8a\	.	8aa\	.	8fff\	.
8AA/	.	8g\	.	8gg\	.	8eee\	.
8GG/J	.	8a\J	.	8aa\J	.	8fff\J	.
8FF/L	.	8b\L	.	8bb\L	.	8ggg\L	.
8FF/	.	8b\	.	8bb\	.	8ggg\	.
8GG/	.	8a\	.	8aa\	.	8fff\	.
8FF/J	.	8b\J	.	8bb\J	.	8ggg\J	.
=422	=422	=422	=422	=422	=422	=422	=422
8EE/L	.	8cc\L	.	8ccc\L	.	8aaa\L	.
8EE/	.	8cc\	.	8ccc\	.	8aaa\	.
8FF/	.	8b\	.	8bb\	.	8ggg\	.
8EE/J	.	8cc\J	.	8ccc\J	.	8aaa\J	.
8DD/L	.	8dd\L	.	8ddd\L	.	8bbb\L	.
8DD/	.	8dd\	.	8ddd\	.	8bbb\	.
8EE/	.	8cc\	.	8ccc\	.	8aaa\	.
8DD/J	.	8dd\J	.	8ddd\J	.	8bbb\J	.
=423	=423	=423	=423	=423	=423	=423	=423
4CC/	ff	4ee\	ff	4eee\	ff	8cccc\L	ff
.	.	.	.	.	.	8cccc\	.
8G\L	.	8g\L	.	8gg\L	.	8ggg\	.
8G\J	.	8g\J	.	8gg\J	.	8ggg\J	.
8E\L	.	8e\L	.	8ee\L	.	8eee\L	.
8E\J	.	8e\J	.	8ee\J	.	8eee\J	.
8G\L	.	8g\L	.	8gg\L	.	8ggg\L	.
8G\J	.	8g\J	.	8gg\J	.	8ggg\J	.
=424	=424	=424	=424	=424	=424	=424	=424
8c\L	.	8c\L	.	8cc\L	.	8ccc\L	.
8c\J	.	8c\J	.	8cc\J	.	8ccc\J	.
8e\L	.	8e\L	.	8ee\L	.	8eee\L	.
8e\J	.	8e\J	.	8ee\J	.	8eee\J	.
8G\L	.	8G/L	.	8g/L	.	8gg\L	.
8G\J	.	8G/J	.	8g/J	.	8gg\J	.
8c\L	.	8c/L	.	8cc\L	.	8ccc\L	.
8c\J	.	8c/J	.	8cc\J	.	8ccc\J	.
=425	=425	=425	=425	=425	=425	=425	=425
8E\L	.	8E/L	.	8e/L	.	8ee\L	.
8E\J	.	8E/J	.	8e/J	.	8ee\J	.
8G\L	.	8G/L	.	8g/L	.	8gg\L	.
8G\J	.	8G/J	.	8g/J	.	8gg\J	.
8C/L	.	8C/L	.	8c/L	.	8cc\L	.
8C/J	.	8C/J	.	8c/J	.	8cc\J	.
8E\L	.	8E/L	.	8e/L	.	8ee\L	.
8E\J	.	8E/J	.	8e/J	.	8ee\J	.
=426	=426	=426	=426	=426	=426	=426	=426
8GG/L	.	8G/L	.	8G/L	.	8g/L	.
8GG/J	.	8G/J	.	8G/J	.	8g/J	.
8C/L	.	8c/L	.	8c/L	.	8cc\L	.
8C/J	.	8c/J	.	8c/J	.	8cc\J	.
8EE/L	.	8E/L	.	8e/L	.	8e/L	.
8EE/J	.	8E/J	.	8e/J	.	8e/J	.
8CC/L	.	8e\L	.	8cc\L	.	8gg\L	.
8CC/J	.	8e\J	.	8cc\J	.	8gg\J	.
=427	=427	=427	=427	=427	=427	=427	=427
4FF/	.	4f\	.	4a/	.	4aa\	.
4r	.	4r	.	4r	.	4r	.
2r	.	2r	.	2r	.	2r	.
=428	=428	=428	=428	=428	=428	=428	=428
4GG/	.	4G/ 4f/	.	4G/ 4d/ 4b/	.	4G/ 4g/ 4dd/ 4bb/	.
4r	.	4r	.	4r	.	4r	.
2r	.	2r	.	2r	.	2r	.
=429	=429	=429	=429	=429	=429	=429	=429
4CC/	.	4C/ 4G/ 4e/	.	4G/ 4e/ 4cc/	.	4c/ 4g/ 4ee/ 4ccc/	.
4r	.	4r	.	4r	.	4r	.
2r	.	2r	.	2r	.	2r	.
==	==	==	==	==	==	==	==
*-	*-	*-	*-	*-	*-	*-	*-
!!!ONB: Scanned with SharpEye into MusicXML by Don Anthony 2006///
!!!ONB: Converted to Humdrum by Craig Sapp 2006/07/24/
